(Created with emc2b post processor 2016/07/28 00:33)
(tool change to 3 mm Slot Cutter)
T1 M06 G43
G17 G90 G21
G00 X39 Y61 S7000 M03
Z5
G83 Q3 G98 X39 Y61 Z-17 R2 F100
X61 Y61 
X184 Y61 
X206 Y61 
X329 Y61 
X351 Y61 
G80
(Sketch 20)
G00 X195 Y17.5 S7000 M03
Z2
G01 Z-2.833 
G02 X195 Y18.5 I0 J0.5 F400
G01 X339.981 Y18.5 
X340.417 Y18.489 
X340.832 Y18.458 
X341.246 Y18.407 
X341.658 Y18.336 
X342.065 Y18.244 
X342.467 Y18.133 
X342.863 Y18.002 
X343.252 Y17.852 
X343.634 Y17.683 
X344.006 Y17.496 
X344.369 Y17.29 
X344.722 Y17.067 
X345.063 Y16.827 
X345.392 Y16.57 
X345.708 Y16.297 
X346.01 Y16.01 
X346.298 Y15.708 
X346.569 Y15.392 
X346.827 Y15.062 
X347.067 Y14.722 
X347.289 Y14.37 
X347.496 Y14.006 
X347.683 Y13.633 
X347.852 Y13.253 
X348.001 Y12.864 
X348.133 Y12.467 
X348.244 Y12.064 
X348.336 Y11.657 
X348.407 Y11.247 
X348.458 Y10.833 
X348.489 Y10.417 
X348.512 Y9.472 
G03 X348.516 Y9.399 I1.499 J0.036 
G01 X348.552 Y8.909 
G03 X348.559 Y8.836 I1.495 J0.11 
G01 X348.619 Y8.349 
G03 X348.63 Y8.275 I1.488 J0.183 
G01 X348.714 Y7.792 
G03 X348.728 Y7.719 I1.477 J0.256 
G01 X348.836 Y7.24 
G03 X348.854 Y7.169 I1.463 J0.329 
G01 X348.985 Y6.696 
G03 X349.006 Y6.626 I1.445 J0.4 
G01 X349.16 Y6.16 
G03 X349.184 Y6.092 I1.424 J0.47 
G01 X349.36 Y5.635 
G03 X349.389 Y5.565 I1.4 J0.538 
G01 X349.588 Y5.116 
G03 X349.62 Y5.049 I1.371 J0.608 
G01 X349.841 Y4.61 
G03 X349.875 Y4.546 I1.339 J0.675 
G01 X350.117 Y4.119 
G03 X350.154 Y4.057 I1.305 J0.739 
G01 X350.416 Y3.643 
G03 X350.459 Y3.579 I1.268 J0.801 
G01 X350.742 Y3.178 
G03 X350.785 Y3.12 I1.225 J0.864 
G01 X351.087 Y2.733 
G03 X351.133 Y2.677 I1.182 J0.922 
G01 X351.453 Y2.305 
G03 X351.504 Y2.249 I1.136 J0.978 
G01 X351.843 Y1.893 
G03 X351.893 Y1.843 I1.085 J1.035 
G01 X352.248 Y1.504 
G03 X352.304 Y1.454 I1.035 J1.085 
G01 X352.676 Y1.133 
G03 X352.733 Y1.087 I0.979 J1.136 
G01 X353.12 Y0.785 
G03 X353.178 Y0.741 I0.922 J1.182 
G01 X353.579 Y0.459 
G03 X353.641 Y0.417 I0.864 J1.226 
G01 X354.056 Y0.155 
G03 X354.119 Y0.117 I0.802 J1.267 
G01 X354.546 Y-0.124 
G03 X354.611 Y-0.158 I0.739 J1.305 
G01 X355.049 Y-0.379 
G03 X355.116 Y-0.411 I0.674 J1.339 
G01 X355.565 Y-0.61 
G03 X355.633 Y-0.638 I0.607 J1.371 
G01 X356.091 Y-0.814 
G03 X356.16 Y-0.839 I0.539 J1.399 
G01 X356.626 Y-0.993 
G03 X356.696 Y-1.015 I0.47 J1.424 
G01 X357.169 Y-1.145 
G03 X357.241 Y-1.163 I0.4 J1.445 
G01 X357.72 Y-1.271 
G03 X357.792 Y-1.285 I0.328 J1.463 
G01 X358.276 Y-1.369 
G03 X358.349 Y-1.38 I0.256 J1.477 
G01 X358.836 Y-1.44 
G03 X358.909 Y-1.447 I0.183 J1.488 
G01 X359.398 Y-1.483 
G03 X359.472 Y-1.487 I0.11 J1.495 
G01 X359.963 Y-1.499 
G03 X360 Y-1.5 I0.036 J1.499 
G01 X380 Y-1.5 
G03 X380.036 Y-1.499 I0 J1.5 
G01 X380.527 Y-1.487 
G03 X380.601 Y-1.483 I-0.036 J1.499 
G01 X381.09 Y-1.447 
G03 X381.163 Y-1.44 I-0.11 J1.495 
G01 X381.65 Y-1.38 
G03 X381.723 Y-1.369 I-0.183 J1.488 
G01 X382.207 Y-1.285 
G03 X382.279 Y-1.271 I-0.256 J1.477 
G01 X382.758 Y-1.163 
G03 X382.83 Y-1.145 I-0.328 J1.463 
G01 X383.303 Y-1.015 
G03 X383.373 Y-0.993 I-0.4 J1.445 
G01 X383.839 Y-0.839 
G03 X383.908 Y-0.814 I-0.47 J1.424 
G01 X384.366 Y-0.638 
G03 X384.434 Y-0.61 I-0.539 J1.399 
G01 X384.883 Y-0.411 
G03 X384.95 Y-0.379 I-0.607 J1.371 
G01 X385.388 Y-0.158 
G03 X385.453 Y-0.124 I-0.674 J1.339 
G01 X385.88 Y0.117 
G03 X385.943 Y0.155 I-0.739 J1.305 
G01 X386.358 Y0.417 
G03 X386.42 Y0.459 I-0.802 J1.267 
G01 X386.821 Y0.741 
G03 X386.879 Y0.785 I-0.864 J1.226 
G01 X387.266 Y1.087 
G03 X387.323 Y1.133 I-0.922 J1.182 
G01 X387.695 Y1.454 
G03 X387.751 Y1.504 I-0.979 J1.136 
G01 X388.106 Y1.843 
G03 X388.156 Y1.893 I-1.035 J1.085 
G01 X388.495 Y2.249 
G03 X388.546 Y2.305 I-1.085 J1.035 
G01 X388.866 Y2.677 
G03 X388.912 Y2.733 I-1.136 J0.978 
G01 X389.214 Y3.12 
G03 X389.257 Y3.178 I-1.182 J0.922 
G01 X389.54 Y3.579 
G03 X389.583 Y3.643 I-1.225 J0.864 
G01 X389.845 Y4.057 
G03 X389.882 Y4.119 I-1.268 J0.801 
G01 X390.124 Y4.546 
G03 X390.158 Y4.61 I-1.305 J0.739 
G01 X390.379 Y5.049 
G03 X390.411 Y5.116 I-1.339 J0.675 
G01 X390.61 Y5.565 
G03 X390.639 Y5.635 I-1.371 J0.608 
G01 X390.815 Y6.092 
G03 X390.839 Y6.16 I-1.4 J0.538 
G01 X390.993 Y6.626 
G03 X391.014 Y6.696 I-1.424 J0.47 
G01 X391.145 Y7.169 
G03 X391.163 Y7.24 I-1.445 J0.4 
G01 X391.271 Y7.719 
G03 X391.285 Y7.792 I-1.463 J0.329 
G01 X391.369 Y8.275 
G03 X391.38 Y8.349 I-1.477 J0.256 
G01 X391.44 Y8.836 
G03 X391.447 Y8.909 I-1.488 J0.183 
G01 X391.483 Y9.399 
G03 X391.487 Y9.472 I-1.495 J0.11 
G01 X391.499 Y9.963 
G03 X391.5 Y10 I-1.499 J0.036 
G01 X391.5 Y60 
G03 X390 Y61.5 I-1.5 J0 
G01 X351.5 Y61.5 
X351.5 Y76 
G03 X350 Y77.5 I-1.5 J0 
G01 X330 Y77.5 
G03 X328.5 Y76 I0 J-1.5 
G01 X328.5 Y61.5 
X206.5 Y61.5 
X206.5 Y76 
G03 X205 Y77.5 I-1.5 J0 
G01 X185 Y77.5 
G03 X183.5 Y76 I0 J-1.5 
G01 X183.5 Y61.5 
X61.5 Y61.5 
X61.5 Y76 
G03 X60 Y77.5 I-1.5 J0 
G01 X40 Y77.5 
G03 X38.5 Y76 I0 J-1.5 
G01 X38.5 Y61.5 
X0 Y61.5 
G03 X-1.5 Y60 I0 J-1.5 
G01 X-1.5 Y10 
G03 X-1.499 Y9.963 I1.5 J0 
G01 X-1.487 Y9.472 
G03 X-1.483 Y9.398 I1.499 J0.036 
G01 X-1.447 Y8.909 
G03 X-1.44 Y8.836 I1.495 J0.11 
G01 X-1.38 Y8.349 
G03 X-1.369 Y8.276 I1.488 J0.183 
G01 X-1.285 Y7.792 
G03 X-1.271 Y7.72 I1.477 J0.256 
G01 X-1.163 Y7.241 
G03 X-1.145 Y7.17 I1.463 J0.328 
G01 X-1.015 Y6.697 
G03 X-0.993 Y6.626 I1.445 J0.4 
G01 X-0.839 Y6.16 
G03 X-0.814 Y6.091 I1.424 J0.47 
G01 X-0.638 Y5.633 
G03 X-0.61 Y5.565 I1.399 J0.539 
G01 X-0.411 Y5.116 
G03 X-0.379 Y5.049 I1.371 J0.607 
G01 X-0.159 Y4.611 
G03 X-0.124 Y4.546 I1.339 J0.674 
G01 X0.117 Y4.119 
G03 X0.155 Y4.056 I1.305 J0.739 
G01 X0.418 Y3.641 
G03 X0.458 Y3.58 I1.267 J0.802 
G01 X0.741 Y3.179 
G03 X0.785 Y3.12 I1.226 J0.863 
G01 X1.087 Y2.733 
G03 X1.134 Y2.676 I1.182 J0.922 
G01 X1.454 Y2.304 
G03 X1.504 Y2.25 I1.135 J0.979 
G01 X1.842 Y1.894 
G03 X1.894 Y1.842 I1.086 J1.034 
G01 X2.25 Y1.504 
G03 X2.304 Y1.454 I1.034 J1.086 
G01 X2.676 Y1.134 
G03 X2.733 Y1.087 I0.979 J1.135 
G01 X3.12 Y0.785 
G03 X3.179 Y0.741 I0.922 J1.182 
G01 X3.58 Y0.458 
G03 X3.641 Y0.418 I0.863 J1.226 
G01 X4.056 Y0.155 
G03 X4.119 Y0.117 I0.802 J1.267 
G01 X4.546 Y-0.124 
G03 X4.611 Y-0.159 I0.739 J1.305 
G01 X5.049 Y-0.379 
G03 X5.116 Y-0.411 I0.674 J1.339 
G01 X5.565 Y-0.61 
G03 X5.633 Y-0.638 I0.607 J1.371 
G01 X6.091 Y-0.814 
G03 X6.16 Y-0.839 I0.539 J1.399 
G01 X6.626 Y-0.993 
G03 X6.697 Y-1.015 I0.47 J1.424 
G01 X7.17 Y-1.145 
G03 X7.241 Y-1.163 I0.4 J1.445 
G01 X7.72 Y-1.271 
G03 X7.792 Y-1.285 I0.328 J1.463 
G01 X8.276 Y-1.369 
G03 X8.349 Y-1.38 I0.256 J1.477 
G01 X8.836 Y-1.44 
G03 X8.909 Y-1.447 I0.183 J1.488 
G01 X9.398 Y-1.483 
G03 X9.472 Y-1.487 I0.11 J1.495 
G01 X9.963 Y-1.499 
G03 X10 Y-1.5 I0.036 J1.499 
G01 X30 Y-1.5 
G03 X30.036 Y-1.499 I0 J1.5 
G01 X30.527 Y-1.487 
G03 X30.601 Y-1.483 I-0.036 J1.499 
G01 X31.09 Y-1.447 
G03 X31.163 Y-1.44 I-0.11 J1.495 
G01 X31.65 Y-1.38 
G03 X31.723 Y-1.369 I-0.183 J1.488 
G01 X32.207 Y-1.285 
G03 X32.279 Y-1.271 I-0.256 J1.477 
G01 X32.758 Y-1.163 
G03 X32.829 Y-1.145 I-0.328 J1.463 
G01 X33.302 Y-1.015 
G03 X33.373 Y-0.993 I-0.4 J1.445 
G01 X33.839 Y-0.839 
G03 X33.908 Y-0.814 I-0.47 J1.424 
G01 X34.366 Y-0.638 
G03 X34.434 Y-0.61 I-0.539 J1.399 
G01 X34.883 Y-0.411 
G03 X34.95 Y-0.379 I-0.607 J1.371 
G01 X35.388 Y-0.159 
G03 X35.453 Y-0.124 I-0.674 J1.339 
G01 X35.88 Y0.117 
G03 X35.943 Y0.155 I-0.739 J1.305 
G01 X36.358 Y0.418 
G03 X36.419 Y0.458 I-0.802 J1.267 
G01 X36.82 Y0.741 
G03 X36.879 Y0.785 I-0.863 J1.226 
G01 X37.266 Y1.087 
G03 X37.323 Y1.134 I-0.922 J1.182 
G01 X37.695 Y1.454 
G03 X37.749 Y1.504 I-0.979 J1.135 
G01 X38.105 Y1.842 
G03 X38.157 Y1.894 I-1.034 J1.086 
G01 X38.495 Y2.25 
G03 X38.545 Y2.304 I-1.086 J1.034 
G01 X38.865 Y2.676 
G03 X38.912 Y2.733 I-1.135 J0.979 
G01 X39.214 Y3.12 
G03 X39.258 Y3.179 I-1.182 J0.922 
G01 X39.541 Y3.58 
G03 X39.581 Y3.641 I-1.226 J0.863 
G01 X39.844 Y4.056 
G03 X39.882 Y4.119 I-1.267 J0.802 
G01 X40.124 Y4.546 
G03 X40.159 Y4.611 I-1.305 J0.739 
G01 X40.379 Y5.049 
G03 X40.411 Y5.116 I-1.339 J0.674 
G01 X40.61 Y5.565 
G03 X40.638 Y5.633 I-1.371 J0.607 
G01 X40.814 Y6.091 
G03 X40.839 Y6.16 I-1.399 J0.54 
G01 X40.993 Y6.626 
G03 X41.015 Y6.697 I-1.424 J0.47 
G01 X41.145 Y7.17 
G03 X41.163 Y7.241 I-1.445 J0.4 
G01 X41.271 Y7.72 
G03 X41.285 Y7.792 I-1.463 J0.328 
G01 X41.369 Y8.276 
G03 X41.38 Y8.349 I-1.477 J0.256 
G01 X41.44 Y8.836 
G03 X41.447 Y8.909 I-1.488 J0.183 
G01 X41.483 Y9.398 
G03 X41.487 Y9.472 I-1.495 J0.11 
G01 X41.51 Y10.417 
X41.541 Y10.833 
X41.592 Y11.247 
X41.663 Y11.658 
X41.755 Y12.065 
X41.866 Y12.467 
X41.997 Y12.863 
X42.147 Y13.252 
X42.316 Y13.634 
X42.504 Y14.006 
X42.709 Y14.369 
X42.932 Y14.722 
X43.173 Y15.063 
X43.429 Y15.391 
X43.702 Y15.708 
X43.989 Y16.01 
X44.291 Y16.297 
X44.608 Y16.57 
X44.936 Y16.826 
X45.277 Y17.067 
X45.63 Y17.29 
X45.993 Y17.495 
X46.365 Y17.683 
X46.747 Y17.852 
X47.136 Y18.002 
X47.532 Y18.133 
X47.934 Y18.244 
X48.341 Y18.336 
X48.752 Y18.407 
X49.166 Y18.458 
X49.582 Y18.489 
X50.018 Y18.5 
X195 Y18.5 
G02 X195 Y17.5 I0 J-0.5 
G01 Z-5.666 F100
G02 X195 Y18.5 I0 J0.5 F400
G01 X339.981 Y18.5 
X340.417 Y18.489 
X340.832 Y18.458 
X341.246 Y18.407 
X341.658 Y18.336 
X342.065 Y18.244 
X342.467 Y18.133 
X342.863 Y18.002 
X343.252 Y17.852 
X343.634 Y17.683 
X344.006 Y17.496 
X344.369 Y17.29 
X344.722 Y17.067 
X345.063 Y16.827 
X345.392 Y16.57 
X345.708 Y16.297 
X346.01 Y16.01 
X346.298 Y15.708 
X346.569 Y15.392 
X346.827 Y15.062 
X347.067 Y14.722 
X347.289 Y14.37 
X347.496 Y14.006 
X347.683 Y13.633 
X347.852 Y13.253 
X348.001 Y12.864 
X348.133 Y12.467 
X348.244 Y12.064 
X348.336 Y11.657 
X348.407 Y11.247 
X348.458 Y10.833 
X348.489 Y10.417 
X348.512 Y9.472 
G03 X348.516 Y9.399 I1.499 J0.036 
G01 X348.552 Y8.909 
G03 X348.559 Y8.836 I1.495 J0.11 
G01 X348.619 Y8.349 
G03 X348.63 Y8.275 I1.488 J0.183 
G01 X348.714 Y7.792 
G03 X348.728 Y7.719 I1.477 J0.256 
G01 X348.836 Y7.24 
G03 X348.854 Y7.169 I1.463 J0.329 
G01 X348.985 Y6.696 
G03 X349.006 Y6.626 I1.445 J0.4 
G01 X349.16 Y6.16 
G03 X349.184 Y6.092 I1.424 J0.47 
G01 X349.36 Y5.635 
G03 X349.389 Y5.565 I1.4 J0.538 
G01 X349.588 Y5.116 
G03 X349.62 Y5.049 I1.371 J0.608 
G01 X349.841 Y4.61 
G03 X349.875 Y4.546 I1.339 J0.675 
G01 X350.117 Y4.119 
G03 X350.154 Y4.057 I1.305 J0.739 
G01 X350.416 Y3.643 
G03 X350.459 Y3.579 I1.268 J0.801 
G01 X350.742 Y3.178 
G03 X350.785 Y3.12 I1.225 J0.864 
G01 X351.087 Y2.733 
G03 X351.133 Y2.677 I1.182 J0.922 
G01 X351.453 Y2.305 
G03 X351.504 Y2.249 I1.136 J0.978 
G01 X351.843 Y1.893 
G03 X351.893 Y1.843 I1.085 J1.035 
G01 X352.248 Y1.504 
G03 X352.304 Y1.454 I1.035 J1.085 
G01 X352.676 Y1.133 
G03 X352.733 Y1.087 I0.979 J1.136 
G01 X353.12 Y0.785 
G03 X353.178 Y0.741 I0.922 J1.182 
G01 X353.579 Y0.459 
G03 X353.641 Y0.417 I0.864 J1.226 
G01 X354.056 Y0.155 
G03 X354.119 Y0.117 I0.802 J1.267 
G01 X354.546 Y-0.124 
G03 X354.611 Y-0.158 I0.739 J1.305 
G01 X355.049 Y-0.379 
G03 X355.116 Y-0.411 I0.674 J1.339 
G01 X355.565 Y-0.61 
G03 X355.633 Y-0.638 I0.607 J1.371 
G01 X356.091 Y-0.814 
G03 X356.16 Y-0.839 I0.539 J1.399 
G01 X356.626 Y-0.993 
G03 X356.696 Y-1.015 I0.47 J1.424 
G01 X357.169 Y-1.145 
G03 X357.241 Y-1.163 I0.4 J1.445 
G01 X357.72 Y-1.271 
G03 X357.792 Y-1.285 I0.328 J1.463 
G01 X358.276 Y-1.369 
G03 X358.349 Y-1.38 I0.256 J1.477 
G01 X358.836 Y-1.44 
G03 X358.909 Y-1.447 I0.183 J1.488 
G01 X359.398 Y-1.483 
G03 X359.472 Y-1.487 I0.11 J1.495 
G01 X359.963 Y-1.499 
G03 X360 Y-1.5 I0.036 J1.499 
G01 X380 Y-1.5 
G03 X380.036 Y-1.499 I0 J1.5 
G01 X380.527 Y-1.487 
G03 X380.601 Y-1.483 I-0.036 J1.499 
G01 X381.09 Y-1.447 
G03 X381.163 Y-1.44 I-0.11 J1.495 
G01 X381.65 Y-1.38 
G03 X381.723 Y-1.369 I-0.183 J1.488 
G01 X382.207 Y-1.285 
G03 X382.279 Y-1.271 I-0.256 J1.477 
G01 X382.758 Y-1.163 
G03 X382.83 Y-1.145 I-0.328 J1.463 
G01 X383.303 Y-1.015 
G03 X383.373 Y-0.993 I-0.4 J1.445 
G01 X383.839 Y-0.839 
G03 X383.908 Y-0.814 I-0.47 J1.424 
G01 X384.366 Y-0.638 
G03 X384.434 Y-0.61 I-0.539 J1.399 
G01 X384.883 Y-0.411 
G03 X384.95 Y-0.379 I-0.607 J1.371 
G01 X385.388 Y-0.158 
G03 X385.453 Y-0.124 I-0.674 J1.339 
G01 X385.88 Y0.117 
G03 X385.943 Y0.155 I-0.739 J1.305 
G01 X386.358 Y0.417 
G03 X386.42 Y0.459 I-0.802 J1.267 
G01 X386.821 Y0.741 
G03 X386.879 Y0.785 I-0.864 J1.226 
G01 X387.266 Y1.087 
G03 X387.323 Y1.133 I-0.922 J1.182 
G01 X387.695 Y1.454 
G03 X387.751 Y1.504 I-0.979 J1.136 
G01 X388.106 Y1.843 
G03 X388.156 Y1.893 I-1.035 J1.085 
G01 X388.495 Y2.249 
G03 X388.546 Y2.305 I-1.085 J1.035 
G01 X388.866 Y2.677 
G03 X388.912 Y2.733 I-1.136 J0.978 
G01 X389.214 Y3.12 
G03 X389.257 Y3.178 I-1.182 J0.922 
G01 X389.54 Y3.579 
G03 X389.583 Y3.643 I-1.225 J0.864 
G01 X389.845 Y4.057 
G03 X389.882 Y4.119 I-1.268 J0.801 
G01 X390.124 Y4.546 
G03 X390.158 Y4.61 I-1.305 J0.739 
G01 X390.379 Y5.049 
G03 X390.411 Y5.116 I-1.339 J0.675 
G01 X390.61 Y5.565 
G03 X390.639 Y5.635 I-1.371 J0.608 
G01 X390.815 Y6.092 
G03 X390.839 Y6.16 I-1.4 J0.538 
G01 X390.993 Y6.626 
G03 X391.014 Y6.696 I-1.424 J0.47 
G01 X391.145 Y7.169 
G03 X391.163 Y7.24 I-1.445 J0.4 
G01 X391.271 Y7.719 
G03 X391.285 Y7.792 I-1.463 J0.329 
G01 X391.369 Y8.275 
G03 X391.38 Y8.349 I-1.477 J0.256 
G01 X391.44 Y8.836 
G03 X391.447 Y8.909 I-1.488 J0.183 
G01 X391.483 Y9.399 
G03 X391.487 Y9.472 I-1.495 J0.11 
G01 X391.499 Y9.963 
G03 X391.5 Y10 I-1.499 J0.036 
G01 X391.5 Y60 
G03 X390 Y61.5 I-1.5 J0 
G01 X351.5 Y61.5 
X351.5 Y76 
G03 X350 Y77.5 I-1.5 J0 
G01 X330 Y77.5 
G03 X328.5 Y76 I0 J-1.5 
G01 X328.5 Y61.5 
X206.5 Y61.5 
X206.5 Y76 
G03 X205 Y77.5 I-1.5 J0 
G01 X185 Y77.5 
G03 X183.5 Y76 I0 J-1.5 
G01 X183.5 Y61.5 
X61.5 Y61.5 
X61.5 Y76 
G03 X60 Y77.5 I-1.5 J0 
G01 X40 Y77.5 
G03 X38.5 Y76 I0 J-1.5 
G01 X38.5 Y61.5 
X0 Y61.5 
G03 X-1.5 Y60 I0 J-1.5 
G01 X-1.5 Y10 
G03 X-1.499 Y9.963 I1.5 J0 
G01 X-1.487 Y9.472 
G03 X-1.483 Y9.398 I1.499 J0.036 
G01 X-1.447 Y8.909 
G03 X-1.44 Y8.836 I1.495 J0.11 
G01 X-1.38 Y8.349 
G03 X-1.369 Y8.276 I1.488 J0.183 
G01 X-1.285 Y7.792 
G03 X-1.271 Y7.72 I1.477 J0.256 
G01 X-1.163 Y7.241 
G03 X-1.145 Y7.17 I1.463 J0.328 
G01 X-1.015 Y6.697 
G03 X-0.993 Y6.626 I1.445 J0.4 
G01 X-0.839 Y6.16 
G03 X-0.814 Y6.091 I1.424 J0.47 
G01 X-0.638 Y5.633 
G03 X-0.61 Y5.565 I1.399 J0.539 
G01 X-0.411 Y5.116 
G03 X-0.379 Y5.049 I1.371 J0.607 
G01 X-0.159 Y4.611 
G03 X-0.124 Y4.546 I1.339 J0.674 
G01 X0.117 Y4.119 
G03 X0.155 Y4.056 I1.305 J0.739 
G01 X0.418 Y3.641 
G03 X0.458 Y3.58 I1.267 J0.802 
G01 X0.741 Y3.179 
G03 X0.785 Y3.12 I1.226 J0.863 
G01 X1.087 Y2.733 
G03 X1.134 Y2.676 I1.182 J0.922 
G01 X1.454 Y2.304 
G03 X1.504 Y2.25 I1.135 J0.979 
G01 X1.842 Y1.894 
G03 X1.894 Y1.842 I1.086 J1.034 
G01 X2.25 Y1.504 
G03 X2.304 Y1.454 I1.034 J1.086 
G01 X2.676 Y1.134 
G03 X2.733 Y1.087 I0.979 J1.135 
G01 X3.12 Y0.785 
G03 X3.179 Y0.741 I0.922 J1.182 
G01 X3.58 Y0.458 
G03 X3.641 Y0.418 I0.863 J1.226 
G01 X4.056 Y0.155 
G03 X4.119 Y0.117 I0.802 J1.267 
G01 X4.546 Y-0.124 
G03 X4.611 Y-0.159 I0.739 J1.305 
G01 X5.049 Y-0.379 
G03 X5.116 Y-0.411 I0.674 J1.339 
G01 X5.565 Y-0.61 
G03 X5.633 Y-0.638 I0.607 J1.371 
G01 X6.091 Y-0.814 
G03 X6.16 Y-0.839 I0.539 J1.399 
G01 X6.626 Y-0.993 
G03 X6.697 Y-1.015 I0.47 J1.424 
G01 X7.17 Y-1.145 
G03 X7.241 Y-1.163 I0.4 J1.445 
G01 X7.72 Y-1.271 
G03 X7.792 Y-1.285 I0.328 J1.463 
G01 X8.276 Y-1.369 
G03 X8.349 Y-1.38 I0.256 J1.477 
G01 X8.836 Y-1.44 
G03 X8.909 Y-1.447 I0.183 J1.488 
G01 X9.398 Y-1.483 
G03 X9.472 Y-1.487 I0.11 J1.495 
G01 X9.963 Y-1.499 
G03 X10 Y-1.5 I0.036 J1.499 
G01 X30 Y-1.5 
G03 X30.036 Y-1.499 I0 J1.5 
G01 X30.527 Y-1.487 
G03 X30.601 Y-1.483 I-0.036 J1.499 
G01 X31.09 Y-1.447 
G03 X31.163 Y-1.44 I-0.11 J1.495 
G01 X31.65 Y-1.38 
G03 X31.723 Y-1.369 I-0.183 J1.488 
G01 X32.207 Y-1.285 
G03 X32.279 Y-1.271 I-0.256 J1.477 
G01 X32.758 Y-1.163 
G03 X32.829 Y-1.145 I-0.328 J1.463 
G01 X33.302 Y-1.015 
G03 X33.373 Y-0.993 I-0.4 J1.445 
G01 X33.839 Y-0.839 
G03 X33.908 Y-0.814 I-0.47 J1.424 
G01 X34.366 Y-0.638 
G03 X34.434 Y-0.61 I-0.539 J1.399 
G01 X34.883 Y-0.411 
G03 X34.95 Y-0.379 I-0.607 J1.371 
G01 X35.388 Y-0.159 
G03 X35.453 Y-0.124 I-0.674 J1.339 
G01 X35.88 Y0.117 
G03 X35.943 Y0.155 I-0.739 J1.305 
G01 X36.358 Y0.418 
G03 X36.419 Y0.458 I-0.802 J1.267 
G01 X36.82 Y0.741 
G03 X36.879 Y0.785 I-0.863 J1.226 
G01 X37.266 Y1.087 
G03 X37.323 Y1.134 I-0.922 J1.182 
G01 X37.695 Y1.454 
G03 X37.749 Y1.504 I-0.979 J1.135 
G01 X38.105 Y1.842 
G03 X38.157 Y1.894 I-1.034 J1.086 
G01 X38.495 Y2.25 
G03 X38.545 Y2.304 I-1.086 J1.034 
G01 X38.865 Y2.676 
G03 X38.912 Y2.733 I-1.135 J0.979 
G01 X39.214 Y3.12 
G03 X39.258 Y3.179 I-1.182 J0.922 
G01 X39.541 Y3.58 
G03 X39.581 Y3.641 I-1.226 J0.863 
G01 X39.844 Y4.056 
G03 X39.882 Y4.119 I-1.267 J0.802 
G01 X40.124 Y4.546 
G03 X40.159 Y4.611 I-1.305 J0.739 
G01 X40.379 Y5.049 
G03 X40.411 Y5.116 I-1.339 J0.674 
G01 X40.61 Y5.565 
G03 X40.638 Y5.633 I-1.371 J0.607 
G01 X40.814 Y6.091 
G03 X40.839 Y6.16 I-1.399 J0.54 
G01 X40.993 Y6.626 
G03 X41.015 Y6.697 I-1.424 J0.47 
G01 X41.145 Y7.17 
G03 X41.163 Y7.241 I-1.445 J0.4 
G01 X41.271 Y7.72 
G03 X41.285 Y7.792 I-1.463 J0.328 
G01 X41.369 Y8.276 
G03 X41.38 Y8.349 I-1.477 J0.256 
G01 X41.44 Y8.836 
G03 X41.447 Y8.909 I-1.488 J0.183 
G01 X41.483 Y9.398 
G03 X41.487 Y9.472 I-1.495 J0.11 
G01 X41.51 Y10.417 
X41.541 Y10.833 
X41.592 Y11.247 
X41.663 Y11.658 
X41.755 Y12.065 
X41.866 Y12.467 
X41.997 Y12.863 
X42.147 Y13.252 
X42.316 Y13.634 
X42.504 Y14.006 
X42.709 Y14.369 
X42.932 Y14.722 
X43.173 Y15.063 
X43.429 Y15.391 
X43.702 Y15.708 
X43.989 Y16.01 
X44.291 Y16.297 
X44.608 Y16.57 
X44.936 Y16.826 
X45.277 Y17.067 
X45.63 Y17.29 
X45.993 Y17.495 
X46.365 Y17.683 
X46.747 Y17.852 
X47.136 Y18.002 
X47.532 Y18.133 
X47.934 Y18.244 
X48.341 Y18.336 
X48.752 Y18.407 
X49.166 Y18.458 
X49.582 Y18.489 
X50.018 Y18.5 
X195 Y18.5 
G02 X195 Y17.5 I0 J-0.5 
G01 Z-8.5 F100
G02 X195 Y18.5 I0 J0.5 F400
G01 X339.981 Y18.5 
X340.417 Y18.489 
X340.832 Y18.458 
X341.246 Y18.407 
X341.658 Y18.336 
X342.065 Y18.244 
X342.467 Y18.133 
X342.863 Y18.002 
X343.252 Y17.852 
X343.634 Y17.683 
X344.006 Y17.496 
X344.369 Y17.29 
X344.722 Y17.067 
X345.063 Y16.827 
X345.392 Y16.57 
X345.708 Y16.297 
X346.01 Y16.01 
X346.298 Y15.708 
X346.569 Y15.392 
X346.827 Y15.062 
X347.067 Y14.722 
X347.289 Y14.37 
X347.496 Y14.006 
X347.683 Y13.633 
X347.852 Y13.253 
X348.001 Y12.864 
X348.133 Y12.467 
X348.244 Y12.064 
X348.336 Y11.657 
X348.407 Y11.247 
X348.458 Y10.833 
X348.489 Y10.417 
X348.512 Y9.472 
G03 X348.516 Y9.399 I1.499 J0.036 
G01 X348.552 Y8.909 
G03 X348.559 Y8.836 I1.495 J0.11 
G01 X348.619 Y8.349 
G03 X348.63 Y8.275 I1.488 J0.183 
G01 X348.714 Y7.792 
G03 X348.728 Y7.719 I1.477 J0.256 
G01 X348.836 Y7.24 
G03 X348.854 Y7.169 I1.463 J0.329 
G01 X348.985 Y6.696 
G03 X349.006 Y6.626 I1.445 J0.4 
G01 X349.16 Y6.16 
G03 X349.184 Y6.092 I1.424 J0.47 
G01 X349.36 Y5.635 
G03 X349.389 Y5.565 I1.4 J0.538 
G01 X349.588 Y5.116 
G03 X349.62 Y5.049 I1.371 J0.608 
G01 X349.841 Y4.61 
G03 X349.875 Y4.546 I1.339 J0.675 
G01 X350.117 Y4.119 
G03 X350.154 Y4.057 I1.305 J0.739 
G01 X350.416 Y3.643 
G03 X350.459 Y3.579 I1.268 J0.801 
G01 X350.742 Y3.178 
G03 X350.785 Y3.12 I1.225 J0.864 
G01 X351.087 Y2.733 
G03 X351.133 Y2.677 I1.182 J0.922 
G01 X351.453 Y2.305 
G03 X351.504 Y2.249 I1.136 J0.978 
G01 X351.843 Y1.893 
G03 X351.893 Y1.843 I1.085 J1.035 
G01 X352.248 Y1.504 
G03 X352.304 Y1.454 I1.035 J1.085 
G01 X352.676 Y1.133 
G03 X352.733 Y1.087 I0.979 J1.136 
G01 X353.12 Y0.785 
G03 X353.178 Y0.741 I0.922 J1.182 
G01 X353.579 Y0.459 
G03 X353.641 Y0.417 I0.864 J1.226 
G01 X354.056 Y0.155 
G03 X354.119 Y0.117 I0.802 J1.267 
G01 X354.546 Y-0.124 
G03 X354.611 Y-0.158 I0.739 J1.305 
G01 X355.049 Y-0.379 
G03 X355.116 Y-0.411 I0.674 J1.339 
G01 X355.565 Y-0.61 
G03 X355.633 Y-0.638 I0.607 J1.371 
G01 X356.091 Y-0.814 
G03 X356.16 Y-0.839 I0.539 J1.399 
G01 X356.626 Y-0.993 
G03 X356.696 Y-1.015 I0.47 J1.424 
G01 X357.169 Y-1.145 
G03 X357.241 Y-1.163 I0.4 J1.445 
G01 X357.72 Y-1.271 
G03 X357.792 Y-1.285 I0.328 J1.463 
G01 X358.276 Y-1.369 
G03 X358.349 Y-1.38 I0.256 J1.477 
G01 X358.836 Y-1.44 
G03 X358.909 Y-1.447 I0.183 J1.488 
G01 X359.398 Y-1.483 
G03 X359.472 Y-1.487 I0.11 J1.495 
G01 X359.963 Y-1.499 
G03 X360 Y-1.5 I0.036 J1.499 
G01 X380 Y-1.5 
G03 X380.036 Y-1.499 I0 J1.5 
G01 X380.527 Y-1.487 
G03 X380.601 Y-1.483 I-0.036 J1.499 
G01 X381.09 Y-1.447 
G03 X381.163 Y-1.44 I-0.11 J1.495 
G01 X381.65 Y-1.38 
G03 X381.723 Y-1.369 I-0.183 J1.488 
G01 X382.207 Y-1.285 
G03 X382.279 Y-1.271 I-0.256 J1.477 
G01 X382.758 Y-1.163 
G03 X382.83 Y-1.145 I-0.328 J1.463 
G01 X383.303 Y-1.015 
G03 X383.373 Y-0.993 I-0.4 J1.445 
G01 X383.839 Y-0.839 
G03 X383.908 Y-0.814 I-0.47 J1.424 
G01 X384.366 Y-0.638 
G03 X384.434 Y-0.61 I-0.539 J1.399 
G01 X384.883 Y-0.411 
G03 X384.95 Y-0.379 I-0.607 J1.371 
G01 X385.388 Y-0.158 
G03 X385.453 Y-0.124 I-0.674 J1.339 
G01 X385.88 Y0.117 
G03 X385.943 Y0.155 I-0.739 J1.305 
G01 X386.358 Y0.417 
G03 X386.42 Y0.459 I-0.802 J1.267 
G01 X386.821 Y0.741 
G03 X386.879 Y0.785 I-0.864 J1.226 
G01 X387.266 Y1.087 
G03 X387.323 Y1.133 I-0.922 J1.182 
G01 X387.695 Y1.454 
G03 X387.751 Y1.504 I-0.979 J1.136 
G01 X388.106 Y1.843 
G03 X388.156 Y1.893 I-1.035 J1.085 
G01 X388.495 Y2.249 
G03 X388.546 Y2.305 I-1.085 J1.035 
G01 X388.866 Y2.677 
G03 X388.912 Y2.733 I-1.136 J0.978 
G01 X389.214 Y3.12 
G03 X389.257 Y3.178 I-1.182 J0.922 
G01 X389.54 Y3.579 
G03 X389.583 Y3.643 I-1.225 J0.864 
G01 X389.845 Y4.057 
G03 X389.882 Y4.119 I-1.268 J0.801 
G01 X390.124 Y4.546 
G03 X390.158 Y4.61 I-1.305 J0.739 
G01 X390.379 Y5.049 
G03 X390.411 Y5.116 I-1.339 J0.675 
G01 X390.61 Y5.565 
G03 X390.639 Y5.635 I-1.371 J0.608 
G01 X390.815 Y6.092 
G03 X390.839 Y6.16 I-1.4 J0.538 
G01 X390.993 Y6.626 
G03 X391.014 Y6.696 I-1.424 J0.47 
G01 X391.145 Y7.169 
G03 X391.163 Y7.24 I-1.445 J0.4 
G01 X391.271 Y7.719 
G03 X391.285 Y7.792 I-1.463 J0.329 
G01 X391.369 Y8.275 
G03 X391.38 Y8.349 I-1.477 J0.256 
G01 X391.44 Y8.836 
G03 X391.447 Y8.909 I-1.488 J0.183 
G01 X391.483 Y9.399 
G03 X391.487 Y9.472 I-1.495 J0.11 
G01 X391.499 Y9.963 
G03 X391.5 Y10 I-1.499 J0.036 
G01 X391.5 Y60 
G03 X390 Y61.5 I-1.5 J0 
G01 X351.5 Y61.5 
X351.5 Y76 
G03 X350 Y77.5 I-1.5 J0 
G01 X330 Y77.5 
G03 X328.5 Y76 I0 J-1.5 
G01 X328.5 Y61.5 
X206.5 Y61.5 
X206.5 Y76 
G03 X205 Y77.5 I-1.5 J0 
G01 X185 Y77.5 
G03 X183.5 Y76 I0 J-1.5 
G01 X183.5 Y61.5 
X61.5 Y61.5 
X61.5 Y76 
G03 X60 Y77.5 I-1.5 J0 
G01 X40 Y77.5 
G03 X38.5 Y76 I0 J-1.5 
G01 X38.5 Y61.5 
X0 Y61.5 
G03 X-1.5 Y60 I0 J-1.5 
G01 X-1.5 Y10 
G03 X-1.499 Y9.963 I1.5 J0 
G01 X-1.487 Y9.472 
G03 X-1.483 Y9.398 I1.499 J0.036 
G01 X-1.447 Y8.909 
G03 X-1.44 Y8.836 I1.495 J0.11 
G01 X-1.38 Y8.349 
G03 X-1.369 Y8.276 I1.488 J0.183 
G01 X-1.285 Y7.792 
G03 X-1.271 Y7.72 I1.477 J0.256 
G01 X-1.163 Y7.241 
G03 X-1.145 Y7.17 I1.463 J0.328 
G01 X-1.015 Y6.697 
G03 X-0.993 Y6.626 I1.445 J0.4 
G01 X-0.839 Y6.16 
G03 X-0.814 Y6.091 I1.424 J0.47 
G01 X-0.638 Y5.633 
G03 X-0.61 Y5.565 I1.399 J0.539 
G01 X-0.411 Y5.116 
G03 X-0.379 Y5.049 I1.371 J0.607 
G01 X-0.159 Y4.611 
G03 X-0.124 Y4.546 I1.339 J0.674 
G01 X0.117 Y4.119 
G03 X0.155 Y4.056 I1.305 J0.739 
G01 X0.418 Y3.641 
G03 X0.458 Y3.58 I1.267 J0.802 
G01 X0.741 Y3.179 
G03 X0.785 Y3.12 I1.226 J0.863 
G01 X1.087 Y2.733 
G03 X1.134 Y2.676 I1.182 J0.922 
G01 X1.454 Y2.304 
G03 X1.504 Y2.25 I1.135 J0.979 
G01 X1.842 Y1.894 
G03 X1.894 Y1.842 I1.086 J1.034 
G01 X2.25 Y1.504 
G03 X2.304 Y1.454 I1.034 J1.086 
G01 X2.676 Y1.134 
G03 X2.733 Y1.087 I0.979 J1.135 
G01 X3.12 Y0.785 
G03 X3.179 Y0.741 I0.922 J1.182 
G01 X3.58 Y0.458 
G03 X3.641 Y0.418 I0.863 J1.226 
G01 X4.056 Y0.155 
G03 X4.119 Y0.117 I0.802 J1.267 
G01 X4.546 Y-0.124 
G03 X4.611 Y-0.159 I0.739 J1.305 
G01 X5.049 Y-0.379 
G03 X5.116 Y-0.411 I0.674 J1.339 
G01 X5.565 Y-0.61 
G03 X5.633 Y-0.638 I0.607 J1.371 
G01 X6.091 Y-0.814 
G03 X6.16 Y-0.839 I0.539 J1.399 
G01 X6.626 Y-0.993 
G03 X6.697 Y-1.015 I0.47 J1.424 
G01 X7.17 Y-1.145 
G03 X7.241 Y-1.163 I0.4 J1.445 
G01 X7.72 Y-1.271 
G03 X7.792 Y-1.285 I0.328 J1.463 
G01 X8.276 Y-1.369 
G03 X8.349 Y-1.38 I0.256 J1.477 
G01 X8.836 Y-1.44 
G03 X8.909 Y-1.447 I0.183 J1.488 
G01 X9.398 Y-1.483 
G03 X9.472 Y-1.487 I0.11 J1.495 
G01 X9.963 Y-1.499 
G03 X10 Y-1.5 I0.036 J1.499 
G01 X30 Y-1.5 
G03 X30.036 Y-1.499 I0 J1.5 
G01 X30.527 Y-1.487 
G03 X30.601 Y-1.483 I-0.036 J1.499 
G01 X31.09 Y-1.447 
G03 X31.163 Y-1.44 I-0.11 J1.495 
G01 X31.65 Y-1.38 
G03 X31.723 Y-1.369 I-0.183 J1.488 
G01 X32.207 Y-1.285 
G03 X32.279 Y-1.271 I-0.256 J1.477 
G01 X32.758 Y-1.163 
G03 X32.829 Y-1.145 I-0.328 J1.463 
G01 X33.302 Y-1.015 
G03 X33.373 Y-0.993 I-0.4 J1.445 
G01 X33.839 Y-0.839 
G03 X33.908 Y-0.814 I-0.47 J1.424 
G01 X34.366 Y-0.638 
G03 X34.434 Y-0.61 I-0.539 J1.399 
G01 X34.883 Y-0.411 
G03 X34.95 Y-0.379 I-0.607 J1.371 
G01 X35.388 Y-0.159 
G03 X35.453 Y-0.124 I-0.674 J1.339 
G01 X35.88 Y0.117 
G03 X35.943 Y0.155 I-0.739 J1.305 
G01 X36.358 Y0.418 
G03 X36.419 Y0.458 I-0.802 J1.267 
G01 X36.82 Y0.741 
G03 X36.879 Y0.785 I-0.863 J1.226 
G01 X37.266 Y1.087 
G03 X37.323 Y1.134 I-0.922 J1.182 
G01 X37.695 Y1.454 
G03 X37.749 Y1.504 I-0.979 J1.135 
G01 X38.105 Y1.842 
G03 X38.157 Y1.894 I-1.034 J1.086 
G01 X38.495 Y2.25 
G03 X38.545 Y2.304 I-1.086 J1.034 
G01 X38.865 Y2.676 
G03 X38.912 Y2.733 I-1.135 J0.979 
G01 X39.214 Y3.12 
G03 X39.258 Y3.179 I-1.182 J0.922 
G01 X39.541 Y3.58 
G03 X39.581 Y3.641 I-1.226 J0.863 
G01 X39.844 Y4.056 
G03 X39.882 Y4.119 I-1.267 J0.802 
G01 X40.124 Y4.546 
G03 X40.159 Y4.611 I-1.305 J0.739 
G01 X40.379 Y5.049 
G03 X40.411 Y5.116 I-1.339 J0.674 
G01 X40.61 Y5.565 
G03 X40.638 Y5.633 I-1.371 J0.607 
G01 X40.814 Y6.091 
G03 X40.839 Y6.16 I-1.399 J0.54 
G01 X40.993 Y6.626 
G03 X41.015 Y6.697 I-1.424 J0.47 
G01 X41.145 Y7.17 
G03 X41.163 Y7.241 I-1.445 J0.4 
G01 X41.271 Y7.72 
G03 X41.285 Y7.792 I-1.463 J0.328 
G01 X41.369 Y8.276 
G03 X41.38 Y8.349 I-1.477 J0.256 
G01 X41.44 Y8.836 
G03 X41.447 Y8.909 I-1.488 J0.183 
G01 X41.483 Y9.398 
G03 X41.487 Y9.472 I-1.495 J0.11 
G01 X41.51 Y10.417 
X41.541 Y10.833 
X41.592 Y11.247 
X41.663 Y11.658 
X41.755 Y12.065 
X41.866 Y12.467 
X41.997 Y12.863 
X42.147 Y13.252 
X42.316 Y13.634 
X42.504 Y14.006 
X42.709 Y14.369 
X42.932 Y14.722 
X43.173 Y15.063 
X43.429 Y15.391 
X43.702 Y15.708 
X43.989 Y16.01 
X44.291 Y16.297 
X44.608 Y16.57 
X44.936 Y16.826 
X45.277 Y17.067 
X45.63 Y17.29 
X45.993 Y17.495 
X46.365 Y17.683 
X46.747 Y17.852 
X47.136 Y18.002 
X47.532 Y18.133 
X47.934 Y18.244 
X48.341 Y18.336 
X48.752 Y18.407 
X49.166 Y18.458 
X49.582 Y18.489 
X50.018 Y18.5 
X195 Y18.5 
G02 X195 Y17.5 I0 J-0.5 
G01 Z-11.333 F100
G02 X195 Y18.5 I0 J0.5 F400
G01 X339.981 Y18.5 
X340.417 Y18.489 
X340.832 Y18.458 
X341.246 Y18.407 
X341.658 Y18.336 
X342.065 Y18.244 
X342.467 Y18.133 
X342.863 Y18.002 
X343.252 Y17.852 
X343.634 Y17.683 
X344.006 Y17.496 
X344.369 Y17.29 
X344.722 Y17.067 
X345.063 Y16.827 
X345.392 Y16.57 
X345.708 Y16.297 
X346.01 Y16.01 
X346.298 Y15.708 
X346.569 Y15.392 
X346.827 Y15.062 
X347.067 Y14.722 
X347.289 Y14.37 
X347.496 Y14.006 
X347.683 Y13.633 
X347.852 Y13.253 
X348.001 Y12.864 
X348.133 Y12.467 
X348.244 Y12.064 
X348.336 Y11.657 
X348.407 Y11.247 
X348.458 Y10.833 
X348.489 Y10.417 
X348.512 Y9.472 
G03 X348.516 Y9.399 I1.499 J0.036 
G01 X348.552 Y8.909 
G03 X348.559 Y8.836 I1.495 J0.11 
G01 X348.619 Y8.349 
G03 X348.63 Y8.275 I1.488 J0.183 
G01 X348.714 Y7.792 
G03 X348.728 Y7.719 I1.477 J0.256 
G01 X348.836 Y7.24 
G03 X348.854 Y7.169 I1.463 J0.329 
G01 X348.985 Y6.696 
G03 X349.006 Y6.626 I1.445 J0.4 
G01 X349.16 Y6.16 
G03 X349.184 Y6.092 I1.424 J0.47 
G01 X349.36 Y5.635 
G03 X349.389 Y5.565 I1.4 J0.538 
G01 X349.588 Y5.116 
G03 X349.62 Y5.049 I1.371 J0.608 
G01 X349.841 Y4.61 
G03 X349.875 Y4.546 I1.339 J0.675 
G01 X350.117 Y4.119 
G03 X350.154 Y4.057 I1.305 J0.739 
G01 X350.416 Y3.643 
G03 X350.459 Y3.579 I1.268 J0.801 
G01 X350.742 Y3.178 
G03 X350.785 Y3.12 I1.225 J0.864 
G01 X351.087 Y2.733 
G03 X351.133 Y2.677 I1.182 J0.922 
G01 X351.453 Y2.305 
G03 X351.504 Y2.249 I1.136 J0.978 
G01 X351.843 Y1.893 
G03 X351.893 Y1.843 I1.085 J1.035 
G01 X352.248 Y1.504 
G03 X352.304 Y1.454 I1.035 J1.085 
G01 X352.676 Y1.133 
G03 X352.733 Y1.087 I0.979 J1.136 
G01 X353.12 Y0.785 
G03 X353.178 Y0.741 I0.922 J1.182 
G01 X353.579 Y0.459 
G03 X353.641 Y0.417 I0.864 J1.226 
G01 X354.056 Y0.155 
G03 X354.119 Y0.117 I0.802 J1.267 
G01 X354.546 Y-0.124 
G03 X354.611 Y-0.158 I0.739 J1.305 
G01 X355.049 Y-0.379 
G03 X355.116 Y-0.411 I0.674 J1.339 
G01 X355.565 Y-0.61 
G03 X355.633 Y-0.638 I0.607 J1.371 
G01 X356.091 Y-0.814 
G03 X356.16 Y-0.839 I0.539 J1.399 
G01 X356.626 Y-0.993 
G03 X356.696 Y-1.015 I0.47 J1.424 
G01 X357.169 Y-1.145 
G03 X357.241 Y-1.163 I0.4 J1.445 
G01 X357.72 Y-1.271 
G03 X357.792 Y-1.285 I0.328 J1.463 
G01 X358.276 Y-1.369 
G03 X358.349 Y-1.38 I0.256 J1.477 
G01 X358.836 Y-1.44 
G03 X358.909 Y-1.447 I0.183 J1.488 
G01 X359.398 Y-1.483 
G03 X359.472 Y-1.487 I0.11 J1.495 
G01 X359.963 Y-1.499 
G03 X360 Y-1.5 I0.036 J1.499 
G01 X380 Y-1.5 
G03 X380.036 Y-1.499 I0 J1.5 
G01 X380.527 Y-1.487 
G03 X380.601 Y-1.483 I-0.036 J1.499 
G01 X381.09 Y-1.447 
G03 X381.163 Y-1.44 I-0.11 J1.495 
G01 X381.65 Y-1.38 
G03 X381.723 Y-1.369 I-0.183 J1.488 
G01 X382.207 Y-1.285 
G03 X382.279 Y-1.271 I-0.256 J1.477 
G01 X382.758 Y-1.163 
G03 X382.83 Y-1.145 I-0.328 J1.463 
G01 X383.303 Y-1.015 
G03 X383.373 Y-0.993 I-0.4 J1.445 
G01 X383.839 Y-0.839 
G03 X383.908 Y-0.814 I-0.47 J1.424 
G01 X384.366 Y-0.638 
G03 X384.434 Y-0.61 I-0.539 J1.399 
G01 X384.883 Y-0.411 
G03 X384.95 Y-0.379 I-0.607 J1.371 
G01 X385.388 Y-0.158 
G03 X385.453 Y-0.124 I-0.674 J1.339 
G01 X385.88 Y0.117 
G03 X385.943 Y0.155 I-0.739 J1.305 
G01 X386.358 Y0.417 
G03 X386.42 Y0.459 I-0.802 J1.267 
G01 X386.821 Y0.741 
G03 X386.879 Y0.785 I-0.864 J1.226 
G01 X387.266 Y1.087 
G03 X387.323 Y1.133 I-0.922 J1.182 
G01 X387.695 Y1.454 
G03 X387.751 Y1.504 I-0.979 J1.136 
G01 X388.106 Y1.843 
G03 X388.156 Y1.893 I-1.035 J1.085 
G01 X388.495 Y2.249 
G03 X388.546 Y2.305 I-1.085 J1.035 
G01 X388.866 Y2.677 
G03 X388.912 Y2.733 I-1.136 J0.978 
G01 X389.214 Y3.12 
G03 X389.257 Y3.178 I-1.182 J0.922 
G01 X389.54 Y3.579 
G03 X389.583 Y3.643 I-1.225 J0.864 
G01 X389.845 Y4.057 
G03 X389.882 Y4.119 I-1.268 J0.801 
G01 X390.124 Y4.546 
G03 X390.158 Y4.61 I-1.305 J0.739 
G01 X390.379 Y5.049 
G03 X390.411 Y5.116 I-1.339 J0.675 
G01 X390.61 Y5.565 
G03 X390.639 Y5.635 I-1.371 J0.608 
G01 X390.815 Y6.092 
G03 X390.839 Y6.16 I-1.4 J0.538 
G01 X390.993 Y6.626 
G03 X391.014 Y6.696 I-1.424 J0.47 
G01 X391.145 Y7.169 
G03 X391.163 Y7.24 I-1.445 J0.4 
G01 X391.271 Y7.719 
G03 X391.285 Y7.792 I-1.463 J0.329 
G01 X391.369 Y8.275 
G03 X391.38 Y8.349 I-1.477 J0.256 
G01 X391.44 Y8.836 
G03 X391.447 Y8.909 I-1.488 J0.183 
G01 X391.483 Y9.399 
G03 X391.487 Y9.472 I-1.495 J0.11 
G01 X391.499 Y9.963 
G03 X391.5 Y10 I-1.499 J0.036 
G01 X391.5 Y60 
G03 X390 Y61.5 I-1.5 J0 
G01 X351.5 Y61.5 
X351.5 Y76 
G03 X350 Y77.5 I-1.5 J0 
G01 X330 Y77.5 
G03 X328.5 Y76 I0 J-1.5 
G01 X328.5 Y61.5 
X206.5 Y61.5 
X206.5 Y76 
G03 X205 Y77.5 I-1.5 J0 
G01 X185 Y77.5 
G03 X183.5 Y76 I0 J-1.5 
G01 X183.5 Y61.5 
X61.5 Y61.5 
X61.5 Y76 
G03 X60 Y77.5 I-1.5 J0 
G01 X40 Y77.5 
G03 X38.5 Y76 I0 J-1.5 
G01 X38.5 Y61.5 
X0 Y61.5 
G03 X-1.5 Y60 I0 J-1.5 
G01 X-1.5 Y10 
G03 X-1.499 Y9.963 I1.5 J0 
G01 X-1.487 Y9.472 
G03 X-1.483 Y9.398 I1.499 J0.036 
G01 X-1.447 Y8.909 
G03 X-1.44 Y8.836 I1.495 J0.11 
G01 X-1.38 Y8.349 
G03 X-1.369 Y8.276 I1.488 J0.183 
G01 X-1.285 Y7.792 
G03 X-1.271 Y7.72 I1.477 J0.256 
G01 X-1.163 Y7.241 
G03 X-1.145 Y7.17 I1.463 J0.328 
G01 X-1.015 Y6.697 
G03 X-0.993 Y6.626 I1.445 J0.4 
G01 X-0.839 Y6.16 
G03 X-0.814 Y6.091 I1.424 J0.47 
G01 X-0.638 Y5.633 
G03 X-0.61 Y5.565 I1.399 J0.539 
G01 X-0.411 Y5.116 
G03 X-0.379 Y5.049 I1.371 J0.607 
G01 X-0.159 Y4.611 
G03 X-0.124 Y4.546 I1.339 J0.674 
G01 X0.117 Y4.119 
G03 X0.155 Y4.056 I1.305 J0.739 
G01 X0.418 Y3.641 
G03 X0.458 Y3.58 I1.267 J0.802 
G01 X0.741 Y3.179 
G03 X0.785 Y3.12 I1.226 J0.863 
G01 X1.087 Y2.733 
G03 X1.134 Y2.676 I1.182 J0.922 
G01 X1.454 Y2.304 
G03 X1.504 Y2.25 I1.135 J0.979 
G01 X1.842 Y1.894 
G03 X1.894 Y1.842 I1.086 J1.034 
G01 X2.25 Y1.504 
G03 X2.304 Y1.454 I1.034 J1.086 
G01 X2.676 Y1.134 
G03 X2.733 Y1.087 I0.979 J1.135 
G01 X3.12 Y0.785 
G03 X3.179 Y0.741 I0.922 J1.182 
G01 X3.58 Y0.458 
G03 X3.641 Y0.418 I0.863 J1.226 
G01 X4.056 Y0.155 
G03 X4.119 Y0.117 I0.802 J1.267 
G01 X4.546 Y-0.124 
G03 X4.611 Y-0.159 I0.739 J1.305 
G01 X5.049 Y-0.379 
G03 X5.116 Y-0.411 I0.674 J1.339 
G01 X5.565 Y-0.61 
G03 X5.633 Y-0.638 I0.607 J1.371 
G01 X6.091 Y-0.814 
G03 X6.16 Y-0.839 I0.539 J1.399 
G01 X6.626 Y-0.993 
G03 X6.697 Y-1.015 I0.47 J1.424 
G01 X7.17 Y-1.145 
G03 X7.241 Y-1.163 I0.4 J1.445 
G01 X7.72 Y-1.271 
G03 X7.792 Y-1.285 I0.328 J1.463 
G01 X8.276 Y-1.369 
G03 X8.349 Y-1.38 I0.256 J1.477 
G01 X8.836 Y-1.44 
G03 X8.909 Y-1.447 I0.183 J1.488 
G01 X9.398 Y-1.483 
G03 X9.472 Y-1.487 I0.11 J1.495 
G01 X9.963 Y-1.499 
G03 X10 Y-1.5 I0.036 J1.499 
G01 X30 Y-1.5 
G03 X30.036 Y-1.499 I0 J1.5 
G01 X30.527 Y-1.487 
G03 X30.601 Y-1.483 I-0.036 J1.499 
G01 X31.09 Y-1.447 
G03 X31.163 Y-1.44 I-0.11 J1.495 
G01 X31.65 Y-1.38 
G03 X31.723 Y-1.369 I-0.183 J1.488 
G01 X32.207 Y-1.285 
G03 X32.279 Y-1.271 I-0.256 J1.477 
G01 X32.758 Y-1.163 
G03 X32.829 Y-1.145 I-0.328 J1.463 
G01 X33.302 Y-1.015 
G03 X33.373 Y-0.993 I-0.4 J1.445 
G01 X33.839 Y-0.839 
G03 X33.908 Y-0.814 I-0.47 J1.424 
G01 X34.366 Y-0.638 
G03 X34.434 Y-0.61 I-0.539 J1.399 
G01 X34.883 Y-0.411 
G03 X34.95 Y-0.379 I-0.607 J1.371 
G01 X35.388 Y-0.159 
G03 X35.453 Y-0.124 I-0.674 J1.339 
G01 X35.88 Y0.117 
G03 X35.943 Y0.155 I-0.739 J1.305 
G01 X36.358 Y0.418 
G03 X36.419 Y0.458 I-0.802 J1.267 
G01 X36.82 Y0.741 
G03 X36.879 Y0.785 I-0.863 J1.226 
G01 X37.266 Y1.087 
G03 X37.323 Y1.134 I-0.922 J1.182 
G01 X37.695 Y1.454 
G03 X37.749 Y1.504 I-0.979 J1.135 
G01 X38.105 Y1.842 
G03 X38.157 Y1.894 I-1.034 J1.086 
G01 X38.495 Y2.25 
G03 X38.545 Y2.304 I-1.086 J1.034 
G01 X38.865 Y2.676 
G03 X38.912 Y2.733 I-1.135 J0.979 
G01 X39.214 Y3.12 
G03 X39.258 Y3.179 I-1.182 J0.922 
G01 X39.541 Y3.58 
G03 X39.581 Y3.641 I-1.226 J0.863 
G01 X39.844 Y4.056 
G03 X39.882 Y4.119 I-1.267 J0.802 
G01 X40.124 Y4.546 
G03 X40.159 Y4.611 I-1.305 J0.739 
G01 X40.379 Y5.049 
G03 X40.411 Y5.116 I-1.339 J0.674 
G01 X40.61 Y5.565 
G03 X40.638 Y5.633 I-1.371 J0.607 
G01 X40.814 Y6.091 
G03 X40.839 Y6.16 I-1.399 J0.54 
G01 X40.993 Y6.626 
G03 X41.015 Y6.697 I-1.424 J0.47 
G01 X41.145 Y7.17 
G03 X41.163 Y7.241 I-1.445 J0.4 
G01 X41.271 Y7.72 
G03 X41.285 Y7.792 I-1.463 J0.328 
G01 X41.369 Y8.276 
G03 X41.38 Y8.349 I-1.477 J0.256 
G01 X41.44 Y8.836 
G03 X41.447 Y8.909 I-1.488 J0.183 
G01 X41.483 Y9.398 
G03 X41.487 Y9.472 I-1.495 J0.11 
G01 X41.51 Y10.417 
X41.541 Y10.833 
X41.592 Y11.247 
X41.663 Y11.658 
X41.755 Y12.065 
X41.866 Y12.467 
X41.997 Y12.863 
X42.147 Y13.252 
X42.316 Y13.634 
X42.504 Y14.006 
X42.709 Y14.369 
X42.932 Y14.722 
X43.173 Y15.063 
X43.429 Y15.391 
X43.702 Y15.708 
X43.989 Y16.01 
X44.291 Y16.297 
X44.608 Y16.57 
X44.936 Y16.826 
X45.277 Y17.067 
X45.63 Y17.29 
X45.993 Y17.495 
X46.365 Y17.683 
X46.747 Y17.852 
X47.136 Y18.002 
X47.532 Y18.133 
X47.934 Y18.244 
X48.341 Y18.336 
X48.752 Y18.407 
X49.166 Y18.458 
X49.582 Y18.489 
X50.018 Y18.5 
X195 Y18.5 
G02 X195 Y17.5 I0 J-0.5 
G01 Z-14.166 F100
G02 X195 Y18.5 I0 J0.5 F400
G01 X339.981 Y18.5 
X340.417 Y18.489 
X340.832 Y18.458 
X341.246 Y18.407 
X341.658 Y18.336 
X342.065 Y18.244 
X342.467 Y18.133 
X342.863 Y18.002 
X343.252 Y17.852 
X343.634 Y17.683 
X344.006 Y17.496 
X344.369 Y17.29 
X344.722 Y17.067 
X345.063 Y16.827 
X345.392 Y16.57 
X345.708 Y16.297 
X346.01 Y16.01 
X346.298 Y15.708 
X346.569 Y15.392 
X346.827 Y15.062 
X347.067 Y14.722 
X347.289 Y14.37 
X347.496 Y14.006 
X347.683 Y13.633 
X347.852 Y13.253 
X348.001 Y12.864 
X348.133 Y12.467 
X348.244 Y12.064 
X348.336 Y11.657 
X348.407 Y11.247 
X348.458 Y10.833 
X348.489 Y10.417 
X348.512 Y9.472 
G03 X348.516 Y9.399 I1.499 J0.036 
G01 X348.552 Y8.909 
G03 X348.559 Y8.836 I1.495 J0.11 
G01 X348.619 Y8.349 
G03 X348.63 Y8.275 I1.488 J0.183 
G01 X348.714 Y7.792 
G03 X348.728 Y7.719 I1.477 J0.256 
G01 X348.836 Y7.24 
G03 X348.854 Y7.169 I1.463 J0.329 
G01 X348.985 Y6.696 
G03 X349.006 Y6.626 I1.445 J0.4 
G01 X349.16 Y6.16 
G03 X349.184 Y6.092 I1.424 J0.47 
G01 X349.36 Y5.635 
G03 X349.389 Y5.565 I1.4 J0.538 
G01 X349.588 Y5.116 
G03 X349.62 Y5.049 I1.371 J0.608 
G01 X349.841 Y4.61 
G03 X349.875 Y4.546 I1.339 J0.675 
G01 X350.117 Y4.119 
G03 X350.154 Y4.057 I1.305 J0.739 
G01 X350.416 Y3.643 
G03 X350.459 Y3.579 I1.268 J0.801 
G01 X350.742 Y3.178 
G03 X350.785 Y3.12 I1.225 J0.864 
G01 X351.087 Y2.733 
G03 X351.133 Y2.677 I1.182 J0.922 
G01 X351.453 Y2.305 
G03 X351.504 Y2.249 I1.136 J0.978 
G01 X351.843 Y1.893 
G03 X351.893 Y1.843 I1.085 J1.035 
G01 X352.248 Y1.504 
G03 X352.304 Y1.454 I1.035 J1.085 
G01 X352.676 Y1.133 
G03 X352.733 Y1.087 I0.979 J1.136 
G01 X353.12 Y0.785 
G03 X353.178 Y0.741 I0.922 J1.182 
G01 X353.579 Y0.459 
G03 X353.641 Y0.417 I0.864 J1.226 
G01 X354.056 Y0.155 
G03 X354.119 Y0.117 I0.802 J1.267 
G01 X354.546 Y-0.124 
G03 X354.611 Y-0.158 I0.739 J1.305 
G01 X355.049 Y-0.379 
G03 X355.116 Y-0.411 I0.674 J1.339 
G01 X355.565 Y-0.61 
G03 X355.633 Y-0.638 I0.607 J1.371 
G01 X356.091 Y-0.814 
G03 X356.16 Y-0.839 I0.539 J1.399 
G01 X356.626 Y-0.993 
G03 X356.696 Y-1.015 I0.47 J1.424 
G01 X357.169 Y-1.145 
G03 X357.241 Y-1.163 I0.4 J1.445 
G01 X357.72 Y-1.271 
G03 X357.792 Y-1.285 I0.328 J1.463 
G01 X358.276 Y-1.369 
G03 X358.349 Y-1.38 I0.256 J1.477 
G01 X358.836 Y-1.44 
G03 X358.909 Y-1.447 I0.183 J1.488 
G01 X359.398 Y-1.483 
G03 X359.472 Y-1.487 I0.11 J1.495 
G01 X359.963 Y-1.499 
G03 X360 Y-1.5 I0.036 J1.499 
G01 X380 Y-1.5 
G03 X380.036 Y-1.499 I0 J1.5 
G01 X380.527 Y-1.487 
G03 X380.601 Y-1.483 I-0.036 J1.499 
G01 X381.09 Y-1.447 
G03 X381.163 Y-1.44 I-0.11 J1.495 
G01 X381.65 Y-1.38 
G03 X381.723 Y-1.369 I-0.183 J1.488 
G01 X382.207 Y-1.285 
G03 X382.279 Y-1.271 I-0.256 J1.477 
G01 X382.758 Y-1.163 
G03 X382.83 Y-1.145 I-0.328 J1.463 
G01 X383.303 Y-1.015 
G03 X383.373 Y-0.993 I-0.4 J1.445 
G01 X383.839 Y-0.839 
G03 X383.908 Y-0.814 I-0.47 J1.424 
G01 X384.366 Y-0.638 
G03 X384.434 Y-0.61 I-0.539 J1.399 
G01 X384.883 Y-0.411 
G03 X384.95 Y-0.379 I-0.607 J1.371 
G01 X385.388 Y-0.158 
G03 X385.453 Y-0.124 I-0.674 J1.339 
G01 X385.88 Y0.117 
G03 X385.943 Y0.155 I-0.739 J1.305 
G01 X386.358 Y0.417 
G03 X386.42 Y0.459 I-0.802 J1.267 
G01 X386.821 Y0.741 
G03 X386.879 Y0.785 I-0.864 J1.226 
G01 X387.266 Y1.087 
G03 X387.323 Y1.133 I-0.922 J1.182 
G01 X387.695 Y1.454 
G03 X387.751 Y1.504 I-0.979 J1.136 
G01 X388.106 Y1.843 
G03 X388.156 Y1.893 I-1.035 J1.085 
G01 X388.495 Y2.249 
G03 X388.546 Y2.305 I-1.085 J1.035 
G01 X388.866 Y2.677 
G03 X388.912 Y2.733 I-1.136 J0.978 
G01 X389.214 Y3.12 
G03 X389.257 Y3.178 I-1.182 J0.922 
G01 X389.54 Y3.579 
G03 X389.583 Y3.643 I-1.225 J0.864 
G01 X389.845 Y4.057 
G03 X389.882 Y4.119 I-1.268 J0.801 
G01 X390.124 Y4.546 
G03 X390.158 Y4.61 I-1.305 J0.739 
G01 X390.379 Y5.049 
G03 X390.411 Y5.116 I-1.339 J0.675 
G01 X390.61 Y5.565 
G03 X390.639 Y5.635 I-1.371 J0.608 
G01 X390.815 Y6.092 
G03 X390.839 Y6.16 I-1.4 J0.538 
G01 X390.993 Y6.626 
G03 X391.014 Y6.696 I-1.424 J0.47 
G01 X391.145 Y7.169 
G03 X391.163 Y7.24 I-1.445 J0.4 
G01 X391.271 Y7.719 
G03 X391.285 Y7.792 I-1.463 J0.329 
G01 X391.369 Y8.275 
G03 X391.38 Y8.349 I-1.477 J0.256 
G01 X391.44 Y8.836 
G03 X391.447 Y8.909 I-1.488 J0.183 
G01 X391.483 Y9.399 
G03 X391.487 Y9.472 I-1.495 J0.11 
G01 X391.499 Y9.963 
G03 X391.5 Y10 I-1.499 J0.036 
G01 X391.5 Y60 
G03 X390 Y61.5 I-1.5 J0 
G01 X351.5 Y61.5 
X351.5 Y76 
G03 X350 Y77.5 I-1.5 J0 
G01 X330 Y77.5 
G03 X328.5 Y76 I0 J-1.5 
G01 X328.5 Y61.5 
X206.5 Y61.5 
X206.5 Y76 
G03 X205 Y77.5 I-1.5 J0 
G01 X185 Y77.5 
G03 X183.5 Y76 I0 J-1.5 
G01 X183.5 Y61.5 
X61.5 Y61.5 
X61.5 Y76 
G03 X60 Y77.5 I-1.5 J0 
G01 X40 Y77.5 
G03 X38.5 Y76 I0 J-1.5 
G01 X38.5 Y61.5 
X0 Y61.5 
G03 X-1.5 Y60 I0 J-1.5 
G01 X-1.5 Y10 
G03 X-1.499 Y9.963 I1.5 J0 
G01 X-1.487 Y9.472 
G03 X-1.483 Y9.398 I1.499 J0.036 
G01 X-1.447 Y8.909 
G03 X-1.44 Y8.836 I1.495 J0.11 
G01 X-1.38 Y8.349 
G03 X-1.369 Y8.276 I1.488 J0.183 
G01 X-1.285 Y7.792 
G03 X-1.271 Y7.72 I1.477 J0.256 
G01 X-1.163 Y7.241 
G03 X-1.145 Y7.17 I1.463 J0.328 
G01 X-1.015 Y6.697 
G03 X-0.993 Y6.626 I1.445 J0.4 
G01 X-0.839 Y6.16 
G03 X-0.814 Y6.091 I1.424 J0.47 
G01 X-0.638 Y5.633 
G03 X-0.61 Y5.565 I1.399 J0.539 
G01 X-0.411 Y5.116 
G03 X-0.379 Y5.049 I1.371 J0.607 
G01 X-0.159 Y4.611 
G03 X-0.124 Y4.546 I1.339 J0.674 
G01 X0.117 Y4.119 
G03 X0.155 Y4.056 I1.305 J0.739 
G01 X0.418 Y3.641 
G03 X0.458 Y3.58 I1.267 J0.802 
G01 X0.741 Y3.179 
G03 X0.785 Y3.12 I1.226 J0.863 
G01 X1.087 Y2.733 
G03 X1.134 Y2.676 I1.182 J0.922 
G01 X1.454 Y2.304 
G03 X1.504 Y2.25 I1.135 J0.979 
G01 X1.842 Y1.894 
G03 X1.894 Y1.842 I1.086 J1.034 
G01 X2.25 Y1.504 
G03 X2.304 Y1.454 I1.034 J1.086 
G01 X2.676 Y1.134 
G03 X2.733 Y1.087 I0.979 J1.135 
G01 X3.12 Y0.785 
G03 X3.179 Y0.741 I0.922 J1.182 
G01 X3.58 Y0.458 
G03 X3.641 Y0.418 I0.863 J1.226 
G01 X4.056 Y0.155 
G03 X4.119 Y0.117 I0.802 J1.267 
G01 X4.546 Y-0.124 
G03 X4.611 Y-0.159 I0.739 J1.305 
G01 X5.049 Y-0.379 
G03 X5.116 Y-0.411 I0.674 J1.339 
G01 X5.565 Y-0.61 
G03 X5.633 Y-0.638 I0.607 J1.371 
G01 X6.091 Y-0.814 
G03 X6.16 Y-0.839 I0.539 J1.399 
G01 X6.626 Y-0.993 
G03 X6.697 Y-1.015 I0.47 J1.424 
G01 X7.17 Y-1.145 
G03 X7.241 Y-1.163 I0.4 J1.445 
G01 X7.72 Y-1.271 
G03 X7.792 Y-1.285 I0.328 J1.463 
G01 X8.276 Y-1.369 
G03 X8.349 Y-1.38 I0.256 J1.477 
G01 X8.836 Y-1.44 
G03 X8.909 Y-1.447 I0.183 J1.488 
G01 X9.398 Y-1.483 
G03 X9.472 Y-1.487 I0.11 J1.495 
G01 X9.963 Y-1.499 
G03 X10 Y-1.5 I0.036 J1.499 
G01 X30 Y-1.5 
G03 X30.036 Y-1.499 I0 J1.5 
G01 X30.527 Y-1.487 
G03 X30.601 Y-1.483 I-0.036 J1.499 
G01 X31.09 Y-1.447 
G03 X31.163 Y-1.44 I-0.11 J1.495 
G01 X31.65 Y-1.38 
G03 X31.723 Y-1.369 I-0.183 J1.488 
G01 X32.207 Y-1.285 
G03 X32.279 Y-1.271 I-0.256 J1.477 
G01 X32.758 Y-1.163 
G03 X32.829 Y-1.145 I-0.328 J1.463 
G01 X33.302 Y-1.015 
G03 X33.373 Y-0.993 I-0.4 J1.445 
G01 X33.839 Y-0.839 
G03 X33.908 Y-0.814 I-0.47 J1.424 
G01 X34.366 Y-0.638 
G03 X34.434 Y-0.61 I-0.539 J1.399 
G01 X34.883 Y-0.411 
G03 X34.95 Y-0.379 I-0.607 J1.371 
G01 X35.388 Y-0.159 
G03 X35.453 Y-0.124 I-0.674 J1.339 
G01 X35.88 Y0.117 
G03 X35.943 Y0.155 I-0.739 J1.305 
G01 X36.358 Y0.418 
G03 X36.419 Y0.458 I-0.802 J1.267 
G01 X36.82 Y0.741 
G03 X36.879 Y0.785 I-0.863 J1.226 
G01 X37.266 Y1.087 
G03 X37.323 Y1.134 I-0.922 J1.182 
G01 X37.695 Y1.454 
G03 X37.749 Y1.504 I-0.979 J1.135 
G01 X38.105 Y1.842 
G03 X38.157 Y1.894 I-1.034 J1.086 
G01 X38.495 Y2.25 
G03 X38.545 Y2.304 I-1.086 J1.034 
G01 X38.865 Y2.676 
G03 X38.912 Y2.733 I-1.135 J0.979 
G01 X39.214 Y3.12 
G03 X39.258 Y3.179 I-1.182 J0.922 
G01 X39.541 Y3.58 
G03 X39.581 Y3.641 I-1.226 J0.863 
G01 X39.844 Y4.056 
G03 X39.882 Y4.119 I-1.267 J0.802 
G01 X40.124 Y4.546 
G03 X40.159 Y4.611 I-1.305 J0.739 
G01 X40.379 Y5.049 
G03 X40.411 Y5.116 I-1.339 J0.674 
G01 X40.61 Y5.565 
G03 X40.638 Y5.633 I-1.371 J0.607 
G01 X40.814 Y6.091 
G03 X40.839 Y6.16 I-1.399 J0.54 
G01 X40.993 Y6.626 
G03 X41.015 Y6.697 I-1.424 J0.47 
G01 X41.145 Y7.17 
G03 X41.163 Y7.241 I-1.445 J0.4 
G01 X41.271 Y7.72 
G03 X41.285 Y7.792 I-1.463 J0.328 
G01 X41.369 Y8.276 
G03 X41.38 Y8.349 I-1.477 J0.256 
G01 X41.44 Y8.836 
G03 X41.447 Y8.909 I-1.488 J0.183 
G01 X41.483 Y9.398 
G03 X41.487 Y9.472 I-1.495 J0.11 
G01 X41.51 Y10.417 
X41.541 Y10.833 
X41.592 Y11.247 
X41.663 Y11.658 
X41.755 Y12.065 
X41.866 Y12.467 
X41.997 Y12.863 
X42.147 Y13.252 
X42.316 Y13.634 
X42.504 Y14.006 
X42.709 Y14.369 
X42.932 Y14.722 
X43.173 Y15.063 
X43.429 Y15.391 
X43.702 Y15.708 
X43.989 Y16.01 
X44.291 Y16.297 
X44.608 Y16.57 
X44.936 Y16.826 
X45.277 Y17.067 
X45.63 Y17.29 
X45.993 Y17.495 
X46.365 Y17.683 
X46.747 Y17.852 
X47.136 Y18.002 
X47.532 Y18.133 
X47.934 Y18.244 
X48.341 Y18.336 
X48.752 Y18.407 
X49.166 Y18.458 
X49.582 Y18.489 
X50.018 Y18.5 
X195 Y18.5 
G02 X195 Y17.5 I0 J-0.5 
G01 Z-17 F100
G02 X195 Y18.5 I0 J0.5 F400
G01 X339.981 Y18.5 
X340.417 Y18.489 
X340.832 Y18.458 
X341.246 Y18.407 
X341.658 Y18.336 
X342.065 Y18.244 
X342.467 Y18.133 
X342.863 Y18.002 
X343.252 Y17.852 
X343.634 Y17.683 
X344.006 Y17.496 
X344.369 Y17.29 
X344.722 Y17.067 
X345.063 Y16.827 
X345.392 Y16.57 
X345.708 Y16.297 
X346.01 Y16.01 
X346.298 Y15.708 
X346.569 Y15.392 
X346.827 Y15.062 
X347.067 Y14.722 
X347.289 Y14.37 
X347.496 Y14.006 
X347.683 Y13.633 
X347.852 Y13.253 
X348.001 Y12.864 
X348.133 Y12.467 
X348.244 Y12.064 
X348.336 Y11.657 
X348.407 Y11.247 
X348.458 Y10.833 
X348.489 Y10.417 
X348.512 Y9.472 
G03 X348.516 Y9.399 I1.499 J0.036 
G01 X348.552 Y8.909 
G03 X348.559 Y8.836 I1.495 J0.11 
G01 X348.619 Y8.349 
G03 X348.63 Y8.275 I1.488 J0.183 
G01 X348.714 Y7.792 
G03 X348.728 Y7.719 I1.477 J0.256 
G01 X348.836 Y7.24 
G03 X348.854 Y7.169 I1.463 J0.329 
G01 X348.985 Y6.696 
G03 X349.006 Y6.626 I1.445 J0.4 
G01 X349.16 Y6.16 
G03 X349.184 Y6.092 I1.424 J0.47 
G01 X349.36 Y5.635 
G03 X349.389 Y5.565 I1.4 J0.538 
G01 X349.588 Y5.116 
G03 X349.62 Y5.049 I1.371 J0.608 
G01 X349.841 Y4.61 
G03 X349.875 Y4.546 I1.339 J0.675 
G01 X350.117 Y4.119 
G03 X350.154 Y4.057 I1.305 J0.739 
G01 X350.416 Y3.643 
G03 X350.459 Y3.579 I1.268 J0.801 
G01 X350.742 Y3.178 
G03 X350.785 Y3.12 I1.225 J0.864 
G01 X351.087 Y2.733 
G03 X351.133 Y2.677 I1.182 J0.922 
G01 X351.453 Y2.305 
G03 X351.504 Y2.249 I1.136 J0.978 
G01 X351.843 Y1.893 
G03 X351.893 Y1.843 I1.085 J1.035 
G01 X352.248 Y1.504 
G03 X352.304 Y1.454 I1.035 J1.085 
G01 X352.676 Y1.133 
G03 X352.733 Y1.087 I0.979 J1.136 
G01 X353.12 Y0.785 
G03 X353.178 Y0.741 I0.922 J1.182 
G01 X353.579 Y0.459 
G03 X353.641 Y0.417 I0.864 J1.226 
G01 X354.056 Y0.155 
G03 X354.119 Y0.117 I0.802 J1.267 
G01 X354.546 Y-0.124 
G03 X354.611 Y-0.158 I0.739 J1.305 
G01 X355.049 Y-0.379 
G03 X355.116 Y-0.411 I0.674 J1.339 
G01 X355.565 Y-0.61 
G03 X355.633 Y-0.638 I0.607 J1.371 
G01 X356.091 Y-0.814 
G03 X356.16 Y-0.839 I0.539 J1.399 
G01 X356.626 Y-0.993 
G03 X356.696 Y-1.015 I0.47 J1.424 
G01 X357.169 Y-1.145 
G03 X357.241 Y-1.163 I0.4 J1.445 
G01 X357.72 Y-1.271 
G03 X357.792 Y-1.285 I0.328 J1.463 
G01 X358.276 Y-1.369 
G03 X358.349 Y-1.38 I0.256 J1.477 
G01 X358.836 Y-1.44 
G03 X358.909 Y-1.447 I0.183 J1.488 
G01 X359.398 Y-1.483 
G03 X359.472 Y-1.487 I0.11 J1.495 
G01 X359.963 Y-1.499 
G03 X360 Y-1.5 I0.036 J1.499 
G01 X380 Y-1.5 
G03 X380.036 Y-1.499 I0 J1.5 
G01 X380.527 Y-1.487 
G03 X380.601 Y-1.483 I-0.036 J1.499 
G01 X381.09 Y-1.447 
G03 X381.163 Y-1.44 I-0.11 J1.495 
G01 X381.65 Y-1.38 
G03 X381.723 Y-1.369 I-0.183 J1.488 
G01 X382.207 Y-1.285 
G03 X382.279 Y-1.271 I-0.256 J1.477 
G01 X382.758 Y-1.163 
G03 X382.83 Y-1.145 I-0.328 J1.463 
G01 X383.303 Y-1.015 
G03 X383.373 Y-0.993 I-0.4 J1.445 
G01 X383.839 Y-0.839 
G03 X383.908 Y-0.814 I-0.47 J1.424 
G01 X384.366 Y-0.638 
G03 X384.434 Y-0.61 I-0.539 J1.399 
G01 X384.883 Y-0.411 
G03 X384.95 Y-0.379 I-0.607 J1.371 
G01 X385.388 Y-0.158 
G03 X385.453 Y-0.124 I-0.674 J1.339 
G01 X385.88 Y0.117 
G03 X385.943 Y0.155 I-0.739 J1.305 
G01 X386.358 Y0.417 
G03 X386.42 Y0.459 I-0.802 J1.267 
G01 X386.821 Y0.741 
G03 X386.879 Y0.785 I-0.864 J1.226 
G01 X387.266 Y1.087 
G03 X387.323 Y1.133 I-0.922 J1.182 
G01 X387.695 Y1.454 
G03 X387.751 Y1.504 I-0.979 J1.136 
G01 X388.106 Y1.843 
G03 X388.156 Y1.893 I-1.035 J1.085 
G01 X388.495 Y2.249 
G03 X388.546 Y2.305 I-1.085 J1.035 
G01 X388.866 Y2.677 
G03 X388.912 Y2.733 I-1.136 J0.978 
G01 X389.214 Y3.12 
G03 X389.257 Y3.178 I-1.182 J0.922 
G01 X389.54 Y3.579 
G03 X389.583 Y3.643 I-1.225 J0.864 
G01 X389.845 Y4.057 
G03 X389.882 Y4.119 I-1.268 J0.801 
G01 X390.124 Y4.546 
G03 X390.158 Y4.61 I-1.305 J0.739 
G01 X390.379 Y5.049 
G03 X390.411 Y5.116 I-1.339 J0.675 
G01 X390.61 Y5.565 
G03 X390.639 Y5.635 I-1.371 J0.608 
G01 X390.815 Y6.092 
G03 X390.839 Y6.16 I-1.4 J0.538 
G01 X390.993 Y6.626 
G03 X391.014 Y6.696 I-1.424 J0.47 
G01 X391.145 Y7.169 
G03 X391.163 Y7.24 I-1.445 J0.4 
G01 X391.271 Y7.719 
G03 X391.285 Y7.792 I-1.463 J0.329 
G01 X391.369 Y8.275 
G03 X391.38 Y8.349 I-1.477 J0.256 
G01 X391.44 Y8.836 
G03 X391.447 Y8.909 I-1.488 J0.183 
G01 X391.483 Y9.399 
G03 X391.487 Y9.472 I-1.495 J0.11 
G01 X391.499 Y9.963 
G03 X391.5 Y10 I-1.499 J0.036 
G01 X391.5 Y60 
G03 X390 Y61.5 I-1.5 J0 
G01 X351.5 Y61.5 
X351.5 Y76 
G03 X350 Y77.5 I-1.5 J0 
G01 X330 Y77.5 
G03 X328.5 Y76 I0 J-1.5 
G01 X328.5 Y61.5 
X206.5 Y61.5 
X206.5 Y76 
G03 X205 Y77.5 I-1.5 J0 
G01 X185 Y77.5 
G03 X183.5 Y76 I0 J-1.5 
G01 X183.5 Y61.5 
X61.5 Y61.5 
X61.5 Y76 
G03 X60 Y77.5 I-1.5 J0 
G01 X40 Y77.5 
G03 X38.5 Y76 I0 J-1.5 
G01 X38.5 Y61.5 
X0 Y61.5 
G03 X-1.5 Y60 I0 J-1.5 
G01 X-1.5 Y10 
G03 X-1.499 Y9.963 I1.5 J0 
G01 X-1.487 Y9.472 
G03 X-1.483 Y9.398 I1.499 J0.036 
G01 X-1.447 Y8.909 
G03 X-1.44 Y8.836 I1.495 J0.11 
G01 X-1.38 Y8.349 
G03 X-1.369 Y8.276 I1.488 J0.183 
G01 X-1.285 Y7.792 
G03 X-1.271 Y7.72 I1.477 J0.256 
G01 X-1.163 Y7.241 
G03 X-1.145 Y7.17 I1.463 J0.328 
G01 X-1.015 Y6.697 
G03 X-0.993 Y6.626 I1.445 J0.4 
G01 X-0.839 Y6.16 
G03 X-0.814 Y6.091 I1.424 J0.47 
G01 X-0.638 Y5.633 
G03 X-0.61 Y5.565 I1.399 J0.539 
G01 X-0.411 Y5.116 
G03 X-0.379 Y5.049 I1.371 J0.607 
G01 X-0.159 Y4.611 
G03 X-0.124 Y4.546 I1.339 J0.674 
G01 X0.117 Y4.119 
G03 X0.155 Y4.056 I1.305 J0.739 
G01 X0.418 Y3.641 
G03 X0.458 Y3.58 I1.267 J0.802 
G01 X0.741 Y3.179 
G03 X0.785 Y3.12 I1.226 J0.863 
G01 X1.087 Y2.733 
G03 X1.134 Y2.676 I1.182 J0.922 
G01 X1.454 Y2.304 
G03 X1.504 Y2.25 I1.135 J0.979 
G01 X1.842 Y1.894 
G03 X1.894 Y1.842 I1.086 J1.034 
G01 X2.25 Y1.504 
G03 X2.304 Y1.454 I1.034 J1.086 
G01 X2.676 Y1.134 
G03 X2.733 Y1.087 I0.979 J1.135 
G01 X3.12 Y0.785 
G03 X3.179 Y0.741 I0.922 J1.182 
G01 X3.58 Y0.458 
G03 X3.641 Y0.418 I0.863 J1.226 
G01 X4.056 Y0.155 
G03 X4.119 Y0.117 I0.802 J1.267 
G01 X4.546 Y-0.124 
G03 X4.611 Y-0.159 I0.739 J1.305 
G01 X5.049 Y-0.379 
G03 X5.116 Y-0.411 I0.674 J1.339 
G01 X5.565 Y-0.61 
G03 X5.633 Y-0.638 I0.607 J1.371 
G01 X6.091 Y-0.814 
G03 X6.16 Y-0.839 I0.539 J1.399 
G01 X6.626 Y-0.993 
G03 X6.697 Y-1.015 I0.47 J1.424 
G01 X7.17 Y-1.145 
G03 X7.241 Y-1.163 I0.4 J1.445 
G01 X7.72 Y-1.271 
G03 X7.792 Y-1.285 I0.328 J1.463 
G01 X8.276 Y-1.369 
G03 X8.349 Y-1.38 I0.256 J1.477 
G01 X8.836 Y-1.44 
G03 X8.909 Y-1.447 I0.183 J1.488 
G01 X9.398 Y-1.483 
G03 X9.472 Y-1.487 I0.11 J1.495 
G01 X9.963 Y-1.499 
G03 X10 Y-1.5 I0.036 J1.499 
G01 X30 Y-1.5 
G03 X30.036 Y-1.499 I0 J1.5 
G01 X30.527 Y-1.487 
G03 X30.601 Y-1.483 I-0.036 J1.499 
G01 X31.09 Y-1.447 
G03 X31.163 Y-1.44 I-0.11 J1.495 
G01 X31.65 Y-1.38 
G03 X31.723 Y-1.369 I-0.183 J1.488 
G01 X32.207 Y-1.285 
G03 X32.279 Y-1.271 I-0.256 J1.477 
G01 X32.758 Y-1.163 
G03 X32.829 Y-1.145 I-0.328 J1.463 
G01 X33.302 Y-1.015 
G03 X33.373 Y-0.993 I-0.4 J1.445 
G01 X33.839 Y-0.839 
G03 X33.908 Y-0.814 I-0.47 J1.424 
G01 X34.366 Y-0.638 
G03 X34.434 Y-0.61 I-0.539 J1.399 
G01 X34.883 Y-0.411 
G03 X34.95 Y-0.379 I-0.607 J1.371 
G01 X35.388 Y-0.159 
G03 X35.453 Y-0.124 I-0.674 J1.339 
G01 X35.88 Y0.117 
G03 X35.943 Y0.155 I-0.739 J1.305 
G01 X36.358 Y0.418 
G03 X36.419 Y0.458 I-0.802 J1.267 
G01 X36.82 Y0.741 
G03 X36.879 Y0.785 I-0.863 J1.226 
G01 X37.266 Y1.087 
G03 X37.323 Y1.134 I-0.922 J1.182 
G01 X37.695 Y1.454 
G03 X37.749 Y1.504 I-0.979 J1.135 
G01 X38.105 Y1.842 
G03 X38.157 Y1.894 I-1.034 J1.086 
G01 X38.495 Y2.25 
G03 X38.545 Y2.304 I-1.086 J1.034 
G01 X38.865 Y2.676 
G03 X38.912 Y2.733 I-1.135 J0.979 
G01 X39.214 Y3.12 
G03 X39.258 Y3.179 I-1.182 J0.922 
G01 X39.541 Y3.58 
G03 X39.581 Y3.641 I-1.226 J0.863 
G01 X39.844 Y4.056 
G03 X39.882 Y4.119 I-1.267 J0.802 
G01 X40.124 Y4.546 
G03 X40.159 Y4.611 I-1.305 J0.739 
G01 X40.379 Y5.049 
G03 X40.411 Y5.116 I-1.339 J0.674 
G01 X40.61 Y5.565 
G03 X40.638 Y5.633 I-1.371 J0.607 
G01 X40.814 Y6.091 
G03 X40.839 Y6.16 I-1.399 J0.54 
G01 X40.993 Y6.626 
G03 X41.015 Y6.697 I-1.424 J0.47 
G01 X41.145 Y7.17 
G03 X41.163 Y7.241 I-1.445 J0.4 
G01 X41.271 Y7.72 
G03 X41.285 Y7.792 I-1.463 J0.328 
G01 X41.369 Y8.276 
G03 X41.38 Y8.349 I-1.477 J0.256 
G01 X41.44 Y8.836 
G03 X41.447 Y8.909 I-1.488 J0.183 
G01 X41.483 Y9.398 
G03 X41.487 Y9.472 I-1.495 J0.11 
G01 X41.51 Y10.417 
X41.541 Y10.833 
X41.592 Y11.247 
X41.663 Y11.658 
X41.755 Y12.065 
X41.866 Y12.467 
X41.997 Y12.863 
X42.147 Y13.252 
X42.316 Y13.634 
X42.504 Y14.006 
X42.709 Y14.369 
X42.932 Y14.722 
X43.173 Y15.063 
X43.429 Y15.391 
X43.702 Y15.708 
X43.989 Y16.01 
X44.291 Y16.297 
X44.608 Y16.57 
X44.936 Y16.826 
X45.277 Y17.067 
X45.63 Y17.29 
X45.993 Y17.495 
X46.365 Y17.683 
X46.747 Y17.852 
X47.136 Y18.002 
X47.532 Y18.133 
X47.934 Y18.244 
X48.341 Y18.336 
X48.752 Y18.407 
X49.166 Y18.458 
X49.582 Y18.489 
X50.018 Y18.5 
X195 Y18.5 
G02 X195 Y17.5 I0 J-0.5 
G00 Z5
T0 M06 M02
