(Created with emc2b post processor 2016/07/28 00:01)
(tool change to 3 mm Slot Cutter)
T1 M06 G43
G17 G90 G21
(Sketch 80)
G00 X65.307 Y111.639 S7000 M03
Z2
G01 Z-2.833 F100
G02 X65.307 Y112.639 I0 J0.5 F300
G01 X65.34 Y112.639 
X65.4 Y112.632 
X65.461 Y112.616 
X65.52 Y112.593 
X65.572 Y112.564 
X65.623 Y112.527 
X65.67 Y112.483 
X65.71 Y112.434 
X65.743 Y112.383 
X65.768 Y112.329 
X65.788 Y112.268 
X65.8 Y112.205 
X65.804 Y112.143 
X65.8 Y112.082 
X65.788 Y112.019 
X65.768 Y111.958 
X65.743 Y111.904 
X65.71 Y111.852 
X65.67 Y111.804 
X65.623 Y111.759 
X65.572 Y111.723 
X65.52 Y111.694 
X65.461 Y111.671 
X65.4 Y111.655 
X65.34 Y111.647 
X65.274 Y111.647 
X65.214 Y111.655 
X65.153 Y111.671 
X65.093 Y111.694 
X65.041 Y111.723 
X64.991 Y111.759 
X64.944 Y111.804 
X64.904 Y111.852 
X64.871 Y111.904 
X64.845 Y111.958 
X64.826 Y112.019 
X64.814 Y112.082 
X64.81 Y112.143 
X64.814 Y112.205 
X64.826 Y112.268 
X64.845 Y112.329 
X64.871 Y112.383 
X64.904 Y112.434 
X64.944 Y112.483 
X64.991 Y112.527 
X65.041 Y112.564 
X65.093 Y112.593 
X65.153 Y112.616 
X65.214 Y112.632 
X65.274 Y112.639 
X65.307 Y112.639 
G02 X65.307 Y111.639 I0 J-0.5 
G01 Z-5.666 F100
G02 X65.307 Y112.639 I0 J0.5 F300
G01 X65.34 Y112.639 
X65.4 Y112.632 
X65.461 Y112.616 
X65.52 Y112.593 
X65.572 Y112.564 
X65.623 Y112.527 
X65.67 Y112.483 
X65.71 Y112.434 
X65.743 Y112.383 
X65.768 Y112.329 
X65.788 Y112.268 
X65.8 Y112.205 
X65.804 Y112.143 
X65.8 Y112.082 
X65.788 Y112.019 
X65.768 Y111.958 
X65.743 Y111.904 
X65.71 Y111.852 
X65.67 Y111.804 
X65.623 Y111.759 
X65.572 Y111.723 
X65.52 Y111.694 
X65.461 Y111.671 
X65.4 Y111.655 
X65.34 Y111.647 
X65.274 Y111.647 
X65.214 Y111.655 
X65.153 Y111.671 
X65.093 Y111.694 
X65.041 Y111.723 
X64.991 Y111.759 
X64.944 Y111.804 
X64.904 Y111.852 
X64.871 Y111.904 
X64.845 Y111.958 
X64.826 Y112.019 
X64.814 Y112.082 
X64.81 Y112.143 
X64.814 Y112.205 
X64.826 Y112.268 
X64.845 Y112.329 
X64.871 Y112.383 
X64.904 Y112.434 
X64.944 Y112.483 
X64.991 Y112.527 
X65.041 Y112.564 
X65.093 Y112.593 
X65.153 Y112.616 
X65.214 Y112.632 
X65.274 Y112.639 
X65.307 Y112.639 
G02 X65.307 Y111.639 I0 J-0.5 
G01 Z-8.5 F100
G02 X65.307 Y112.639 I0 J0.5 F300
G01 X65.34 Y112.639 
X65.4 Y112.632 
X65.461 Y112.616 
X65.52 Y112.593 
X65.572 Y112.564 
X65.623 Y112.527 
X65.67 Y112.483 
X65.71 Y112.434 
X65.743 Y112.383 
X65.768 Y112.329 
X65.788 Y112.268 
X65.8 Y112.205 
X65.804 Y112.143 
X65.8 Y112.082 
X65.788 Y112.019 
X65.768 Y111.958 
X65.743 Y111.904 
X65.71 Y111.852 
X65.67 Y111.804 
X65.623 Y111.759 
X65.572 Y111.723 
X65.52 Y111.694 
X65.461 Y111.671 
X65.4 Y111.655 
X65.34 Y111.647 
X65.274 Y111.647 
X65.214 Y111.655 
X65.153 Y111.671 
X65.093 Y111.694 
X65.041 Y111.723 
X64.991 Y111.759 
X64.944 Y111.804 
X64.904 Y111.852 
X64.871 Y111.904 
X64.845 Y111.958 
X64.826 Y112.019 
X64.814 Y112.082 
X64.81 Y112.143 
X64.814 Y112.205 
X64.826 Y112.268 
X64.845 Y112.329 
X64.871 Y112.383 
X64.904 Y112.434 
X64.944 Y112.483 
X64.991 Y112.527 
X65.041 Y112.564 
X65.093 Y112.593 
X65.153 Y112.616 
X65.214 Y112.632 
X65.274 Y112.639 
X65.307 Y112.639 
G02 X65.307 Y111.639 I0 J-0.5 
G01 Z-11.333 F100
G02 X65.307 Y112.639 I0 J0.5 F300
G01 X65.34 Y112.639 
X65.4 Y112.632 
X65.461 Y112.616 
X65.52 Y112.593 
X65.572 Y112.564 
X65.623 Y112.527 
X65.67 Y112.483 
X65.71 Y112.434 
X65.743 Y112.383 
X65.768 Y112.329 
X65.788 Y112.268 
X65.8 Y112.205 
X65.804 Y112.143 
X65.8 Y112.082 
X65.788 Y112.019 
X65.768 Y111.958 
X65.743 Y111.904 
X65.71 Y111.852 
X65.67 Y111.804 
X65.623 Y111.759 
X65.572 Y111.723 
X65.52 Y111.694 
X65.461 Y111.671 
X65.4 Y111.655 
X65.34 Y111.647 
X65.274 Y111.647 
X65.214 Y111.655 
X65.153 Y111.671 
X65.093 Y111.694 
X65.041 Y111.723 
X64.991 Y111.759 
X64.944 Y111.804 
X64.904 Y111.852 
X64.871 Y111.904 
X64.845 Y111.958 
X64.826 Y112.019 
X64.814 Y112.082 
X64.81 Y112.143 
X64.814 Y112.205 
X64.826 Y112.268 
X64.845 Y112.329 
X64.871 Y112.383 
X64.904 Y112.434 
X64.944 Y112.483 
X64.991 Y112.527 
X65.041 Y112.564 
X65.093 Y112.593 
X65.153 Y112.616 
X65.214 Y112.632 
X65.274 Y112.639 
X65.307 Y112.639 
G02 X65.307 Y111.639 I0 J-0.5 
G01 Z-14.166 F100
G02 X65.307 Y112.639 I0 J0.5 F300
G01 X65.34 Y112.639 
X65.4 Y112.632 
X65.461 Y112.616 
X65.52 Y112.593 
X65.572 Y112.564 
X65.623 Y112.527 
X65.67 Y112.483 
X65.71 Y112.434 
X65.743 Y112.383 
X65.768 Y112.329 
X65.788 Y112.268 
X65.8 Y112.205 
X65.804 Y112.143 
X65.8 Y112.082 
X65.788 Y112.019 
X65.768 Y111.958 
X65.743 Y111.904 
X65.71 Y111.852 
X65.67 Y111.804 
X65.623 Y111.759 
X65.572 Y111.723 
X65.52 Y111.694 
X65.461 Y111.671 
X65.4 Y111.655 
X65.34 Y111.647 
X65.274 Y111.647 
X65.214 Y111.655 
X65.153 Y111.671 
X65.093 Y111.694 
X65.041 Y111.723 
X64.991 Y111.759 
X64.944 Y111.804 
X64.904 Y111.852 
X64.871 Y111.904 
X64.845 Y111.958 
X64.826 Y112.019 
X64.814 Y112.082 
X64.81 Y112.143 
X64.814 Y112.205 
X64.826 Y112.268 
X64.845 Y112.329 
X64.871 Y112.383 
X64.904 Y112.434 
X64.944 Y112.483 
X64.991 Y112.527 
X65.041 Y112.564 
X65.093 Y112.593 
X65.153 Y112.616 
X65.214 Y112.632 
X65.274 Y112.639 
X65.307 Y112.639 
G02 X65.307 Y111.639 I0 J-0.5 
G01 Z-17 F100
G02 X65.307 Y112.639 I0 J0.5 F300
G01 X65.34 Y112.639 
X65.4 Y112.632 
X65.461 Y112.616 
X65.52 Y112.593 
X65.572 Y112.564 
X65.623 Y112.527 
X65.67 Y112.483 
X65.71 Y112.434 
X65.743 Y112.383 
X65.768 Y112.329 
X65.788 Y112.268 
X65.8 Y112.205 
X65.804 Y112.143 
X65.8 Y112.082 
X65.788 Y112.019 
X65.768 Y111.958 
X65.743 Y111.904 
X65.71 Y111.852 
X65.67 Y111.804 
X65.623 Y111.759 
X65.572 Y111.723 
X65.52 Y111.694 
X65.461 Y111.671 
X65.4 Y111.655 
X65.34 Y111.647 
X65.274 Y111.647 
X65.214 Y111.655 
X65.153 Y111.671 
X65.093 Y111.694 
X65.041 Y111.723 
X64.991 Y111.759 
X64.944 Y111.804 
X64.904 Y111.852 
X64.871 Y111.904 
X64.845 Y111.958 
X64.826 Y112.019 
X64.814 Y112.082 
X64.81 Y112.143 
X64.814 Y112.205 
X64.826 Y112.268 
X64.845 Y112.329 
X64.871 Y112.383 
X64.904 Y112.434 
X64.944 Y112.483 
X64.991 Y112.527 
X65.041 Y112.564 
X65.093 Y112.593 
X65.153 Y112.616 
X65.214 Y112.632 
X65.274 Y112.639 
X65.307 Y112.639 
G02 X65.307 Y111.639 I0 J-0.5 
G00 Z5
G90
(Sketch 82)
X58.378 Y120.581 S7000 M03
Z2
G01 Z-2.833 F100
X58.411 Y120.58 F300
X58.47 Y120.571 
X58.531 Y120.553 
X58.59 Y120.528 
X58.641 Y120.498 
X58.69 Y120.46 
X58.736 Y120.414 
X58.775 Y120.364 
X58.806 Y120.312 
X58.83 Y120.257 
X58.848 Y120.196 
X58.858 Y120.133 
X58.86 Y120.071 
X58.854 Y120.009 
X58.841 Y119.947 
X58.819 Y119.887 
X58.792 Y119.833 
X58.758 Y119.783 
X58.716 Y119.735 
X58.668 Y119.692 
X58.617 Y119.657 
X58.564 Y119.63 
X58.503 Y119.608 
X58.442 Y119.594 
X58.382 Y119.588 
X58.316 Y119.59 
X58.257 Y119.6 
X58.196 Y119.617 
X58.137 Y119.642 
X58.086 Y119.672 
X58.037 Y119.71 
X57.991 Y119.756 
X57.952 Y119.806 
X57.921 Y119.858 
X57.897 Y119.913 
X57.879 Y119.974 
X57.869 Y120.038 
X57.867 Y120.099 
X57.872 Y120.161 
X57.886 Y120.224 
X57.907 Y120.284 
X57.934 Y120.337 
X57.969 Y120.388 
X58.011 Y120.435 
X58.059 Y120.478 
X58.11 Y120.513 
X58.163 Y120.54 
X58.223 Y120.562 
X58.285 Y120.576 
X58.345 Y120.582 
X58.378 Y120.581 
Z-5.666 F100
X58.411 Y120.58 F300
X58.47 Y120.571 
X58.531 Y120.553 
X58.59 Y120.528 
X58.641 Y120.498 
X58.69 Y120.46 
X58.736 Y120.414 
X58.775 Y120.364 
X58.806 Y120.312 
X58.83 Y120.257 
X58.848 Y120.196 
X58.858 Y120.133 
X58.86 Y120.071 
X58.854 Y120.009 
X58.841 Y119.947 
X58.819 Y119.887 
X58.792 Y119.833 
X58.758 Y119.783 
X58.716 Y119.735 
X58.668 Y119.692 
X58.617 Y119.657 
X58.564 Y119.63 
X58.503 Y119.608 
X58.442 Y119.594 
X58.382 Y119.588 
X58.316 Y119.59 
X58.257 Y119.6 
X58.196 Y119.617 
X58.137 Y119.642 
X58.086 Y119.672 
X58.037 Y119.71 
X57.991 Y119.756 
X57.952 Y119.806 
X57.921 Y119.858 
X57.897 Y119.913 
X57.879 Y119.974 
X57.869 Y120.038 
X57.867 Y120.099 
X57.872 Y120.161 
X57.886 Y120.224 
X57.907 Y120.284 
X57.934 Y120.337 
X57.969 Y120.388 
X58.011 Y120.435 
X58.059 Y120.478 
X58.11 Y120.513 
X58.163 Y120.54 
X58.223 Y120.562 
X58.285 Y120.576 
X58.345 Y120.582 
X58.378 Y120.581 
Z-8.5 F100
X58.411 Y120.58 F300
X58.47 Y120.571 
X58.531 Y120.553 
X58.59 Y120.528 
X58.641 Y120.498 
X58.69 Y120.46 
X58.736 Y120.414 
X58.775 Y120.364 
X58.806 Y120.312 
X58.83 Y120.257 
X58.848 Y120.196 
X58.858 Y120.133 
X58.86 Y120.071 
X58.854 Y120.009 
X58.841 Y119.947 
X58.819 Y119.887 
X58.792 Y119.833 
X58.758 Y119.783 
X58.716 Y119.735 
X58.668 Y119.692 
X58.617 Y119.657 
X58.564 Y119.63 
X58.503 Y119.608 
X58.442 Y119.594 
X58.382 Y119.588 
X58.316 Y119.59 
X58.257 Y119.6 
X58.196 Y119.617 
X58.137 Y119.642 
X58.086 Y119.672 
X58.037 Y119.71 
X57.991 Y119.756 
X57.952 Y119.806 
X57.921 Y119.858 
X57.897 Y119.913 
X57.879 Y119.974 
X57.869 Y120.038 
X57.867 Y120.099 
X57.872 Y120.161 
X57.886 Y120.224 
X57.907 Y120.284 
X57.934 Y120.337 
X57.969 Y120.388 
X58.011 Y120.435 
X58.059 Y120.478 
X58.11 Y120.513 
X58.163 Y120.54 
X58.223 Y120.562 
X58.285 Y120.576 
X58.345 Y120.582 
X58.378 Y120.581 
Z-11.333 F100
X58.411 Y120.58 F300
X58.47 Y120.571 
X58.531 Y120.553 
X58.59 Y120.528 
X58.641 Y120.498 
X58.69 Y120.46 
X58.736 Y120.414 
X58.775 Y120.364 
X58.806 Y120.312 
X58.83 Y120.257 
X58.848 Y120.196 
X58.858 Y120.133 
X58.86 Y120.071 
X58.854 Y120.009 
X58.841 Y119.947 
X58.819 Y119.887 
X58.792 Y119.833 
X58.758 Y119.783 
X58.716 Y119.735 
X58.668 Y119.692 
X58.617 Y119.657 
X58.564 Y119.63 
X58.503 Y119.608 
X58.442 Y119.594 
X58.382 Y119.588 
X58.316 Y119.59 
X58.257 Y119.6 
X58.196 Y119.617 
X58.137 Y119.642 
X58.086 Y119.672 
X58.037 Y119.71 
X57.991 Y119.756 
X57.952 Y119.806 
X57.921 Y119.858 
X57.897 Y119.913 
X57.879 Y119.974 
X57.869 Y120.038 
X57.867 Y120.099 
X57.872 Y120.161 
X57.886 Y120.224 
X57.907 Y120.284 
X57.934 Y120.337 
X57.969 Y120.388 
X58.011 Y120.435 
X58.059 Y120.478 
X58.11 Y120.513 
X58.163 Y120.54 
X58.223 Y120.562 
X58.285 Y120.576 
X58.345 Y120.582 
X58.378 Y120.581 
Z-14.166 F100
X58.411 Y120.58 F300
X58.47 Y120.571 
X58.531 Y120.553 
X58.59 Y120.528 
X58.641 Y120.498 
X58.69 Y120.46 
X58.736 Y120.414 
X58.775 Y120.364 
X58.806 Y120.312 
X58.83 Y120.257 
X58.848 Y120.196 
X58.858 Y120.133 
X58.86 Y120.071 
X58.854 Y120.009 
X58.841 Y119.947 
X58.819 Y119.887 
X58.792 Y119.833 
X58.758 Y119.783 
X58.716 Y119.735 
X58.668 Y119.692 
X58.617 Y119.657 
X58.564 Y119.63 
X58.503 Y119.608 
X58.442 Y119.594 
X58.382 Y119.588 
X58.316 Y119.59 
X58.257 Y119.6 
X58.196 Y119.617 
X58.137 Y119.642 
X58.086 Y119.672 
X58.037 Y119.71 
X57.991 Y119.756 
X57.952 Y119.806 
X57.921 Y119.858 
X57.897 Y119.913 
X57.879 Y119.974 
X57.869 Y120.038 
X57.867 Y120.099 
X57.872 Y120.161 
X57.886 Y120.224 
X57.907 Y120.284 
X57.934 Y120.337 
X57.969 Y120.388 
X58.011 Y120.435 
X58.059 Y120.478 
X58.11 Y120.513 
X58.163 Y120.54 
X58.223 Y120.562 
X58.285 Y120.576 
X58.345 Y120.582 
X58.378 Y120.581 
Z-17 F100
X58.411 Y120.58 F300
X58.47 Y120.571 
X58.531 Y120.553 
X58.59 Y120.528 
X58.641 Y120.498 
X58.69 Y120.46 
X58.736 Y120.414 
X58.775 Y120.364 
X58.806 Y120.312 
X58.83 Y120.257 
X58.848 Y120.196 
X58.858 Y120.133 
X58.86 Y120.071 
X58.854 Y120.009 
X58.841 Y119.947 
X58.819 Y119.887 
X58.792 Y119.833 
X58.758 Y119.783 
X58.716 Y119.735 
X58.668 Y119.692 
X58.617 Y119.657 
X58.564 Y119.63 
X58.503 Y119.608 
X58.442 Y119.594 
X58.382 Y119.588 
X58.316 Y119.59 
X58.257 Y119.6 
X58.196 Y119.617 
X58.137 Y119.642 
X58.086 Y119.672 
X58.037 Y119.71 
X57.991 Y119.756 
X57.952 Y119.806 
X57.921 Y119.858 
X57.897 Y119.913 
X57.879 Y119.974 
X57.869 Y120.038 
X57.867 Y120.099 
X57.872 Y120.161 
X57.886 Y120.224 
X57.907 Y120.284 
X57.934 Y120.337 
X57.969 Y120.388 
X58.011 Y120.435 
X58.059 Y120.478 
X58.11 Y120.513 
X58.163 Y120.54 
X58.223 Y120.562 
X58.285 Y120.576 
X58.345 Y120.582 
X58.378 Y120.581 
G00 Z5
G90
(Sketch 88)
X70.623 Y118.673 S7000 M03
Z2
G01 Z-2.833 F100
G02 X70.623 Y120.673 I0 J1 F300
G01 X70.656 Y120.673 
X70.716 Y120.665 
X70.777 Y120.65 
X70.836 Y120.626 
X70.888 Y120.598 
X70.939 Y120.561 
X70.986 Y120.517 
X71.026 Y120.468 
X71.059 Y120.416 
X71.085 Y120.362 
X71.104 Y120.302 
X71.116 Y120.239 
X71.12 Y120.177 
X71.116 Y120.115 
X71.104 Y120.052 
X71.085 Y119.992 
X71.059 Y119.937 
X71.026 Y119.886 
X70.986 Y119.837 
X70.939 Y119.793 
X70.888 Y119.756 
X70.836 Y119.728 
X70.777 Y119.704 
X70.716 Y119.688 
X70.656 Y119.681 
X70.59 Y119.681 
X70.53 Y119.688 
X70.469 Y119.704 
X70.409 Y119.728 
X70.358 Y119.756 
X70.307 Y119.793 
X70.26 Y119.837 
X70.22 Y119.886 
X70.187 Y119.937 
X70.161 Y119.992 
X70.142 Y120.052 
X70.13 Y120.115 
X70.126 Y120.177 
X70.13 Y120.239 
X70.142 Y120.302 
X70.161 Y120.362 
X70.187 Y120.416 
X70.22 Y120.468 
X70.26 Y120.517 
X70.307 Y120.561 
X70.358 Y120.598 
X70.409 Y120.626 
X70.469 Y120.65 
X70.53 Y120.665 
X70.59 Y120.673 
X70.623 Y120.673 
G02 X70.623 Y118.673 I0 J-1 
G01 Z-5.666 F100
G02 X70.623 Y120.673 I0 J1 F300
G01 X70.656 Y120.673 
X70.716 Y120.665 
X70.777 Y120.65 
X70.836 Y120.626 
X70.888 Y120.598 
X70.939 Y120.561 
X70.986 Y120.517 
X71.026 Y120.468 
X71.059 Y120.416 
X71.085 Y120.362 
X71.104 Y120.302 
X71.116 Y120.239 
X71.12 Y120.177 
X71.116 Y120.115 
X71.104 Y120.052 
X71.085 Y119.992 
X71.059 Y119.937 
X71.026 Y119.886 
X70.986 Y119.837 
X70.939 Y119.793 
X70.888 Y119.756 
X70.836 Y119.728 
X70.777 Y119.704 
X70.716 Y119.688 
X70.656 Y119.681 
X70.59 Y119.681 
X70.53 Y119.688 
X70.469 Y119.704 
X70.409 Y119.728 
X70.358 Y119.756 
X70.307 Y119.793 
X70.26 Y119.837 
X70.22 Y119.886 
X70.187 Y119.937 
X70.161 Y119.992 
X70.142 Y120.052 
X70.13 Y120.115 
X70.126 Y120.177 
X70.13 Y120.239 
X70.142 Y120.302 
X70.161 Y120.362 
X70.187 Y120.416 
X70.22 Y120.468 
X70.26 Y120.517 
X70.307 Y120.561 
X70.358 Y120.598 
X70.409 Y120.626 
X70.469 Y120.65 
X70.53 Y120.665 
X70.59 Y120.673 
X70.623 Y120.673 
G02 X70.623 Y118.673 I0 J-1 
G01 Z-8.5 F100
G02 X70.623 Y120.673 I0 J1 F300
G01 X70.656 Y120.673 
X70.716 Y120.665 
X70.777 Y120.65 
X70.836 Y120.626 
X70.888 Y120.598 
X70.939 Y120.561 
X70.986 Y120.517 
X71.026 Y120.468 
X71.059 Y120.416 
X71.085 Y120.362 
X71.104 Y120.302 
X71.116 Y120.239 
X71.12 Y120.177 
X71.116 Y120.115 
X71.104 Y120.052 
X71.085 Y119.992 
X71.059 Y119.937 
X71.026 Y119.886 
X70.986 Y119.837 
X70.939 Y119.793 
X70.888 Y119.756 
X70.836 Y119.728 
X70.777 Y119.704 
X70.716 Y119.688 
X70.656 Y119.681 
X70.59 Y119.681 
X70.53 Y119.688 
X70.469 Y119.704 
X70.409 Y119.728 
X70.358 Y119.756 
X70.307 Y119.793 
X70.26 Y119.837 
X70.22 Y119.886 
X70.187 Y119.937 
X70.161 Y119.992 
X70.142 Y120.052 
X70.13 Y120.115 
X70.126 Y120.177 
X70.13 Y120.239 
X70.142 Y120.302 
X70.161 Y120.362 
X70.187 Y120.416 
X70.22 Y120.468 
X70.26 Y120.517 
X70.307 Y120.561 
X70.358 Y120.598 
X70.409 Y120.626 
X70.469 Y120.65 
X70.53 Y120.665 
X70.59 Y120.673 
X70.623 Y120.673 
G02 X70.623 Y118.673 I0 J-1 
G01 Z-11.333 F100
G02 X70.623 Y120.673 I0 J1 F300
G01 X70.656 Y120.673 
X70.716 Y120.665 
X70.777 Y120.65 
X70.836 Y120.626 
X70.888 Y120.598 
X70.939 Y120.561 
X70.986 Y120.517 
X71.026 Y120.468 
X71.059 Y120.416 
X71.085 Y120.362 
X71.104 Y120.302 
X71.116 Y120.239 
X71.12 Y120.177 
X71.116 Y120.115 
X71.104 Y120.052 
X71.085 Y119.992 
X71.059 Y119.937 
X71.026 Y119.886 
X70.986 Y119.837 
X70.939 Y119.793 
X70.888 Y119.756 
X70.836 Y119.728 
X70.777 Y119.704 
X70.716 Y119.688 
X70.656 Y119.681 
X70.59 Y119.681 
X70.53 Y119.688 
X70.469 Y119.704 
X70.409 Y119.728 
X70.358 Y119.756 
X70.307 Y119.793 
X70.26 Y119.837 
X70.22 Y119.886 
X70.187 Y119.937 
X70.161 Y119.992 
X70.142 Y120.052 
X70.13 Y120.115 
X70.126 Y120.177 
X70.13 Y120.239 
X70.142 Y120.302 
X70.161 Y120.362 
X70.187 Y120.416 
X70.22 Y120.468 
X70.26 Y120.517 
X70.307 Y120.561 
X70.358 Y120.598 
X70.409 Y120.626 
X70.469 Y120.65 
X70.53 Y120.665 
X70.59 Y120.673 
X70.623 Y120.673 
G02 X70.623 Y118.673 I0 J-1 
G01 Z-14.166 F100
G02 X70.623 Y120.673 I0 J1 F300
G01 X70.656 Y120.673 
X70.716 Y120.665 
X70.777 Y120.65 
X70.836 Y120.626 
X70.888 Y120.598 
X70.939 Y120.561 
X70.986 Y120.517 
X71.026 Y120.468 
X71.059 Y120.416 
X71.085 Y120.362 
X71.104 Y120.302 
X71.116 Y120.239 
X71.12 Y120.177 
X71.116 Y120.115 
X71.104 Y120.052 
X71.085 Y119.992 
X71.059 Y119.937 
X71.026 Y119.886 
X70.986 Y119.837 
X70.939 Y119.793 
X70.888 Y119.756 
X70.836 Y119.728 
X70.777 Y119.704 
X70.716 Y119.688 
X70.656 Y119.681 
X70.59 Y119.681 
X70.53 Y119.688 
X70.469 Y119.704 
X70.409 Y119.728 
X70.358 Y119.756 
X70.307 Y119.793 
X70.26 Y119.837 
X70.22 Y119.886 
X70.187 Y119.937 
X70.161 Y119.992 
X70.142 Y120.052 
X70.13 Y120.115 
X70.126 Y120.177 
X70.13 Y120.239 
X70.142 Y120.302 
X70.161 Y120.362 
X70.187 Y120.416 
X70.22 Y120.468 
X70.26 Y120.517 
X70.307 Y120.561 
X70.358 Y120.598 
X70.409 Y120.626 
X70.469 Y120.65 
X70.53 Y120.665 
X70.59 Y120.673 
X70.623 Y120.673 
G02 X70.623 Y118.673 I0 J-1 
G01 Z-17 F100
G02 X70.623 Y120.673 I0 J1 F300
G01 X70.656 Y120.673 
X70.716 Y120.665 
X70.777 Y120.65 
X70.836 Y120.626 
X70.888 Y120.598 
X70.939 Y120.561 
X70.986 Y120.517 
X71.026 Y120.468 
X71.059 Y120.416 
X71.085 Y120.362 
X71.104 Y120.302 
X71.116 Y120.239 
X71.12 Y120.177 
X71.116 Y120.115 
X71.104 Y120.052 
X71.085 Y119.992 
X71.059 Y119.937 
X71.026 Y119.886 
X70.986 Y119.837 
X70.939 Y119.793 
X70.888 Y119.756 
X70.836 Y119.728 
X70.777 Y119.704 
X70.716 Y119.688 
X70.656 Y119.681 
X70.59 Y119.681 
X70.53 Y119.688 
X70.469 Y119.704 
X70.409 Y119.728 
X70.358 Y119.756 
X70.307 Y119.793 
X70.26 Y119.837 
X70.22 Y119.886 
X70.187 Y119.937 
X70.161 Y119.992 
X70.142 Y120.052 
X70.13 Y120.115 
X70.126 Y120.177 
X70.13 Y120.239 
X70.142 Y120.302 
X70.161 Y120.362 
X70.187 Y120.416 
X70.22 Y120.468 
X70.26 Y120.517 
X70.307 Y120.561 
X70.358 Y120.598 
X70.409 Y120.626 
X70.469 Y120.65 
X70.53 Y120.665 
X70.59 Y120.673 
X70.623 Y120.673 
G02 X70.623 Y118.673 I0 J-1 
G00 Z5
G90
X76.307 Y107.143 S7000 M03
Z2
G01 Z-2.75 F100
X76.307 Y94.143 F300
X75.307 Y94.143 
X75.307 Y107.143 
X76.307 Y107.143 
X78.307 Y109.143 
X78.307 Y92.143 
X73.307 Y92.143 
X73.307 Y109.143 
X78.307 Y109.143 
G00 Z5
X76.307 Y107.143
Z-0.75
G01 Z-5.5 F100
X76.307 Y94.143 F300
X75.307 Y94.143 
X75.307 Y107.143 
X76.307 Y107.143 
X78.307 Y109.143 
X78.307 Y92.143 
X73.307 Y92.143 
X73.307 Y109.143 
X78.307 Y109.143 
G00 Z5
X95.307 Y109.143 S7000 M03
Z2
G01 Z-2.75 F100
X95.307 Y92.143 F300
X90.307 Y92.143 
X90.307 Y109.143 
X95.307 Y109.143 
G00 Z5
Z-0.75
G01 Z-5.5 F100
X95.307 Y92.143 F300
X90.307 Y92.143 
X90.307 Y109.143 
X95.307 Y109.143 
G00 Z5
X37.407 Y107.537 S7000 M03
Z2
G01 Z-2.75 F100
X37.407 Y109.314 F300
G03 X39.907 Y109.127 I2.484 J16.408 
G01 X46.331 Y109.127 
X46.852 Y109.088 
G02 X46.779 Y107.746 I-0.145 J-0.665 
G01 X46.471 Y107.727 
X39.907 Y107.727 
G03 X37.407 Y107.537 I0.132 J-18.282 
G01 X35.407 Y105.045 
X35.407 Y111.802 
G03 X39.907 Y111.127 I4.511 J14.74 
G01 X46.405 Y111.127 
X47.193 Y111.069 
G02 X47.051 Y105.759 I-0.486 J-2.643 
G01 X46.533 Y105.727 
X39.907 Y105.727 
G03 X37.618 Y105.548 I0.076 J-15.702 
G01 X36.261 Y105.286 
G03 X35.407 Y105.045 I2.083 J-9.017 
G01 X33.407 Y102.055 
X33.407 Y114.797 
G03 X35.032 Y114.039 I7.14 J13.187 
X36.641 Y113.529 I5.57 J14.782 
X38.303 Y113.224 I3.838 J16.235 
X39.907 Y113.127 I1.853 J17.341 
G01 X46.478 Y113.127 
G02 X47.495 Y113.053 I-0.846 J-18.658 
X51.333 Y107.636 I-0.788 J-4.627 
X47.305 Y103.771 I-4.622 J0.785 
G01 X46.595 Y103.727 
X39.907 Y103.727 
G03 X37.998 Y103.585 I0.02 J-13.182 
X36.641 Y103.323 I4.015 J-24.443 
X34.856 Y102.744 I4.013 J-15.414 
X33.407 Y102.055 I5.938 J-14.356 
G01 X31.407 Y97.945 
X31.407 Y118.908 
G03 X32.105 Y118.181 I6.206 J5.26 
G01 X33.072 Y117.381 
X33.225 Y117.27 
X34.286 Y116.597 
X34.45 Y116.506 
X35.586 Y115.971 
X35.762 Y115.902 
X36.956 Y115.514 
X37.139 Y115.467 
X38.373 Y115.232 
X38.559 Y115.208 
G03 X39.907 Y115.127 I1.639 J16.029 
G01 X46.564 Y115.127 
G03 X47.127 Y115.111 I0.353 J2.507 
G02 X53.35 Y109.266 I-0.419 J-6.682 
G01 X53.399 Y108.5 
G03 X53.391 Y108.006 I2.249 J-0.283 
G02 X47.546 Y101.783 I-6.682 J0.419 
G01 X46.659 Y101.727 
X39.907 Y101.727 
G03 X38.559 Y101.645 I0.631 J-21.501 
G01 X38.373 Y101.621 
X37.139 Y101.386 
X36.956 Y101.339 
X35.762 Y100.951 
X35.586 Y100.882 
X34.45 Y100.347 
X34.286 Y100.256 
X33.225 Y99.583 
X33.072 Y99.472 
X32.105 Y98.672 
G03 X31.407 Y97.945 I5.508 J-5.987 
G00 Z5
X37.407 Y107.537
Z-0.75
G01 Z-5.5 F100
X37.407 Y109.314 F300
G03 X39.907 Y109.127 I2.484 J16.408 
G01 X46.331 Y109.127 
X46.852 Y109.088 
G02 X46.779 Y107.746 I-0.145 J-0.665 
G01 X46.471 Y107.727 
X39.907 Y107.727 
G03 X37.407 Y107.537 I0.132 J-18.282 
G01 X35.407 Y105.045 
X35.407 Y111.802 
G03 X39.907 Y111.127 I4.511 J14.74 
G01 X46.405 Y111.127 
X47.193 Y111.069 
G02 X47.051 Y105.759 I-0.486 J-2.643 
G01 X46.533 Y105.727 
X39.907 Y105.727 
G03 X37.618 Y105.548 I0.076 J-15.702 
G01 X36.261 Y105.286 
G03 X35.407 Y105.045 I2.083 J-9.017 
G01 X33.407 Y102.055 
X33.407 Y114.797 
G03 X35.032 Y114.039 I7.14 J13.187 
X36.641 Y113.529 I5.57 J14.782 
X38.303 Y113.224 I3.838 J16.235 
X39.907 Y113.127 I1.853 J17.341 
G01 X46.478 Y113.127 
G02 X47.495 Y113.053 I-0.846 J-18.658 
X51.333 Y107.636 I-0.788 J-4.627 
X47.305 Y103.771 I-4.622 J0.785 
G01 X46.595 Y103.727 
X39.907 Y103.727 
G03 X37.998 Y103.585 I0.02 J-13.182 
X36.641 Y103.323 I4.015 J-24.443 
X34.856 Y102.744 I4.013 J-15.414 
X33.407 Y102.055 I5.938 J-14.356 
G01 X31.407 Y97.945 
X31.407 Y118.908 
G03 X32.105 Y118.181 I6.206 J5.26 
G01 X33.072 Y117.381 
X33.225 Y117.27 
X34.286 Y116.597 
X34.45 Y116.506 
X35.586 Y115.971 
X35.762 Y115.902 
X36.956 Y115.514 
X37.139 Y115.467 
X38.373 Y115.232 
X38.559 Y115.208 
G03 X39.907 Y115.127 I1.639 J16.029 
G01 X46.564 Y115.127 
G03 X47.127 Y115.111 I0.353 J2.507 
G02 X53.35 Y109.266 I-0.419 J-6.682 
G01 X53.399 Y108.5 
G03 X53.391 Y108.006 I2.249 J-0.283 
G02 X47.546 Y101.783 I-6.682 J0.419 
G01 X46.659 Y101.727 
X39.907 Y101.727 
G03 X38.559 Y101.645 I0.631 J-21.501 
G01 X38.373 Y101.621 
X37.139 Y101.386 
X36.956 Y101.339 
X35.762 Y100.951 
X35.586 Y100.882 
X34.45 Y100.347 
X34.286 Y100.256 
X33.225 Y99.583 
X33.072 Y99.472 
X32.105 Y98.672 
G03 X31.407 Y97.945 I5.508 J-5.987 
G00 Z5
(Sketch 83)
X72.912 Y133.129 S7000 M03
Z2
G01 Z-2.833 F100
G02 X72.912 Y131.129 I0 J-1 F300
G01 X29.912 Y131.129 
G03 X28.412 Y129.629 I0 J-1.5 
G01 X28.412 Y90.629 
G03 X29.912 Y89.129 I1.5 J0 
G01 X115.912 Y89.129 
G03 X117.412 Y90.629 I0 J1.5 
G01 X117.412 Y129.629 
G03 X115.912 Y131.129 I-1.5 J0 
G01 X72.912 Y131.129 
G02 X72.912 Y133.129 I0 J1 
G01 Z-5.666 F100
G02 X72.912 Y131.129 I0 J-1 F300
G01 X29.912 Y131.129 
G03 X28.412 Y129.629 I0 J-1.5 
G01 X28.412 Y90.629 
G03 X29.912 Y89.129 I1.5 J0 
G01 X115.912 Y89.129 
G03 X117.412 Y90.629 I0 J1.5 
G01 X117.412 Y129.629 
G03 X115.912 Y131.129 I-1.5 J0 
G01 X72.912 Y131.129 
G02 X72.912 Y133.129 I0 J1 
G01 Z-8.5 F100
G02 X72.912 Y131.129 I0 J-1 F300
G01 X29.912 Y131.129 
G03 X28.412 Y129.629 I0 J-1.5 
G01 X28.412 Y90.629 
G03 X29.912 Y89.129 I1.5 J0 
G01 X115.912 Y89.129 
G03 X117.412 Y90.629 I0 J1.5 
G01 X117.412 Y129.629 
G03 X115.912 Y131.129 I-1.5 J0 
G01 X72.912 Y131.129 
G02 X72.912 Y133.129 I0 J1 
G01 Z-11.333 F100
G02 X72.912 Y131.129 I0 J-1 F300
G01 X29.912 Y131.129 
G03 X28.412 Y129.629 I0 J-1.5 
G01 X28.412 Y90.629 
G03 X29.912 Y89.129 I1.5 J0 
G01 X115.912 Y89.129 
G03 X117.412 Y90.629 I0 J1.5 
G01 X117.412 Y129.629 
G03 X115.912 Y131.129 I-1.5 J0 
G01 X72.912 Y131.129 
G02 X72.912 Y133.129 I0 J1 
G01 Z-14.166 F100
G02 X72.912 Y131.129 I0 J-1 F300
G01 X29.912 Y131.129 
G03 X28.412 Y129.629 I0 J-1.5 
G01 X28.412 Y90.629 
G03 X29.912 Y89.129 I1.5 J0 
G01 X115.912 Y89.129 
G03 X117.412 Y90.629 I0 J1.5 
G01 X117.412 Y129.629 
G03 X115.912 Y131.129 I-1.5 J0 
G01 X72.912 Y131.129 
G02 X72.912 Y133.129 I0 J1 
G01 Z-17 F100
G02 X72.912 Y131.129 I0 J-1 F300
G01 X29.912 Y131.129 
G03 X28.412 Y129.629 I0 J-1.5 
G01 X28.412 Y90.629 
G03 X29.912 Y89.129 I1.5 J0 
G01 X115.912 Y89.129 
G03 X117.412 Y90.629 I0 J1.5 
G01 X117.412 Y129.629 
G03 X115.912 Y131.129 I-1.5 J0 
G01 X72.912 Y131.129 
G02 X72.912 Y133.129 I0 J1 
G00 Z5
T0 M06 M02
