(Created with emc2b post processor 2016/07/28 03:27)
(tool change to 3 mm Slot Cutter)
T1 M06 G43
G17 G90 G21
G00 X41 Y11.5 S7000 M03
Z5
G83 Q3 G98 X41 Y11.5 Z-17 R2 F100
X41 Y25.5 
X59 Y25.5 
X59 Y11.5 
X132 Y30 
X148 Y30 
X186 Y25.5 
X186 Y11.5 
X204 Y11.5 
X204 Y25.5 
X242 Y30 
X258 Y30 
X331 Y25.5 
X331 Y11.5 
X349 Y11.5 
X349 Y25.5 
X299.5 Y74.5 
X195 Y74.5 
X90.5 Y74.5 
X128 Y124 
X152 Y124 
X238 Y124 
X262 Y124 
X299.5 Y179 
X197 Y171 
X197 Y187 
X101.5 Y170 
X101.5 Y176 
X101.5 Y182 
X101.5 Y188 
X90.5 Y283.5 
X128 Y234 
X152 Y234 
X238 Y234 
X262 Y234 
X299.5 Y283.5 
X344.5 Y241.5 
X375.5 Y241.5 
X375.5 Y272.5 
X344.5 Y272.5 
X351 Y287 
X351 Y301 
X353 Y358 
X367 Y358 
X367 Y376 
X353 Y376 
X349 Y414.5 
X349 Y428.5 
X331 Y428.5 
X331 Y414.5 
X258 Y410 
X242 Y410 
X210.5 Y403.5 
X204 Y414.5 
X204 Y428.5 
X186 Y428.5 
X186 Y414.5 
X148 Y410 
X132 Y410 
X59 Y414.5 
X59 Y428.5 
X41 Y428.5 
X41 Y414.5 
X37 Y376 
X23 Y376 
X23 Y358 
X37 Y358 
X89 Y349.8 
X98.5 Y349.8 
X39 Y301 
X39 Y287 
X45.5 Y272.5 
X14.5 Y272.5 
X14.5 Y241.5 
X45.5 Y241.5 
G80
G00 X90.562 Y284.485 S7000 M03
Z2
G01 Z-2.75 
G02 X91.359 Y284.047 I-0.108 J-1.141 F300
G01 X100.346 Y275.061 
X99.969 Y274.604 
X98.943 Y273.642 
X89.823 Y282.762 
G02 X90.562 Y284.485 I0.68 J0.727 
G01 X90.658 Y285.988 
G02 X92.415 Y285.115 I-0.185 J-2.577 
G01 X101.652 Y275.878 
G03 X102.439 Y275.318 I2.157 J2.198 
G01 X102.224 Y274.979 
X101.065 Y273.576 
X99.739 Y272.332 
X98.678 Y271.561 
G03 X98.12 Y272.346 I-2.751 J-1.365 
G01 X88.711 Y281.754 
G02 X90.658 Y285.988 I1.79 J1.741 
G01 X90.751 Y287.489 
G02 X93.465 Y286.187 I-0.263 J-4.028 
G01 X102.713 Y276.939 
G03 X103.774 Y276.5 I1.058 J1.057 
G01 X104.85 Y276.5 
X104.517 Y275.793 
X103.441 Y274.097 
X102.161 Y272.548 
X100.697 Y271.174 
X99.071 Y269.993 
X97.5 Y269.129 
X97.5 Y270.226 
G03 X97.06 Y271.286 I-1.503 J-0.002 
G01 X87.6 Y280.745 
G02 X90.751 Y287.489 I2.9 J2.752 
G00 Z5
X90.562 Y284.485
Z-0.75
G01 Z-5.5 F100
G02 X91.359 Y284.047 I-0.108 J-1.141 F300
G01 X100.346 Y275.061 
X99.969 Y274.604 
X98.943 Y273.642 
X89.823 Y282.762 
G02 X90.562 Y284.485 I0.68 J0.727 
G01 X90.658 Y285.988 
G02 X92.415 Y285.115 I-0.185 J-2.577 
G01 X101.652 Y275.878 
G03 X102.439 Y275.318 I2.157 J2.198 
G01 X102.224 Y274.979 
X101.065 Y273.576 
X99.739 Y272.332 
X98.678 Y271.561 
G03 X98.12 Y272.346 I-2.751 J-1.365 
G01 X88.711 Y281.754 
G02 X90.658 Y285.988 I1.79 J1.741 
G01 X90.751 Y287.489 
G02 X93.465 Y286.187 I-0.263 J-4.028 
G01 X102.713 Y276.939 
G03 X103.774 Y276.5 I1.058 J1.057 
G01 X104.85 Y276.5 
X104.517 Y275.793 
X103.441 Y274.097 
X102.161 Y272.548 
X100.697 Y271.174 
X99.071 Y269.993 
X97.5 Y269.129 
X97.5 Y270.226 
G03 X97.06 Y271.286 I-1.503 J-0.002 
G01 X87.6 Y280.745 
G02 X90.751 Y287.489 I2.9 J2.752 
G00 Z5
X98.944 Y84.354 S7000 M03
Z2
G01 Z-2.75 F100
X99.969 Y83.393 F300
X100.346 Y82.936 
X91.356 Y73.945 
G02 X90.691 Y73.521 I-0.888 J0.659 
X89.82 Y75.231 I-0.181 J0.984 
G01 X98.944 Y84.354 
X98.678 Y86.437 
X99.739 Y85.666 
X101.065 Y84.422 
X102.224 Y83.019 
X102.439 Y82.679 
G03 X101.652 Y82.12 I1.356 J-2.742 
G01 X92.415 Y72.883 
G02 X88.483 Y75.969 I-1.907 J1.617 
G01 X88.71 Y76.243 
X98.12 Y85.652 
G03 X98.678 Y86.437 I-2.183 J2.142 
G01 X97.5 Y87.774 
X97.5 Y88.87 
X99.071 Y88.006 
X100.697 Y86.825 
X102.161 Y85.451 
X103.441 Y83.902 
X104.517 Y82.206 
X104.85 Y81.5 
X103.774 Y81.5 
G03 X102.713 Y81.06 I0.001 J-1.503 
G01 X93.465 Y71.812 
G02 X87.265 Y76.849 I-2.962 J2.688 
G01 X87.6 Y77.254 
X97.06 Y86.713 
G03 X97.5 Y87.774 I-1.063 J1.062 
G00 Z5
X98.944 Y84.354
Z-0.75
G01 Z-5.5 F100
X99.969 Y83.393 F300
X100.346 Y82.936 
X91.356 Y73.945 
G02 X90.691 Y73.521 I-0.888 J0.659 
X89.82 Y75.231 I-0.181 J0.984 
G01 X98.944 Y84.354 
X98.678 Y86.437 
X99.739 Y85.666 
X101.065 Y84.422 
X102.224 Y83.019 
X102.439 Y82.679 
G03 X101.652 Y82.12 I1.356 J-2.742 
G01 X92.415 Y72.883 
G02 X88.483 Y75.969 I-1.907 J1.617 
G01 X88.71 Y76.243 
X98.12 Y85.652 
G03 X98.678 Y86.437 I-2.183 J2.142 
G01 X97.5 Y87.774 
X97.5 Y88.87 
X99.071 Y88.006 
X100.697 Y86.825 
X102.161 Y85.451 
X103.441 Y83.902 
X104.517 Y82.206 
X104.85 Y81.5 
X103.774 Y81.5 
G03 X102.713 Y81.06 I0.001 J-1.503 
G01 X93.465 Y71.812 
G02 X87.265 Y76.849 I-2.962 J2.688 
G01 X87.6 Y77.254 
X97.06 Y86.713 
G03 X97.5 Y87.774 I-1.063 J1.062 
G00 Z5
X141 Y37 S7000 M03
Z2
G01 Z-2.75 F100
X141 Y23 F300
X139 Y23 
X139 Y37 
X141 Y37 
X142.5 Y38.5 
X142.5 Y21.5 
X137.5 Y21.5 
X137.5 Y38.5 
X142.5 Y38.5 
G00 Z5
X141 Y37
Z-0.75
G01 Z-5.5 F100
X141 Y23 F300
X139 Y23 
X139 Y37 
X141 Y37 
X142.5 Y38.5 
X142.5 Y21.5 
X137.5 Y21.5 
X137.5 Y38.5 
X142.5 Y38.5 
G00 Z5
X196.5 Y53.5 S7000 M03
Z2
G01 Z-2.75 F100
G02 X196.478 Y51.927 I-14.275 J-0.587 F300
X193.53 Y51.828 I-1.478 J0.072 
X193.5 Y53.5 I44.97 J1.643 
G01 X196.5 Y53.5 
X198 Y55 
X198 Y52.287 
G02 X197.88 Y51.236 I-4.228 J-0.049 
X192.02 Y52.144 I-2.882 J0.761 
G03 X192 Y52.472 I-6.733 J-0.245 
G01 X192 Y55 
X198 Y55 
X199.5 Y56.5 
X199.5 Y52.238 
X199.447 Y51.434 
G02 X190.522 Y52.077 I-4.445 J0.559 
G01 X190.5 Y52.425 
X190.5 Y56.5 
X199.5 Y56.5 
X201 Y58 
X201 Y52.19 
X200.939 Y51.248 
G02 X189.027 Y51.589 I-5.939 J0.75 
G03 X189 Y52.378 I-6.762 J0.163 
G01 X189 Y58 
X201 Y58 
X202.519 Y59.5 
G03 X202.5 Y59 I10.01 J-0.63 
G01 X202.5 Y52.142 
X202.43 Y51.06 
X202.255 Y50.135 
X201.963 Y49.242 
X201.562 Y48.389 
X201.058 Y47.594 
X200.46 Y46.869 
X199.775 Y46.228 
X199.012 Y45.672 
X198.189 Y45.22 
X197.314 Y44.874 
X196.404 Y44.641 
X195.458 Y44.522 
G02 X191.389 Y45.435 I-0.433 J7.59 
G01 X190.594 Y45.939 
X189.869 Y46.537 
X189.228 Y47.222 
X188.672 Y47.985 
X188.22 Y48.808 
X187.874 Y49.683 
X187.641 Y50.593 
X187.527 Y51.497 
G03 X187.5 Y52.328 I-5.753 J0.228 
G01 X187.5 Y59 
G03 X187.477 Y59.5 I-12.057 J-0.304 
G01 X202.519 Y59.5 
X204.262 Y61 
G03 X204 Y59 I7.456 J-1.994 
G01 X204 Y52.094 
X203.921 Y50.872 
X203.711 Y49.762 
X203.361 Y48.689 
X202.88 Y47.666 
X202.275 Y46.712 
X201.556 Y45.841 
X200.733 Y45.07 
X199.818 Y44.404 
X198.829 Y43.861 
X197.779 Y43.445 
X196.685 Y43.165 
X195.563 Y43.024 
G02 X192.762 Y43.287 I-0.482 J9.907 
G01 X191.689 Y43.637 
X190.666 Y44.118 
X189.712 Y44.723 
X188.841 Y45.442 
X188.07 Y46.265 
X187.404 Y47.18 
X186.861 Y48.169 
X186.445 Y49.219 
X186.165 Y50.313 
X186.026 Y51.414 
G03 X186 Y52.273 I-4.854 J0.282 
G01 X186 Y59 
G03 X185.735 Y61 I-7.937 J-0.034 
G01 X204.262 Y61 
X206.534 Y62.5 
G03 X205.5 Y59 I5.411 J-3.501 
G01 X205.5 Y52.047 
X205.413 Y50.684 
X205.167 Y49.389 
X204.759 Y48.136 
X204.198 Y46.943 
X203.492 Y45.83 
X202.652 Y44.813 
X201.691 Y43.912 
X200.624 Y43.136 
X199.469 Y42.501 
X198.243 Y42.016 
X196.967 Y41.689 
X195.658 Y41.524 
X195 Y41.524 
X194.88 Y41.51 
X193.684 Y41.586 
X192.389 Y41.832 
X191.136 Y42.24 
X189.943 Y42.801 
X188.83 Y43.507 
X187.813 Y44.347 
X186.912 Y45.308 
X186.136 Y46.375 
X185.501 Y47.53 
X185.016 Y48.756 
X184.689 Y50.032 
X184.524 Y51.341 
G03 X184.5 Y52.213 I-3.881 J0.329 
G01 X184.5 Y59 
G03 X183.465 Y62.5 I-6.458 J-0.006 
G01 X206.534 Y62.5 
G00 Z5
X196.5 Y53.5
Z-0.75
G01 Z-5.5 F100
G02 X196.478 Y51.927 I-14.275 J-0.587 F300
X193.53 Y51.828 I-1.478 J0.072 
X193.5 Y53.5 I44.97 J1.643 
G01 X196.5 Y53.5 
X198 Y55 
X198 Y52.287 
G02 X197.88 Y51.236 I-4.228 J-0.049 
X192.02 Y52.144 I-2.882 J0.761 
G03 X192 Y52.472 I-6.733 J-0.245 
G01 X192 Y55 
X198 Y55 
X199.5 Y56.5 
X199.5 Y52.238 
X199.447 Y51.434 
G02 X190.522 Y52.077 I-4.445 J0.559 
G01 X190.5 Y52.425 
X190.5 Y56.5 
X199.5 Y56.5 
X201 Y58 
X201 Y52.19 
X200.939 Y51.248 
G02 X189.027 Y51.589 I-5.939 J0.75 
G03 X189 Y52.378 I-6.762 J0.163 
G01 X189 Y58 
X201 Y58 
X202.519 Y59.5 
G03 X202.5 Y59 I10.01 J-0.63 
G01 X202.5 Y52.142 
X202.43 Y51.06 
X202.255 Y50.135 
X201.963 Y49.242 
X201.562 Y48.389 
X201.058 Y47.594 
X200.46 Y46.869 
X199.775 Y46.228 
X199.012 Y45.672 
X198.189 Y45.22 
X197.314 Y44.874 
X196.404 Y44.641 
X195.458 Y44.522 
G02 X191.389 Y45.435 I-0.433 J7.59 
G01 X190.594 Y45.939 
X189.869 Y46.537 
X189.228 Y47.222 
X188.672 Y47.985 
X188.22 Y48.808 
X187.874 Y49.683 
X187.641 Y50.593 
X187.527 Y51.497 
G03 X187.5 Y52.328 I-5.753 J0.228 
G01 X187.5 Y59 
G03 X187.477 Y59.5 I-12.057 J-0.304 
G01 X202.519 Y59.5 
X204.262 Y61 
G03 X204 Y59 I7.456 J-1.994 
G01 X204 Y52.094 
X203.921 Y50.872 
X203.711 Y49.762 
X203.361 Y48.689 
X202.88 Y47.666 
X202.275 Y46.712 
X201.556 Y45.841 
X200.733 Y45.07 
X199.818 Y44.404 
X198.829 Y43.861 
X197.779 Y43.445 
X196.685 Y43.165 
X195.563 Y43.024 
G02 X192.762 Y43.287 I-0.482 J9.907 
G01 X191.689 Y43.637 
X190.666 Y44.118 
X189.712 Y44.723 
X188.841 Y45.442 
X188.07 Y46.265 
X187.404 Y47.18 
X186.861 Y48.169 
X186.445 Y49.219 
X186.165 Y50.313 
X186.026 Y51.414 
G03 X186 Y52.273 I-4.854 J0.282 
G01 X186 Y59 
G03 X185.735 Y61 I-7.937 J-0.034 
G01 X204.262 Y61 
X206.534 Y62.5 
G03 X205.5 Y59 I5.411 J-3.501 
G01 X205.5 Y52.047 
X205.413 Y50.684 
X205.167 Y49.389 
X204.759 Y48.136 
X204.198 Y46.943 
X203.492 Y45.83 
X202.652 Y44.813 
X201.691 Y43.912 
X200.624 Y43.136 
X199.469 Y42.501 
X198.243 Y42.016 
X196.967 Y41.689 
X195.658 Y41.524 
X195 Y41.524 
X194.88 Y41.51 
X193.684 Y41.586 
X192.389 Y41.832 
X191.136 Y42.24 
X189.943 Y42.801 
X188.83 Y43.507 
X187.813 Y44.347 
X186.912 Y45.308 
X186.136 Y46.375 
X185.501 Y47.53 
X185.016 Y48.756 
X184.689 Y50.032 
X184.524 Y51.341 
G03 X184.5 Y52.213 I-3.881 J0.329 
G01 X184.5 Y59 
G03 X183.465 Y62.5 I-6.458 J-0.006 
G01 X206.534 Y62.5 
G00 Z5
X194.911 Y78.488 S7000 M03
Z2
G01 Z-2.75 F100
X195.214 Y78.477 F300
G03 X194.994 Y77.803 I6.641 J-2.54 
X194.77 Y78.478 I-4.402 J-1.086 
G01 X194.911 Y78.488 
X194.884 Y79.991 
G02 X197.325 Y79.468 I0.119 J-5.402 
G03 X196.049 Y75.465 I8.671 J-4.968 
G01 X195.983 Y74.394 
G02 X194.017 Y74.378 I-0.983 J0.105 
G03 X192.736 Y79.348 I-10.386 J-0.026 
G01 X192.665 Y79.465 
G02 X194.884 Y79.991 I2.327 J-4.876 
G01 X195.438 Y81.48 
G02 X197.16 Y81.151 I-0.454 J-7.047 
X198.746 Y80.405 I-2.165 J-6.661 
G01 X199.44 Y79.9 
G03 X197.547 Y75.374 I6.539 J-5.394 
G01 X197.474 Y74.192 
G02 X192.524 Y74.19 I-2.475 J0.308 
G03 X192.434 Y75.523 I-12.647 J-0.184 
X190.557 Y79.899 I-8.431 J-1.026 
G01 X191.252 Y80.405 
G02 X193.688 Y81.369 I3.743 J-5.899 
X195.438 Y81.48 I1.311 J-6.818 
G01 X195.533 Y82.98 
X196.592 Y82.846 
X197.625 Y82.581 
X198.617 Y82.188 
X199.552 Y81.674 
X200.416 Y81.046 
X201.194 Y80.316 
X201.543 Y79.894 
G03 X199.045 Y75.282 I4.45 J-5.392 
G01 X198.965 Y73.999 
G02 X191.034 Y73.999 I-3.965 J0.501 
G01 X190.954 Y75.282 
G03 X188.456 Y79.894 I-6.95 J-0.782 
G01 X188.805 Y80.316 
X189.583 Y81.046 
X190.447 Y81.674 
X191.382 Y82.188 
X192.374 Y82.581 
X193.407 Y82.846 
X194.466 Y82.98 
X195.533 Y82.98 
G00 Z5
X194.911 Y78.488
Z-0.75
G01 Z-5.5 F100
X195.214 Y78.477 F300
G03 X194.994 Y77.803 I6.641 J-2.54 
X194.77 Y78.478 I-4.402 J-1.086 
G01 X194.911 Y78.488 
X194.884 Y79.991 
G02 X197.325 Y79.468 I0.119 J-5.402 
G03 X196.049 Y75.465 I8.671 J-4.968 
G01 X195.983 Y74.394 
G02 X194.017 Y74.378 I-0.983 J0.105 
G03 X192.736 Y79.348 I-10.386 J-0.026 
G01 X192.665 Y79.465 
G02 X194.884 Y79.991 I2.327 J-4.876 
G01 X195.438 Y81.48 
G02 X197.16 Y81.151 I-0.454 J-7.047 
X198.746 Y80.405 I-2.165 J-6.661 
G01 X199.44 Y79.9 
G03 X197.547 Y75.374 I6.539 J-5.394 
G01 X197.474 Y74.192 
G02 X192.524 Y74.19 I-2.475 J0.308 
G03 X192.434 Y75.523 I-12.647 J-0.184 
X190.557 Y79.899 I-8.431 J-1.026 
G01 X191.252 Y80.405 
G02 X193.688 Y81.369 I3.743 J-5.899 
X195.438 Y81.48 I1.311 J-6.818 
G01 X195.533 Y82.98 
X196.592 Y82.846 
X197.625 Y82.581 
X198.617 Y82.188 
X199.552 Y81.674 
X200.416 Y81.046 
X201.194 Y80.316 
X201.543 Y79.894 
G03 X199.045 Y75.282 I4.45 J-5.392 
G01 X198.965 Y73.999 
G02 X191.034 Y73.999 I-3.965 J0.501 
G01 X190.954 Y75.282 
G03 X188.456 Y79.894 I-6.95 J-0.782 
G01 X188.805 Y80.316 
X189.583 Y81.046 
X190.447 Y81.674 
X191.382 Y82.188 
X192.374 Y82.581 
X193.407 Y82.846 
X194.466 Y82.98 
X195.533 Y82.98 
G00 Z5
X251 Y37 S7000 M03
Z2
G01 Z-2.75 F100
X251 Y23 F300
X249 Y23 
X249 Y37 
X251 Y37 
X252.5 Y38.5 
X252.5 Y21.5 
X247.5 Y21.5 
X247.5 Y38.5 
X252.5 Y38.5 
G00 Z5
X251 Y37
Z-0.75
G01 Z-5.5 F100
X251 Y23 F300
X249 Y23 
X249 Y37 
X251 Y37 
X252.5 Y38.5 
X252.5 Y21.5 
X247.5 Y21.5 
X247.5 Y38.5 
X252.5 Y38.5 
G00 Z5
X291.053 Y84.354 S7000 M03
Z2
G01 Z-2.75 F100
X300.169 Y75.238 F300
G02 X298.851 Y73.748 I-0.673 J-0.732 
G01 X298.624 Y73.962 
X289.651 Y82.936 
X290.028 Y83.393 
X291.053 Y84.354 
X291.319 Y86.436 
G03 X291.878 Y85.651 I2.768 J1.379 
G01 X301.286 Y76.243 
G02 X297.906 Y72.579 I-1.788 J-1.741 
G01 X297.579 Y72.887 
X288.346 Y82.12 
G03 X287.558 Y82.679 I-2.139 J-2.181 
G01 X287.774 Y83.019 
X288.933 Y84.422 
X290.259 Y85.666 
X291.319 Y86.436 
X292.5 Y88.87 
X292.5 Y87.774 
G03 X292.939 Y86.713 I1.496 J-0.002 
G01 X302.398 Y77.253 
G02 X296.952 Y71.419 I-2.898 J-2.752 
G01 X296.535 Y71.811 
X287.286 Y81.06 
G03 X286.226 Y81.5 I-1.062 J-1.063 
G01 X285.149 Y81.5 
X285.482 Y82.206 
X286.558 Y83.902 
X287.838 Y85.451 
X289.302 Y86.825 
X290.928 Y88.006 
X292.5 Y88.87 
G00 Z5
X291.053 Y84.354
Z-0.75
G01 Z-5.5 F100
X300.169 Y75.238 F300
G02 X298.851 Y73.748 I-0.673 J-0.732 
G01 X298.624 Y73.962 
X289.651 Y82.936 
X290.028 Y83.393 
X291.053 Y84.354 
X291.319 Y86.436 
G03 X291.878 Y85.651 I2.768 J1.379 
G01 X301.286 Y76.243 
G02 X297.906 Y72.579 I-1.788 J-1.741 
G01 X297.579 Y72.887 
X288.346 Y82.12 
G03 X287.558 Y82.679 I-2.139 J-2.181 
G01 X287.774 Y83.019 
X288.933 Y84.422 
X290.259 Y85.666 
X291.319 Y86.436 
X292.5 Y88.87 
X292.5 Y87.774 
G03 X292.939 Y86.713 I1.496 J-0.002 
G01 X302.398 Y77.253 
G02 X296.952 Y71.419 I-2.898 J-2.752 
G01 X296.535 Y71.811 
X287.286 Y81.06 
G03 X286.226 Y81.5 I-1.062 J-1.063 
G01 X285.149 Y81.5 
X285.482 Y82.206 
X286.558 Y83.902 
X287.838 Y85.451 
X289.302 Y86.825 
X290.928 Y88.006 
X292.5 Y88.87 
G00 Z5
X295.519 Y179.212 S7000 M03
Z2
G01 Z-2.75 F100
G03 X296.177 Y178.998 I2.904 J7.81 F300
X295.52 Y178.781 I1.702 J-6.257 
G02 X295.519 Y179.212 I2.013 J0.22 
G01 X294.525 Y181.327 
G03 X298.53 Y180.049 I4.958 J8.625 
G01 X299.602 Y179.983 
G02 X299.604 Y178.014 I-0.105 J-0.984 
G03 X297.58 Y177.808 I0.169 J-11.712 
X294.526 Y176.668 I1.915 J-9.793 
G02 X294.525 Y181.327 I4.962 J2.33 
G01 X294.107 Y183.432 
G03 X298.623 Y181.547 I5.389 J6.559 
G01 X299.806 Y181.474 
G02 X299.806 Y176.524 I-0.306 J-2.475 
G01 X298.623 Y176.451 
G03 X294.108 Y174.565 I0.878 J-8.45 
G01 X293.841 Y174.888 
G02 X292.724 Y177.259 I5.693 J4.13 
X292.505 Y178.999 I6.949 J1.758 
X292.724 Y180.739 I7.168 J-0.018 
X293.841 Y183.11 I6.81 J-1.76 
G01 X294.107 Y183.432 
X294.095 Y185.555 
G03 X298.717 Y183.045 I5.403 J4.438 
G01 X300 Y182.965 
G02 X300 Y175.034 I-0.499 J-3.965 
G01 X298.717 Y174.954 
G03 X294.095 Y172.444 I0.782 J-6.951 
G01 X294.083 Y172.453 
X293.305 Y173.183 
X292.625 Y174.005 
X292.054 Y174.906 
X291.599 Y175.872 
X291.269 Y176.886 
X291.07 Y177.935 
X291.002 Y178.999 
X291.07 Y180.064 
X291.269 Y181.113 
X291.599 Y182.127 
X292.054 Y183.093 
X292.625 Y183.994 
X293.305 Y184.816 
X294.083 Y185.546 
X294.095 Y185.555 
G00 Z5
X295.519 Y179.212
Z-0.75
G01 Z-5.5 F100
G03 X296.177 Y178.998 I2.904 J7.81 F300
X295.52 Y178.781 I1.702 J-6.257 
G02 X295.519 Y179.212 I2.013 J0.22 
G01 X294.525 Y181.327 
G03 X298.53 Y180.049 I4.958 J8.625 
G01 X299.602 Y179.983 
G02 X299.604 Y178.014 I-0.105 J-0.984 
G03 X297.58 Y177.808 I0.169 J-11.712 
X294.526 Y176.668 I1.915 J-9.793 
G02 X294.525 Y181.327 I4.962 J2.33 
G01 X294.107 Y183.432 
G03 X298.623 Y181.547 I5.389 J6.559 
G01 X299.806 Y181.474 
G02 X299.806 Y176.524 I-0.306 J-2.475 
G01 X298.623 Y176.451 
G03 X294.108 Y174.565 I0.878 J-8.45 
G01 X293.841 Y174.888 
G02 X292.724 Y177.259 I5.693 J4.13 
X292.505 Y178.999 I6.949 J1.758 
X292.724 Y180.739 I7.168 J-0.018 
X293.841 Y183.11 I6.81 J-1.76 
G01 X294.107 Y183.432 
X294.095 Y185.555 
G03 X298.717 Y183.045 I5.403 J4.438 
G01 X300 Y182.965 
G02 X300 Y175.034 I-0.499 J-3.965 
G01 X298.717 Y174.954 
G03 X294.095 Y172.444 I0.782 J-6.951 
G01 X294.083 Y172.453 
X293.305 Y173.183 
X292.625 Y174.005 
X292.054 Y174.906 
X291.599 Y175.872 
X291.269 Y176.886 
X291.07 Y177.935 
X291.002 Y178.999 
X291.07 Y180.064 
X291.269 Y181.113 
X291.599 Y182.127 
X292.054 Y183.093 
X292.625 Y183.994 
X293.305 Y184.816 
X294.083 Y185.546 
X294.095 Y185.555 
G00 Z5
X299.553 Y284.485 S7000 M03
Z2
G01 Z-2.75 F100
G02 X300.172 Y282.763 I-0.062 J-0.994 F300
G01 X291.053 Y273.643 
X290.028 Y274.604 
X289.651 Y275.061 
X298.643 Y284.053 
G02 X299.553 Y284.485 I0.869 J-0.657 
G01 X299.655 Y285.988 
G02 X301.288 Y281.757 I-0.159 J-2.492 
G01 X291.878 Y272.346 
G03 X291.32 Y271.562 I2.196 J-2.153 
G01 X290.259 Y272.332 
X288.933 Y273.576 
X287.774 Y274.979 
X287.559 Y275.318 
G03 X288.346 Y275.878 I-1.377 J2.769 
G01 X297.586 Y285.117 
G02 X299.655 Y285.988 I1.919 J-1.667 
G01 X299.751 Y287.489 
G02 X302.398 Y280.746 I-0.251 J-3.989 
G01 X292.939 Y271.286 
G03 X292.5 Y270.226 I1.057 J-1.058 
G01 X292.5 Y269.129 
X290.928 Y269.993 
X289.302 Y271.174 
X287.838 Y272.548 
X286.558 Y274.097 
X285.482 Y275.793 
X285.149 Y276.5 
X286.226 Y276.5 
G03 X287.286 Y276.939 I0.001 J1.496 
G01 X296.535 Y286.188 
G02 X299.751 Y287.489 I2.967 J-2.71 
G00 Z5
X299.553 Y284.485
Z-0.75
G01 Z-5.5 F100
G02 X300.172 Y282.763 I-0.062 J-0.994 F300
G01 X291.053 Y273.643 
X290.028 Y274.604 
X289.651 Y275.061 
X298.643 Y284.053 
G02 X299.553 Y284.485 I0.869 J-0.657 
G01 X299.655 Y285.988 
G02 X301.288 Y281.757 I-0.159 J-2.492 
G01 X291.878 Y272.346 
G03 X291.32 Y271.562 I2.196 J-2.153 
G01 X290.259 Y272.332 
X288.933 Y273.576 
X287.774 Y274.979 
X287.559 Y275.318 
G03 X288.346 Y275.878 I-1.377 J2.769 
G01 X297.586 Y285.117 
G02 X299.655 Y285.988 I1.919 J-1.667 
G01 X299.751 Y287.489 
G02 X302.398 Y280.746 I-0.251 J-3.989 
G01 X292.939 Y271.286 
G03 X292.5 Y270.226 I1.057 J-1.058 
G01 X292.5 Y269.129 
X290.928 Y269.993 
X289.302 Y271.174 
X287.838 Y272.548 
X286.558 Y274.097 
X285.482 Y275.793 
X285.149 Y276.5 
X286.226 Y276.5 
G03 X287.286 Y276.939 I0.001 J1.496 
G01 X296.535 Y286.188 
G02 X299.751 Y287.489 I2.967 J-2.71 
G00 Z5
X251 Y417 S7000 M03
Z2
G01 Z-2.75 F100
X251 Y403 F300
X249 Y403 
X249 Y417 
X251 Y417 
X252.5 Y418.5 
X252.5 Y401.5 
X247.5 Y401.5 
X247.5 Y418.5 
X252.5 Y418.5 
G00 Z5
X251 Y417
Z-0.75
G01 Z-5.5 F100
X251 Y403 F300
X249 Y403 
X249 Y417 
X251 Y417 
X252.5 Y418.5 
X252.5 Y401.5 
X247.5 Y401.5 
X247.5 Y418.5 
X252.5 Y418.5 
G00 Z5
X195.626 Y382.725 S7000 M03
Z2
G01 Z-2.75 F100
G03 X197.134 Y377.5 I13.24 J0.991 F300
G01 X193.171 Y377.5 
G03 X195.626 Y382.725 I-16.083 J10.746 
G01 X195.014 Y387.934 
G03 X197.266 Y385.998 I18.515 J19.26 
G02 X197.264 Y385.893 I-0.139 J-0.049 
G03 X199.934 Y376 I11.876 J-2.101 
G01 X190.108 Y376 
G03 X194.897 Y386.827 I-13.456 J12.424 
X195.014 Y387.934 I-11.668 J1.792 
G01 X194.935 Y389.475 
G02 X195.906 Y389.157 I0.061 J-1.452 
G03 X198.094 Y387.27 I14.719 J14.855 
G02 X198.761 Y385.761 I-0.854 J-1.279 
G03 X202.129 Y375.875 I10.45 J-1.956 
X203.866 Y374.5 I9.322 J9.992 
G01 X186.111 Y374.5 
G03 X193.409 Y387.012 I-9.533 J13.945 
X193.529 Y388.173 I-11.529 J1.778 
G02 X194.935 Y389.475 I1.469 J-0.176 
G01 X194.865 Y390.978 
G02 X196.856 Y390.324 I0.133 J-2.95 
G03 X199.051 Y388.426 I14.596 J14.662 
G02 X200.248 Y386.476 I-1.83 J-2.466 
X200.17 Y385.138 I-3.489 J-0.467 
G03 X203.105 Y377.016 I9.066 J-1.314 
X210.997 Y373.22 I10.28 J11.271 
G01 X210.997 Y373 
X179 Y373 
X179 Y373.225 
G03 X191.921 Y387.197 I-2.455 J15.231 
X192.041 Y388.382 I-10.488 J1.66 
G02 X194.865 Y390.978 I2.958 J-0.383 
G01 X194.796 Y392.48 
G02 X197.817 Y391.482 I0.204 J-4.451 
G03 X200.012 Y389.58 I14.073 J14.023 
G02 X201.133 Y388.332 I-2.952 J-3.779 
X201.662 Y384.983 I-3.729 J-2.305 
G03 X204.078 Y378.159 I7.571 J-1.158 
X212.497 Y374.552 I9.346 J10.185 
G01 X212.497 Y371.5 
X177.5 Y371.5 
X177.5 Y374.555 
G03 X190.433 Y387.381 I-0.967 J13.909 
X190.551 Y388.578 I-9.462 J1.537 
G02 X194.796 Y392.48 I4.448 J-0.578 
G01 X195.371 Y393.976 
G02 X198.787 Y392.632 I-0.369 J-5.951 
G03 X200.981 Y390.727 I13.699 J13.561 
G01 X201.615 Y390.15 
G02 X203.259 Y385.357 I-4.299 J-4.153 
G03 X203.535 Y381.463 I6.278 J-1.511 
X205.134 Y379.227 I5.624 J2.332 
X213.998 Y376.022 I8.328 J9.173 
G01 X213.998 Y370 
X176 Y370 
X176 Y376.022 
G03 X188.944 Y387.563 I0.515 J12.451 
X189.06 Y388.762 I-8.83 J1.459 
G02 X195.371 Y393.976 I5.94 J-0.763 
G01 X195.467 Y395.476 
X196.403 Y395.356 
X197.314 Y395.123 
X198.189 Y394.777 
X199.012 Y394.325 
X199.756 Y393.783 
G03 X201.95 Y391.875 I13.1 J12.848 
G01 X202.696 Y391.195 
X203.305 Y390.479 
X203.821 Y389.692 
X204.233 Y388.848 
X204.535 Y387.958 
X204.724 Y387.034 
X204.798 Y386.096 
X204.752 Y385.169 
G03 X204.624 Y383.118 I5.419 J-1.367 
X206.1 Y380.377 I4.487 J0.648 
X215.499 Y377.692 I7.386 J8.064 
G01 X215.499 Y368.5 
X174.5 Y368.5 
X174.5 Y377.689 
G03 X187.455 Y387.745 I2.004 J10.791 
X187.568 Y388.945 I-7.888 J1.348 
G01 X187.742 Y389.861 
X188.034 Y390.755 
X188.435 Y391.608 
X188.939 Y392.403 
X189.537 Y393.128 
X190.222 Y393.769 
X190.985 Y394.325 
X191.808 Y394.777 
X192.683 Y395.123 
X193.594 Y395.356 
X194.53 Y395.476 
X195.467 Y395.476 
X195.563 Y396.976 
X196.685 Y396.833 
X197.779 Y396.553 
X198.829 Y396.137 
X199.818 Y395.594 
X200.726 Y394.933 
G03 X202.918 Y393.024 I12.55 J12.197 
G01 X203.777 Y392.24 
X204.509 Y391.38 
X205.128 Y390.435 
X205.623 Y389.421 
X205.986 Y388.352 
X206.213 Y387.244 
X206.301 Y386.118 
X206.245 Y384.99 
G03 X206.078 Y383.836 I6.401 J-1.515 
X207.072 Y381.522 I3.006 J-0.079 
X217 Y379.673 I6.43 J6.947 
G01 X217 Y367 
X173 Y367 
X173 Y379.671 
G03 X185.966 Y387.923 I3.499 J8.814 
X186.076 Y389.125 I-7.199 J1.264 
G01 X186.287 Y390.236 
X186.637 Y391.309 
X187.118 Y392.332 
X187.723 Y393.286 
X188.442 Y394.157 
X189.265 Y394.928 
X190.18 Y395.594 
X191.169 Y396.137 
X192.219 Y396.553 
X193.313 Y396.833 
X194.435 Y396.976 
X195.563 Y396.976 
X195.658 Y398.476 
X196.967 Y398.31 
X198.243 Y397.983 
X199.469 Y397.498 
X200.624 Y396.863 
X201.691 Y396.087 
G03 X203.186 Y394.711 I18.681 J18.797 
X203.883 Y394.175 I7.682 J9.268 
G01 X204.858 Y393.285 
X205.713 Y392.281 
X206.435 Y391.178 
X207.013 Y389.994 
X207.437 Y388.746 
X207.702 Y387.454 
X207.804 Y386.14 
X207.739 Y384.823 
X207.597 Y384.016 
G03 X208.047 Y382.663 I1.478 J-0.259 
X218.5 Y382.26 I5.458 J5.814 
G01 X218.5 Y365.5 
X171.5 Y365.5 
X171.5 Y382.26 
G03 X184.479 Y388.123 I5 J6.228 
G01 X184.527 Y388.404 
X184.586 Y389.315 
X184.832 Y390.61 
X185.24 Y391.863 
X185.801 Y393.056 
X186.507 Y394.169 
X187.347 Y395.186 
X188.308 Y396.087 
X189.375 Y396.863 
X190.53 Y397.498 
X191.756 Y397.983 
X193.032 Y398.31 
X194.341 Y398.476 
X195.658 Y398.476 
G00 Z5
X195.626 Y382.725
Z-0.75
G01 Z-5.5 F100
G03 X197.134 Y377.5 I13.24 J0.991 F300
G01 X193.171 Y377.5 
G03 X195.626 Y382.725 I-16.083 J10.746 
G01 X195.014 Y387.934 
G03 X197.266 Y385.998 I18.515 J19.26 
G02 X197.264 Y385.893 I-0.139 J-0.049 
G03 X199.934 Y376 I11.876 J-2.101 
G01 X190.108 Y376 
G03 X194.897 Y386.827 I-13.456 J12.424 
X195.014 Y387.934 I-11.668 J1.792 
G01 X194.935 Y389.475 
G02 X195.906 Y389.157 I0.061 J-1.452 
G03 X198.094 Y387.27 I14.719 J14.855 
G02 X198.761 Y385.761 I-0.854 J-1.279 
G03 X202.129 Y375.875 I10.45 J-1.956 
X203.866 Y374.5 I9.322 J9.992 
G01 X186.111 Y374.5 
G03 X193.409 Y387.012 I-9.533 J13.945 
X193.529 Y388.173 I-11.529 J1.778 
G02 X194.935 Y389.475 I1.469 J-0.176 
G01 X194.865 Y390.978 
G02 X196.856 Y390.324 I0.133 J-2.95 
G03 X199.051 Y388.426 I14.596 J14.662 
G02 X200.248 Y386.476 I-1.83 J-2.466 
X200.17 Y385.138 I-3.489 J-0.467 
G03 X203.105 Y377.016 I9.066 J-1.314 
X210.997 Y373.22 I10.28 J11.271 
G01 X210.997 Y373 
X179 Y373 
X179 Y373.225 
G03 X191.921 Y387.197 I-2.455 J15.231 
X192.041 Y388.382 I-10.488 J1.66 
G02 X194.865 Y390.978 I2.958 J-0.383 
G01 X194.796 Y392.48 
G02 X197.817 Y391.482 I0.204 J-4.451 
G03 X200.012 Y389.58 I14.073 J14.023 
G02 X201.133 Y388.332 I-2.952 J-3.779 
X201.662 Y384.983 I-3.729 J-2.305 
G03 X204.078 Y378.159 I7.571 J-1.158 
X212.497 Y374.552 I9.346 J10.185 
G01 X212.497 Y371.5 
X177.5 Y371.5 
X177.5 Y374.555 
G03 X190.433 Y387.381 I-0.967 J13.909 
X190.551 Y388.578 I-9.462 J1.537 
G02 X194.796 Y392.48 I4.448 J-0.578 
G01 X195.371 Y393.976 
G02 X198.787 Y392.632 I-0.369 J-5.951 
G03 X200.981 Y390.727 I13.699 J13.561 
G01 X201.615 Y390.15 
G02 X203.259 Y385.357 I-4.299 J-4.153 
G03 X203.535 Y381.463 I6.278 J-1.511 
X205.134 Y379.227 I5.624 J2.332 
X213.998 Y376.022 I8.328 J9.173 
G01 X213.998 Y370 
X176 Y370 
X176 Y376.022 
G03 X188.944 Y387.563 I0.515 J12.451 
X189.06 Y388.762 I-8.83 J1.459 
G02 X195.371 Y393.976 I5.94 J-0.763 
G01 X195.467 Y395.476 
X196.403 Y395.356 
X197.314 Y395.123 
X198.189 Y394.777 
X199.012 Y394.325 
X199.756 Y393.783 
G03 X201.95 Y391.875 I13.1 J12.848 
G01 X202.696 Y391.195 
X203.305 Y390.479 
X203.821 Y389.692 
X204.233 Y388.848 
X204.535 Y387.958 
X204.724 Y387.034 
X204.798 Y386.096 
X204.752 Y385.169 
G03 X204.624 Y383.118 I5.419 J-1.367 
X206.1 Y380.377 I4.487 J0.648 
X215.499 Y377.692 I7.386 J8.064 
G01 X215.499 Y368.5 
X174.5 Y368.5 
X174.5 Y377.689 
G03 X187.455 Y387.745 I2.004 J10.791 
X187.568 Y388.945 I-7.888 J1.348 
G01 X187.742 Y389.861 
X188.034 Y390.755 
X188.435 Y391.608 
X188.939 Y392.403 
X189.537 Y393.128 
X190.222 Y393.769 
X190.985 Y394.325 
X191.808 Y394.777 
X192.683 Y395.123 
X193.594 Y395.356 
X194.53 Y395.476 
X195.467 Y395.476 
X195.563 Y396.976 
X196.685 Y396.833 
X197.779 Y396.553 
X198.829 Y396.137 
X199.818 Y395.594 
X200.726 Y394.933 
G03 X202.918 Y393.024 I12.55 J12.197 
G01 X203.777 Y392.24 
X204.509 Y391.38 
X205.128 Y390.435 
X205.623 Y389.421 
X205.986 Y388.352 
X206.213 Y387.244 
X206.301 Y386.118 
X206.245 Y384.99 
G03 X206.078 Y383.836 I6.401 J-1.515 
X207.072 Y381.522 I3.006 J-0.079 
X217 Y379.673 I6.43 J6.947 
G01 X217 Y367 
X173 Y367 
X173 Y379.671 
G03 X185.966 Y387.923 I3.499 J8.814 
X186.076 Y389.125 I-7.199 J1.264 
G01 X186.287 Y390.236 
X186.637 Y391.309 
X187.118 Y392.332 
X187.723 Y393.286 
X188.442 Y394.157 
X189.265 Y394.928 
X190.18 Y395.594 
X191.169 Y396.137 
X192.219 Y396.553 
X193.313 Y396.833 
X194.435 Y396.976 
X195.563 Y396.976 
X195.658 Y398.476 
X196.967 Y398.31 
X198.243 Y397.983 
X199.469 Y397.498 
X200.624 Y396.863 
X201.691 Y396.087 
G03 X203.186 Y394.711 I18.681 J18.797 
X203.883 Y394.175 I7.682 J9.268 
G01 X204.858 Y393.285 
X205.713 Y392.281 
X206.435 Y391.178 
X207.013 Y389.994 
X207.437 Y388.746 
X207.702 Y387.454 
X207.804 Y386.14 
X207.739 Y384.823 
X207.597 Y384.016 
G03 X208.047 Y382.663 I1.478 J-0.259 
X218.5 Y382.26 I5.458 J5.814 
G01 X218.5 Y365.5 
X171.5 Y365.5 
X171.5 Y382.26 
G03 X184.479 Y388.123 I5 J6.228 
G01 X184.527 Y388.404 
X184.586 Y389.315 
X184.832 Y390.61 
X185.24 Y391.863 
X185.801 Y393.056 
X186.507 Y394.169 
X187.347 Y395.186 
X188.308 Y396.087 
X189.375 Y396.863 
X190.53 Y397.498 
X191.756 Y397.983 
X193.032 Y398.31 
X194.341 Y398.476 
X195.658 Y398.476 
G00 Z5
X141 Y417 S7000 M03
Z2
G01 Z-2.75 F100
X141 Y403 F300
X139 Y403 
X139 Y417 
X141 Y417 
X142.5 Y418.5 
X142.5 Y401.5 
X137.5 Y401.5 
X137.5 Y418.5 
X142.5 Y418.5 
G00 Z5
X141 Y417
Z-0.75
G01 Z-5.5 F100
X141 Y403 F300
X139 Y403 
X139 Y417 
X141 Y417 
X142.5 Y418.5 
X142.5 Y401.5 
X137.5 Y401.5 
X137.5 Y418.5 
X142.5 Y418.5 
G00 Z5
X89.5 Y348.902 S7000 M03
Z2
G01 Z-2.75 F100
X89.5 Y350.689 F300
G03 X91.998 Y350.5 I2.492 J16.335 
G01 X98.41 Y350.499 
X98.972 Y350.453 
G02 X98.873 Y349.118 I-0.173 J-0.658 
G01 X98.565 Y349.1 
X92 Y349.1 
G03 X89.5 Y348.902 I0.128 J-17.498 
G01 X88 Y347.078 
X88 Y352.514 
G03 X91.999 Y352 I4.031 J15.552 
G01 X98.472 Y351.999 
G02 X99.266 Y351.934 I-0.531 J-11.378 
X100.974 Y349.576 I-0.47 J-2.138 
X99.078 Y347.628 I-2.176 J0.221 
G01 X98.61 Y347.6 
X92 Y347.6 
G03 X88 Y347.078 I0.123 J-16.534 
G01 X86.5 Y345.012 
X86.5 Y354.585 
G03 X92 Y353.5 I5.54 J13.605 
G01 X98.531 Y353.5 
G03 X99.068 Y353.479 I0.408 J3.568 
G02 X102.475 Y349.547 I-0.263 J-3.67 
X102.426 Y349.12 I-1.413 J-0.054 
X99.273 Y346.138 I-3.623 J0.673 
G01 X98.657 Y346.1 
X92 Y346.1 
G03 X86.5 Y345.012 I0.11 J-15.004 
G01 X85 Y342.53 
X85 Y357.068 
G03 X85.902 Y356.521 I4.666 J6.678 
X87.13 Y355.947 I7.933 J15.372 
X88.858 Y355.387 I5.396 J13.705 
X90.459 Y355.093 I3.55 J14.828 
X92 Y355 I1.806 J17.127 
G01 X98.593 Y355 
G03 X99.153 Y354.981 I0.384 J3.064 
G02 X103.975 Y349.565 I-0.339 J-5.157 
G01 X103.98 Y349.436 
G02 X99.458 Y344.647 I-5.177 J0.359 
G01 X98.704 Y344.6 
X92 Y344.6 
G03 X90.184 Y344.467 I0.037 J-12.982 
X88.858 Y344.211 I3.128 J-19.765 
X87.13 Y343.651 I3.833 J-14.774 
X85.814 Y343.031 I6.317 J-15.115 
X85 Y342.53 I4.515 J-8.248 
G01 X83.5 Y339.319 
X83.5 Y360.28 
G03 X84.198 Y359.553 I6.222 J5.275 
G01 X85.166 Y358.753 
X85.318 Y358.643 
X86.378 Y357.97 
X86.542 Y357.879 
X87.678 Y357.344 
X87.854 Y357.275 
X89.049 Y356.887 
X89.232 Y356.84 
X90.465 Y356.605 
X90.651 Y356.581 
G03 X92 Y356.5 I1.641 J16.061 
G01 X98.657 Y356.5 
G03 X99.22 Y356.484 I0.353 J2.507 
G02 X105.443 Y350.639 I-0.419 J-6.682 
G01 X105.492 Y349.873 
G03 X105.484 Y349.379 I2.249 J-0.283 
G02 X99.639 Y343.156 I-6.682 J0.419 
G01 X98.752 Y343.1 
X92 Y343.1 
G03 X90.651 Y343.018 I0.633 J-21.551 
G01 X90.465 Y342.994 
X89.232 Y342.759 
X89.049 Y342.712 
X87.854 Y342.324 
X87.678 Y342.255 
X86.542 Y341.72 
X86.378 Y341.629 
X85.318 Y340.956 
X85.166 Y340.846 
X84.198 Y340.046 
G03 X83.5 Y339.319 I5.524 J-6.002 
G00 Z5
X89.5 Y348.902
Z-0.75
G01 Z-5.5 F100
X89.5 Y350.689 F300
G03 X91.998 Y350.5 I2.492 J16.335 
G01 X98.41 Y350.499 
X98.972 Y350.453 
G02 X98.873 Y349.118 I-0.173 J-0.658 
G01 X98.565 Y349.1 
X92 Y349.1 
G03 X89.5 Y348.902 I0.128 J-17.498 
G01 X88 Y347.078 
X88 Y352.514 
G03 X91.999 Y352 I4.031 J15.552 
G01 X98.472 Y351.999 
G02 X99.266 Y351.934 I-0.531 J-11.378 
X100.974 Y349.576 I-0.47 J-2.138 
X99.078 Y347.628 I-2.176 J0.221 
G01 X98.61 Y347.6 
X92 Y347.6 
G03 X88 Y347.078 I0.123 J-16.534 
G01 X86.5 Y345.012 
X86.5 Y354.585 
G03 X92 Y353.5 I5.54 J13.605 
G01 X98.531 Y353.5 
G03 X99.068 Y353.479 I0.408 J3.568 
G02 X102.475 Y349.547 I-0.263 J-3.67 
X102.426 Y349.12 I-1.413 J-0.054 
X99.273 Y346.138 I-3.623 J0.673 
G01 X98.657 Y346.1 
X92 Y346.1 
G03 X86.5 Y345.012 I0.11 J-15.004 
G01 X85 Y342.53 
X85 Y357.068 
G03 X85.902 Y356.521 I4.666 J6.678 
X87.13 Y355.947 I7.933 J15.372 
X88.858 Y355.387 I5.396 J13.705 
X90.459 Y355.093 I3.55 J14.828 
X92 Y355 I1.806 J17.127 
G01 X98.593 Y355 
G03 X99.153 Y354.981 I0.384 J3.064 
G02 X103.975 Y349.565 I-0.339 J-5.157 
G01 X103.98 Y349.436 
G02 X99.458 Y344.647 I-5.177 J0.359 
G01 X98.704 Y344.6 
X92 Y344.6 
G03 X90.184 Y344.467 I0.037 J-12.982 
X88.858 Y344.211 I3.128 J-19.765 
X87.13 Y343.651 I3.833 J-14.774 
X85.814 Y343.031 I6.317 J-15.115 
X85 Y342.53 I4.515 J-8.248 
G01 X83.5 Y339.319 
X83.5 Y360.28 
G03 X84.198 Y359.553 I6.222 J5.275 
G01 X85.166 Y358.753 
X85.318 Y358.643 
X86.378 Y357.97 
X86.542 Y357.879 
X87.678 Y357.344 
X87.854 Y357.275 
X89.049 Y356.887 
X89.232 Y356.84 
X90.465 Y356.605 
X90.651 Y356.581 
G03 X92 Y356.5 I1.641 J16.061 
G01 X98.657 Y356.5 
G03 X99.22 Y356.484 I0.353 J2.507 
G02 X105.443 Y350.639 I-0.419 J-6.682 
G01 X105.492 Y349.873 
G03 X105.484 Y349.379 I2.249 J-0.283 
G02 X99.639 Y343.156 I-6.682 J0.419 
G01 X98.752 Y343.1 
X92 Y343.1 
G03 X90.651 Y343.018 I0.633 J-21.551 
G01 X90.465 Y342.994 
X89.232 Y342.759 
X89.049 Y342.712 
X87.854 Y342.324 
X87.678 Y342.255 
X86.542 Y341.72 
X86.378 Y341.629 
X85.318 Y340.956 
X85.166 Y340.846 
X84.198 Y340.046 
G03 X83.5 Y339.319 I5.524 J-6.002 
G00 Z5
(Sketch 144)
X195 Y264.489 S7000 M03
Z2
G01 Z-2.833 F100
G02 X195 Y265.489 I0 J0.5 F300
G01 X245.831 Y265.489 
X246.328 Y265.426 
X246.814 Y265.301 
X247.281 Y265.116 
X247.721 Y264.874 
X248.127 Y264.58 
X248.492 Y264.236 
X248.813 Y263.849 
X249.081 Y263.426 
X249.295 Y262.971 
X249.451 Y262.494 
X249.544 Y262 
X249.576 Y261.5 
X249.544 Y260.999 
X249.451 Y260.505 
X249.295 Y260.028 
X249.081 Y259.573 
X248.813 Y259.15 
X248.478 Y258.745 
X197.965 Y208.232 
X197.548 Y207.841 
X197.141 Y207.545 
X196.701 Y207.303 
X196.235 Y207.119 
X195.748 Y206.994 
X195.25 Y206.931 
X194.749 Y206.931 
X194.251 Y206.994 
X193.764 Y207.119 
X193.298 Y207.303 
X192.858 Y207.545 
X192.451 Y207.841 
X192.034 Y208.232 
X141.521 Y258.745 
X141.186 Y259.15 
X140.918 Y259.573 
X140.704 Y260.028 
X140.548 Y260.505 
X140.455 Y260.999 
X140.423 Y261.5 
X140.455 Y262 
X140.548 Y262.494 
X140.704 Y262.971 
X140.918 Y263.426 
X141.186 Y263.849 
X141.507 Y264.236 
X141.872 Y264.58 
X142.278 Y264.874 
X142.718 Y265.116 
X143.185 Y265.301 
X143.671 Y265.426 
X144.168 Y265.489 
X195 Y265.489 
G02 X195 Y264.489 I0 J-0.5 
G01 Z-5.666 F100
G02 X195 Y265.489 I0 J0.5 F300
G01 X245.831 Y265.489 
X246.328 Y265.426 
X246.814 Y265.301 
X247.281 Y265.116 
X247.721 Y264.874 
X248.127 Y264.58 
X248.492 Y264.236 
X248.813 Y263.849 
X249.081 Y263.426 
X249.295 Y262.971 
X249.451 Y262.494 
X249.544 Y262 
X249.576 Y261.5 
X249.544 Y260.999 
X249.451 Y260.505 
X249.295 Y260.028 
X249.081 Y259.573 
X248.813 Y259.15 
X248.478 Y258.745 
X197.965 Y208.232 
X197.548 Y207.841 
X197.141 Y207.545 
X196.701 Y207.303 
X196.235 Y207.119 
X195.748 Y206.994 
X195.25 Y206.931 
X194.749 Y206.931 
X194.251 Y206.994 
X193.764 Y207.119 
X193.298 Y207.303 
X192.858 Y207.545 
X192.451 Y207.841 
X192.034 Y208.232 
X141.521 Y258.745 
X141.186 Y259.15 
X140.918 Y259.573 
X140.704 Y260.028 
X140.548 Y260.505 
X140.455 Y260.999 
X140.423 Y261.5 
X140.455 Y262 
X140.548 Y262.494 
X140.704 Y262.971 
X140.918 Y263.426 
X141.186 Y263.849 
X141.507 Y264.236 
X141.872 Y264.58 
X142.278 Y264.874 
X142.718 Y265.116 
X143.185 Y265.301 
X143.671 Y265.426 
X144.168 Y265.489 
X195 Y265.489 
G02 X195 Y264.489 I0 J-0.5 
G01 Z-8.5 F100
G02 X195 Y265.489 I0 J0.5 F300
G01 X245.831 Y265.489 
X246.328 Y265.426 
X246.814 Y265.301 
X247.281 Y265.116 
X247.721 Y264.874 
X248.127 Y264.58 
X248.492 Y264.236 
X248.813 Y263.849 
X249.081 Y263.426 
X249.295 Y262.971 
X249.451 Y262.494 
X249.544 Y262 
X249.576 Y261.5 
X249.544 Y260.999 
X249.451 Y260.505 
X249.295 Y260.028 
X249.081 Y259.573 
X248.813 Y259.15 
X248.478 Y258.745 
X197.965 Y208.232 
X197.548 Y207.841 
X197.141 Y207.545 
X196.701 Y207.303 
X196.235 Y207.119 
X195.748 Y206.994 
X195.25 Y206.931 
X194.749 Y206.931 
X194.251 Y206.994 
X193.764 Y207.119 
X193.298 Y207.303 
X192.858 Y207.545 
X192.451 Y207.841 
X192.034 Y208.232 
X141.521 Y258.745 
X141.186 Y259.15 
X140.918 Y259.573 
X140.704 Y260.028 
X140.548 Y260.505 
X140.455 Y260.999 
X140.423 Y261.5 
X140.455 Y262 
X140.548 Y262.494 
X140.704 Y262.971 
X140.918 Y263.426 
X141.186 Y263.849 
X141.507 Y264.236 
X141.872 Y264.58 
X142.278 Y264.874 
X142.718 Y265.116 
X143.185 Y265.301 
X143.671 Y265.426 
X144.168 Y265.489 
X195 Y265.489 
G02 X195 Y264.489 I0 J-0.5 
G01 Z-11.333 F100
G02 X195 Y265.489 I0 J0.5 F300
G01 X245.831 Y265.489 
X246.328 Y265.426 
X246.814 Y265.301 
X247.281 Y265.116 
X247.721 Y264.874 
X248.127 Y264.58 
X248.492 Y264.236 
X248.813 Y263.849 
X249.081 Y263.426 
X249.295 Y262.971 
X249.451 Y262.494 
X249.544 Y262 
X249.576 Y261.5 
X249.544 Y260.999 
X249.451 Y260.505 
X249.295 Y260.028 
X249.081 Y259.573 
X248.813 Y259.15 
X248.478 Y258.745 
X197.965 Y208.232 
X197.548 Y207.841 
X197.141 Y207.545 
X196.701 Y207.303 
X196.235 Y207.119 
X195.748 Y206.994 
X195.25 Y206.931 
X194.749 Y206.931 
X194.251 Y206.994 
X193.764 Y207.119 
X193.298 Y207.303 
X192.858 Y207.545 
X192.451 Y207.841 
X192.034 Y208.232 
X141.521 Y258.745 
X141.186 Y259.15 
X140.918 Y259.573 
X140.704 Y260.028 
X140.548 Y260.505 
X140.455 Y260.999 
X140.423 Y261.5 
X140.455 Y262 
X140.548 Y262.494 
X140.704 Y262.971 
X140.918 Y263.426 
X141.186 Y263.849 
X141.507 Y264.236 
X141.872 Y264.58 
X142.278 Y264.874 
X142.718 Y265.116 
X143.185 Y265.301 
X143.671 Y265.426 
X144.168 Y265.489 
X195 Y265.489 
G02 X195 Y264.489 I0 J-0.5 
G01 Z-14.166 F100
G02 X195 Y265.489 I0 J0.5 F300
G01 X245.831 Y265.489 
X246.328 Y265.426 
X246.814 Y265.301 
X247.281 Y265.116 
X247.721 Y264.874 
X248.127 Y264.58 
X248.492 Y264.236 
X248.813 Y263.849 
X249.081 Y263.426 
X249.295 Y262.971 
X249.451 Y262.494 
X249.544 Y262 
X249.576 Y261.5 
X249.544 Y260.999 
X249.451 Y260.505 
X249.295 Y260.028 
X249.081 Y259.573 
X248.813 Y259.15 
X248.478 Y258.745 
X197.965 Y208.232 
X197.548 Y207.841 
X197.141 Y207.545 
X196.701 Y207.303 
X196.235 Y207.119 
X195.748 Y206.994 
X195.25 Y206.931 
X194.749 Y206.931 
X194.251 Y206.994 
X193.764 Y207.119 
X193.298 Y207.303 
X192.858 Y207.545 
X192.451 Y207.841 
X192.034 Y208.232 
X141.521 Y258.745 
X141.186 Y259.15 
X140.918 Y259.573 
X140.704 Y260.028 
X140.548 Y260.505 
X140.455 Y260.999 
X140.423 Y261.5 
X140.455 Y262 
X140.548 Y262.494 
X140.704 Y262.971 
X140.918 Y263.426 
X141.186 Y263.849 
X141.507 Y264.236 
X141.872 Y264.58 
X142.278 Y264.874 
X142.718 Y265.116 
X143.185 Y265.301 
X143.671 Y265.426 
X144.168 Y265.489 
X195 Y265.489 
G02 X195 Y264.489 I0 J-0.5 
G01 Z-17 F100
G02 X195 Y265.489 I0 J0.5 F300
G01 X245.831 Y265.489 
X246.328 Y265.426 
X246.814 Y265.301 
X247.281 Y265.116 
X247.721 Y264.874 
X248.127 Y264.58 
X248.492 Y264.236 
X248.813 Y263.849 
X249.081 Y263.426 
X249.295 Y262.971 
X249.451 Y262.494 
X249.544 Y262 
X249.576 Y261.5 
X249.544 Y260.999 
X249.451 Y260.505 
X249.295 Y260.028 
X249.081 Y259.573 
X248.813 Y259.15 
X248.478 Y258.745 
X197.965 Y208.232 
X197.548 Y207.841 
X197.141 Y207.545 
X196.701 Y207.303 
X196.235 Y207.119 
X195.748 Y206.994 
X195.25 Y206.931 
X194.749 Y206.931 
X194.251 Y206.994 
X193.764 Y207.119 
X193.298 Y207.303 
X192.858 Y207.545 
X192.451 Y207.841 
X192.034 Y208.232 
X141.521 Y258.745 
X141.186 Y259.15 
X140.918 Y259.573 
X140.704 Y260.028 
X140.548 Y260.505 
X140.455 Y260.999 
X140.423 Y261.5 
X140.455 Y262 
X140.548 Y262.494 
X140.704 Y262.971 
X140.918 Y263.426 
X141.186 Y263.849 
X141.507 Y264.236 
X141.872 Y264.58 
X142.278 Y264.874 
X142.718 Y265.116 
X143.185 Y265.301 
X143.671 Y265.426 
X144.168 Y265.489 
X195 Y265.489 
G02 X195 Y264.489 I0 J-0.5 
G00 Z5
G90
(Sketch 98)
X22.698 Y250.958 S7000 M03
Z2
G01 Z-2.833 F100
G02 X21.928 Y250.321 I-0.385 J-0.318 F300
G01 X21.507 Y250.83 
X20.801 Y251.943 
X20.24 Y253.136 
X19.832 Y254.389 
X19.585 Y255.684 
X19.502 Y257 
X19.585 Y258.315 
X19.832 Y259.61 
X20.24 Y260.863 
X20.801 Y262.056 
X21.507 Y263.169 
X22.348 Y264.186 
X23.308 Y265.087 
X24.375 Y265.863 
X25.53 Y266.498 
X26.756 Y266.983 
X28.032 Y267.31 
X29.34 Y267.476 
X30.659 Y267.476 
X31.967 Y267.31 
X33.243 Y266.983 
X34.469 Y266.498 
X35.624 Y265.863 
X36.691 Y265.087 
X37.651 Y264.186 
X38.492 Y263.169 
X39.198 Y262.056 
X39.759 Y260.863 
X40.167 Y259.61 
X40.414 Y258.315 
X40.497 Y257 
X40.414 Y255.684 
X40.167 Y254.389 
X39.759 Y253.136 
X39.198 Y251.943 
X38.492 Y250.83 
X37.651 Y249.813 
X36.691 Y248.912 
X35.624 Y248.136 
X34.469 Y247.501 
X33.243 Y247.016 
X31.967 Y246.689 
X30.659 Y246.524 
X29.34 Y246.524 
X28.032 Y246.689 
X26.756 Y247.016 
X25.53 Y247.501 
X24.375 Y248.136 
X23.308 Y248.912 
X22.348 Y249.813 
X21.928 Y250.321 
G02 X22.698 Y250.958 I0.385 J0.318 
G01 Z-5.666 F100
G02 X21.928 Y250.321 I-0.385 J-0.318 F300
G01 X21.507 Y250.83 
X20.801 Y251.943 
X20.24 Y253.136 
X19.832 Y254.389 
X19.585 Y255.684 
X19.502 Y257 
X19.585 Y258.315 
X19.832 Y259.61 
X20.24 Y260.863 
X20.801 Y262.056 
X21.507 Y263.169 
X22.348 Y264.186 
X23.308 Y265.087 
X24.375 Y265.863 
X25.53 Y266.498 
X26.756 Y266.983 
X28.032 Y267.31 
X29.34 Y267.476 
X30.659 Y267.476 
X31.967 Y267.31 
X33.243 Y266.983 
X34.469 Y266.498 
X35.624 Y265.863 
X36.691 Y265.087 
X37.651 Y264.186 
X38.492 Y263.169 
X39.198 Y262.056 
X39.759 Y260.863 
X40.167 Y259.61 
X40.414 Y258.315 
X40.497 Y257 
X40.414 Y255.684 
X40.167 Y254.389 
X39.759 Y253.136 
X39.198 Y251.943 
X38.492 Y250.83 
X37.651 Y249.813 
X36.691 Y248.912 
X35.624 Y248.136 
X34.469 Y247.501 
X33.243 Y247.016 
X31.967 Y246.689 
X30.659 Y246.524 
X29.34 Y246.524 
X28.032 Y246.689 
X26.756 Y247.016 
X25.53 Y247.501 
X24.375 Y248.136 
X23.308 Y248.912 
X22.348 Y249.813 
X21.928 Y250.321 
G02 X22.698 Y250.958 I0.385 J0.318 
G01 Z-8.5 F100
G02 X21.928 Y250.321 I-0.385 J-0.318 F300
G01 X21.507 Y250.83 
X20.801 Y251.943 
X20.24 Y253.136 
X19.832 Y254.389 
X19.585 Y255.684 
X19.502 Y257 
X19.585 Y258.315 
X19.832 Y259.61 
X20.24 Y260.863 
X20.801 Y262.056 
X21.507 Y263.169 
X22.348 Y264.186 
X23.308 Y265.087 
X24.375 Y265.863 
X25.53 Y266.498 
X26.756 Y266.983 
X28.032 Y267.31 
X29.34 Y267.476 
X30.659 Y267.476 
X31.967 Y267.31 
X33.243 Y266.983 
X34.469 Y266.498 
X35.624 Y265.863 
X36.691 Y265.087 
X37.651 Y264.186 
X38.492 Y263.169 
X39.198 Y262.056 
X39.759 Y260.863 
X40.167 Y259.61 
X40.414 Y258.315 
X40.497 Y257 
X40.414 Y255.684 
X40.167 Y254.389 
X39.759 Y253.136 
X39.198 Y251.943 
X38.492 Y250.83 
X37.651 Y249.813 
X36.691 Y248.912 
X35.624 Y248.136 
X34.469 Y247.501 
X33.243 Y247.016 
X31.967 Y246.689 
X30.659 Y246.524 
X29.34 Y246.524 
X28.032 Y246.689 
X26.756 Y247.016 
X25.53 Y247.501 
X24.375 Y248.136 
X23.308 Y248.912 
X22.348 Y249.813 
X21.928 Y250.321 
G02 X22.698 Y250.958 I0.385 J0.318 
G01 Z-11.333 F100
G02 X21.928 Y250.321 I-0.385 J-0.318 F300
G01 X21.507 Y250.83 
X20.801 Y251.943 
X20.24 Y253.136 
X19.832 Y254.389 
X19.585 Y255.684 
X19.502 Y257 
X19.585 Y258.315 
X19.832 Y259.61 
X20.24 Y260.863 
X20.801 Y262.056 
X21.507 Y263.169 
X22.348 Y264.186 
X23.308 Y265.087 
X24.375 Y265.863 
X25.53 Y266.498 
X26.756 Y266.983 
X28.032 Y267.31 
X29.34 Y267.476 
X30.659 Y267.476 
X31.967 Y267.31 
X33.243 Y266.983 
X34.469 Y266.498 
X35.624 Y265.863 
X36.691 Y265.087 
X37.651 Y264.186 
X38.492 Y263.169 
X39.198 Y262.056 
X39.759 Y260.863 
X40.167 Y259.61 
X40.414 Y258.315 
X40.497 Y257 
X40.414 Y255.684 
X40.167 Y254.389 
X39.759 Y253.136 
X39.198 Y251.943 
X38.492 Y250.83 
X37.651 Y249.813 
X36.691 Y248.912 
X35.624 Y248.136 
X34.469 Y247.501 
X33.243 Y247.016 
X31.967 Y246.689 
X30.659 Y246.524 
X29.34 Y246.524 
X28.032 Y246.689 
X26.756 Y247.016 
X25.53 Y247.501 
X24.375 Y248.136 
X23.308 Y248.912 
X22.348 Y249.813 
X21.928 Y250.321 
G02 X22.698 Y250.958 I0.385 J0.318 
G01 Z-14.166 F100
G02 X21.928 Y250.321 I-0.385 J-0.318 F300
G01 X21.507 Y250.83 
X20.801 Y251.943 
X20.24 Y253.136 
X19.832 Y254.389 
X19.585 Y255.684 
X19.502 Y257 
X19.585 Y258.315 
X19.832 Y259.61 
X20.24 Y260.863 
X20.801 Y262.056 
X21.507 Y263.169 
X22.348 Y264.186 
X23.308 Y265.087 
X24.375 Y265.863 
X25.53 Y266.498 
X26.756 Y266.983 
X28.032 Y267.31 
X29.34 Y267.476 
X30.659 Y267.476 
X31.967 Y267.31 
X33.243 Y266.983 
X34.469 Y266.498 
X35.624 Y265.863 
X36.691 Y265.087 
X37.651 Y264.186 
X38.492 Y263.169 
X39.198 Y262.056 
X39.759 Y260.863 
X40.167 Y259.61 
X40.414 Y258.315 
X40.497 Y257 
X40.414 Y255.684 
X40.167 Y254.389 
X39.759 Y253.136 
X39.198 Y251.943 
X38.492 Y250.83 
X37.651 Y249.813 
X36.691 Y248.912 
X35.624 Y248.136 
X34.469 Y247.501 
X33.243 Y247.016 
X31.967 Y246.689 
X30.659 Y246.524 
X29.34 Y246.524 
X28.032 Y246.689 
X26.756 Y247.016 
X25.53 Y247.501 
X24.375 Y248.136 
X23.308 Y248.912 
X22.348 Y249.813 
X21.928 Y250.321 
G02 X22.698 Y250.958 I0.385 J0.318 
G01 Z-17 F100
G02 X21.928 Y250.321 I-0.385 J-0.318 F300
G01 X21.507 Y250.83 
X20.801 Y251.943 
X20.24 Y253.136 
X19.832 Y254.389 
X19.585 Y255.684 
X19.502 Y257 
X19.585 Y258.315 
X19.832 Y259.61 
X20.24 Y260.863 
X20.801 Y262.056 
X21.507 Y263.169 
X22.348 Y264.186 
X23.308 Y265.087 
X24.375 Y265.863 
X25.53 Y266.498 
X26.756 Y266.983 
X28.032 Y267.31 
X29.34 Y267.476 
X30.659 Y267.476 
X31.967 Y267.31 
X33.243 Y266.983 
X34.469 Y266.498 
X35.624 Y265.863 
X36.691 Y265.087 
X37.651 Y264.186 
X38.492 Y263.169 
X39.198 Y262.056 
X39.759 Y260.863 
X40.167 Y259.61 
X40.414 Y258.315 
X40.497 Y257 
X40.414 Y255.684 
X40.167 Y254.389 
X39.759 Y253.136 
X39.198 Y251.943 
X38.492 Y250.83 
X37.651 Y249.813 
X36.691 Y248.912 
X35.624 Y248.136 
X34.469 Y247.501 
X33.243 Y247.016 
X31.967 Y246.689 
X30.659 Y246.524 
X29.34 Y246.524 
X28.032 Y246.689 
X26.756 Y247.016 
X25.53 Y247.501 
X24.375 Y248.136 
X23.308 Y248.912 
X22.348 Y249.813 
X21.928 Y250.321 
G02 X22.698 Y250.958 I0.385 J0.318 
G00 Z5
G90
(Sketch 106)
X14.465 Y257.279 S7000 M03
Z2
G01 Z-2.833 F100
G02 X15.447 Y257.467 I0.491 J0.093 F300
G01 X15.477 Y257.312 
X15.497 Y257 
X15.477 Y256.687 
X15.418 Y256.379 
X15.321 Y256.081 
X15.188 Y255.796 
X15.02 Y255.532 
X14.82 Y255.29 
X14.591 Y255.076 
X14.338 Y254.892 
X14.063 Y254.74 
X13.771 Y254.625 
X13.467 Y254.547 
X13.156 Y254.508 
X12.843 Y254.508 
X12.532 Y254.547 
X12.228 Y254.625 
X11.936 Y254.74 
X11.661 Y254.892 
X11.408 Y255.076 
X11.179 Y255.29 
X10.979 Y255.532 
X10.811 Y255.796 
X10.678 Y256.081 
X10.581 Y256.378 
X10.522 Y256.687 
X10.502 Y257 
X10.522 Y257.312 
X10.581 Y257.621 
X10.678 Y257.918 
X10.811 Y258.203 
X10.979 Y258.467 
X11.179 Y258.709 
X11.408 Y258.923 
X11.661 Y259.107 
X11.936 Y259.259 
X12.228 Y259.374 
X12.532 Y259.452 
X12.843 Y259.492 
X13.156 Y259.492 
X13.467 Y259.452 
X13.771 Y259.374 
X14.063 Y259.259 
X14.338 Y259.107 
X14.591 Y258.923 
X14.82 Y258.709 
X15.02 Y258.467 
X15.188 Y258.203 
X15.321 Y257.918 
X15.418 Y257.62 
X15.447 Y257.467 
G02 X14.465 Y257.279 I-0.491 J-0.093 
G01 Z-5.666 F100
G02 X15.447 Y257.467 I0.491 J0.093 F300
G01 X15.477 Y257.312 
X15.497 Y257 
X15.477 Y256.687 
X15.418 Y256.379 
X15.321 Y256.081 
X15.188 Y255.796 
X15.02 Y255.532 
X14.82 Y255.29 
X14.591 Y255.076 
X14.338 Y254.892 
X14.063 Y254.74 
X13.771 Y254.625 
X13.467 Y254.547 
X13.156 Y254.508 
X12.843 Y254.508 
X12.532 Y254.547 
X12.228 Y254.625 
X11.936 Y254.74 
X11.661 Y254.892 
X11.408 Y255.076 
X11.179 Y255.29 
X10.979 Y255.532 
X10.811 Y255.796 
X10.678 Y256.081 
X10.581 Y256.378 
X10.522 Y256.687 
X10.502 Y257 
X10.522 Y257.312 
X10.581 Y257.621 
X10.678 Y257.918 
X10.811 Y258.203 
X10.979 Y258.467 
X11.179 Y258.709 
X11.408 Y258.923 
X11.661 Y259.107 
X11.936 Y259.259 
X12.228 Y259.374 
X12.532 Y259.452 
X12.843 Y259.492 
X13.156 Y259.492 
X13.467 Y259.452 
X13.771 Y259.374 
X14.063 Y259.259 
X14.338 Y259.107 
X14.591 Y258.923 
X14.82 Y258.709 
X15.02 Y258.467 
X15.188 Y258.203 
X15.321 Y257.918 
X15.418 Y257.62 
X15.447 Y257.467 
G02 X14.465 Y257.279 I-0.491 J-0.093 
G01 Z-8.5 F100
G02 X15.447 Y257.467 I0.491 J0.093 F300
G01 X15.477 Y257.312 
X15.497 Y257 
X15.477 Y256.687 
X15.418 Y256.379 
X15.321 Y256.081 
X15.188 Y255.796 
X15.02 Y255.532 
X14.82 Y255.29 
X14.591 Y255.076 
X14.338 Y254.892 
X14.063 Y254.74 
X13.771 Y254.625 
X13.467 Y254.547 
X13.156 Y254.508 
X12.843 Y254.508 
X12.532 Y254.547 
X12.228 Y254.625 
X11.936 Y254.74 
X11.661 Y254.892 
X11.408 Y255.076 
X11.179 Y255.29 
X10.979 Y255.532 
X10.811 Y255.796 
X10.678 Y256.081 
X10.581 Y256.378 
X10.522 Y256.687 
X10.502 Y257 
X10.522 Y257.312 
X10.581 Y257.621 
X10.678 Y257.918 
X10.811 Y258.203 
X10.979 Y258.467 
X11.179 Y258.709 
X11.408 Y258.923 
X11.661 Y259.107 
X11.936 Y259.259 
X12.228 Y259.374 
X12.532 Y259.452 
X12.843 Y259.492 
X13.156 Y259.492 
X13.467 Y259.452 
X13.771 Y259.374 
X14.063 Y259.259 
X14.338 Y259.107 
X14.591 Y258.923 
X14.82 Y258.709 
X15.02 Y258.467 
X15.188 Y258.203 
X15.321 Y257.918 
X15.418 Y257.62 
X15.447 Y257.467 
G02 X14.465 Y257.279 I-0.491 J-0.093 
G01 Z-11.333 F100
G02 X15.447 Y257.467 I0.491 J0.093 F300
G01 X15.477 Y257.312 
X15.497 Y257 
X15.477 Y256.687 
X15.418 Y256.379 
X15.321 Y256.081 
X15.188 Y255.796 
X15.02 Y255.532 
X14.82 Y255.29 
X14.591 Y255.076 
X14.338 Y254.892 
X14.063 Y254.74 
X13.771 Y254.625 
X13.467 Y254.547 
X13.156 Y254.508 
X12.843 Y254.508 
X12.532 Y254.547 
X12.228 Y254.625 
X11.936 Y254.74 
X11.661 Y254.892 
X11.408 Y255.076 
X11.179 Y255.29 
X10.979 Y255.532 
X10.811 Y255.796 
X10.678 Y256.081 
X10.581 Y256.378 
X10.522 Y256.687 
X10.502 Y257 
X10.522 Y257.312 
X10.581 Y257.621 
X10.678 Y257.918 
X10.811 Y258.203 
X10.979 Y258.467 
X11.179 Y258.709 
X11.408 Y258.923 
X11.661 Y259.107 
X11.936 Y259.259 
X12.228 Y259.374 
X12.532 Y259.452 
X12.843 Y259.492 
X13.156 Y259.492 
X13.467 Y259.452 
X13.771 Y259.374 
X14.063 Y259.259 
X14.338 Y259.107 
X14.591 Y258.923 
X14.82 Y258.709 
X15.02 Y258.467 
X15.188 Y258.203 
X15.321 Y257.918 
X15.418 Y257.62 
X15.447 Y257.467 
G02 X14.465 Y257.279 I-0.491 J-0.093 
G01 Z-14.166 F100
G02 X15.447 Y257.467 I0.491 J0.093 F300
G01 X15.477 Y257.312 
X15.497 Y257 
X15.477 Y256.687 
X15.418 Y256.379 
X15.321 Y256.081 
X15.188 Y255.796 
X15.02 Y255.532 
X14.82 Y255.29 
X14.591 Y255.076 
X14.338 Y254.892 
X14.063 Y254.74 
X13.771 Y254.625 
X13.467 Y254.547 
X13.156 Y254.508 
X12.843 Y254.508 
X12.532 Y254.547 
X12.228 Y254.625 
X11.936 Y254.74 
X11.661 Y254.892 
X11.408 Y255.076 
X11.179 Y255.29 
X10.979 Y255.532 
X10.811 Y255.796 
X10.678 Y256.081 
X10.581 Y256.378 
X10.522 Y256.687 
X10.502 Y257 
X10.522 Y257.312 
X10.581 Y257.621 
X10.678 Y257.918 
X10.811 Y258.203 
X10.979 Y258.467 
X11.179 Y258.709 
X11.408 Y258.923 
X11.661 Y259.107 
X11.936 Y259.259 
X12.228 Y259.374 
X12.532 Y259.452 
X12.843 Y259.492 
X13.156 Y259.492 
X13.467 Y259.452 
X13.771 Y259.374 
X14.063 Y259.259 
X14.338 Y259.107 
X14.591 Y258.923 
X14.82 Y258.709 
X15.02 Y258.467 
X15.188 Y258.203 
X15.321 Y257.918 
X15.418 Y257.62 
X15.447 Y257.467 
G02 X14.465 Y257.279 I-0.491 J-0.093 
G01 Z-17 F100
G02 X15.447 Y257.467 I0.491 J0.093 F300
G01 X15.477 Y257.312 
X15.497 Y257 
X15.477 Y256.687 
X15.418 Y256.379 
X15.321 Y256.081 
X15.188 Y255.796 
X15.02 Y255.532 
X14.82 Y255.29 
X14.591 Y255.076 
X14.338 Y254.892 
X14.063 Y254.74 
X13.771 Y254.625 
X13.467 Y254.547 
X13.156 Y254.508 
X12.843 Y254.508 
X12.532 Y254.547 
X12.228 Y254.625 
X11.936 Y254.74 
X11.661 Y254.892 
X11.408 Y255.076 
X11.179 Y255.29 
X10.979 Y255.532 
X10.811 Y255.796 
X10.678 Y256.081 
X10.581 Y256.378 
X10.522 Y256.687 
X10.502 Y257 
X10.522 Y257.312 
X10.581 Y257.621 
X10.678 Y257.918 
X10.811 Y258.203 
X10.979 Y258.467 
X11.179 Y258.709 
X11.408 Y258.923 
X11.661 Y259.107 
X11.936 Y259.259 
X12.228 Y259.374 
X12.532 Y259.452 
X12.843 Y259.492 
X13.156 Y259.492 
X13.467 Y259.452 
X13.771 Y259.374 
X14.063 Y259.259 
X14.338 Y259.107 
X14.591 Y258.923 
X14.82 Y258.709 
X15.02 Y258.467 
X15.188 Y258.203 
X15.321 Y257.918 
X15.418 Y257.62 
X15.447 Y257.467 
G02 X14.465 Y257.279 I-0.491 J-0.093 
G00 Z5
G90
(Sketch 146)
X109.511 Y179 S7000 M03
Z2
G01 Z-2.833 F100
G02 X108.511 Y179 I-0.5 J0 F300
G01 X108.511 Y229.831 
X108.573 Y230.328 
X108.698 Y230.814 
X108.883 Y231.281 
X109.125 Y231.721 
X109.419 Y232.127 
X109.763 Y232.492 
X110.15 Y232.813 
X110.573 Y233.081 
X111.028 Y233.295 
X111.505 Y233.451 
X111.999 Y233.544 
X112.5 Y233.576 
X113 Y233.544 
X113.494 Y233.451 
X113.971 Y233.295 
X114.426 Y233.081 
X114.849 Y232.813 
X115.254 Y232.478 
X165.767 Y181.965 
X166.158 Y181.548 
X166.454 Y181.141 
X166.696 Y180.701 
X166.88 Y180.235 
X167.005 Y179.748 
X167.069 Y179.25 
X167.069 Y178.749 
X167.005 Y178.251 
X166.88 Y177.764 
X166.696 Y177.298 
X166.454 Y176.858 
X166.158 Y176.451 
X165.767 Y176.034 
X115.254 Y125.521 
X114.849 Y125.186 
X114.426 Y124.918 
X113.971 Y124.704 
X113.494 Y124.548 
X113 Y124.455 
X112.5 Y124.423 
X111.999 Y124.455 
X111.505 Y124.548 
X111.028 Y124.704 
X110.573 Y124.918 
X110.15 Y125.186 
X109.763 Y125.507 
X109.419 Y125.872 
X109.125 Y126.278 
X108.883 Y126.718 
X108.698 Y127.185 
X108.573 Y127.671 
X108.511 Y128.168 
X108.511 Y179 
G02 X109.511 Y179 I0.5 J0 
G01 Z-5.666 F100
G02 X108.511 Y179 I-0.5 J0 F300
G01 X108.511 Y229.831 
X108.573 Y230.328 
X108.698 Y230.814 
X108.883 Y231.281 
X109.125 Y231.721 
X109.419 Y232.127 
X109.763 Y232.492 
X110.15 Y232.813 
X110.573 Y233.081 
X111.028 Y233.295 
X111.505 Y233.451 
X111.999 Y233.544 
X112.5 Y233.576 
X113 Y233.544 
X113.494 Y233.451 
X113.971 Y233.295 
X114.426 Y233.081 
X114.849 Y232.813 
X115.254 Y232.478 
X165.767 Y181.965 
X166.158 Y181.548 
X166.454 Y181.141 
X166.696 Y180.701 
X166.88 Y180.235 
X167.005 Y179.748 
X167.069 Y179.25 
X167.069 Y178.749 
X167.005 Y178.251 
X166.88 Y177.764 
X166.696 Y177.298 
X166.454 Y176.858 
X166.158 Y176.451 
X165.767 Y176.034 
X115.254 Y125.521 
X114.849 Y125.186 
X114.426 Y124.918 
X113.971 Y124.704 
X113.494 Y124.548 
X113 Y124.455 
X112.5 Y124.423 
X111.999 Y124.455 
X111.505 Y124.548 
X111.028 Y124.704 
X110.573 Y124.918 
X110.15 Y125.186 
X109.763 Y125.507 
X109.419 Y125.872 
X109.125 Y126.278 
X108.883 Y126.718 
X108.698 Y127.185 
X108.573 Y127.671 
X108.511 Y128.168 
X108.511 Y179 
G02 X109.511 Y179 I0.5 J0 
G01 Z-8.5 F100
G02 X108.511 Y179 I-0.5 J0 F300
G01 X108.511 Y229.831 
X108.573 Y230.328 
X108.698 Y230.814 
X108.883 Y231.281 
X109.125 Y231.721 
X109.419 Y232.127 
X109.763 Y232.492 
X110.15 Y232.813 
X110.573 Y233.081 
X111.028 Y233.295 
X111.505 Y233.451 
X111.999 Y233.544 
X112.5 Y233.576 
X113 Y233.544 
X113.494 Y233.451 
X113.971 Y233.295 
X114.426 Y233.081 
X114.849 Y232.813 
X115.254 Y232.478 
X165.767 Y181.965 
X166.158 Y181.548 
X166.454 Y181.141 
X166.696 Y180.701 
X166.88 Y180.235 
X167.005 Y179.748 
X167.069 Y179.25 
X167.069 Y178.749 
X167.005 Y178.251 
X166.88 Y177.764 
X166.696 Y177.298 
X166.454 Y176.858 
X166.158 Y176.451 
X165.767 Y176.034 
X115.254 Y125.521 
X114.849 Y125.186 
X114.426 Y124.918 
X113.971 Y124.704 
X113.494 Y124.548 
X113 Y124.455 
X112.5 Y124.423 
X111.999 Y124.455 
X111.505 Y124.548 
X111.028 Y124.704 
X110.573 Y124.918 
X110.15 Y125.186 
X109.763 Y125.507 
X109.419 Y125.872 
X109.125 Y126.278 
X108.883 Y126.718 
X108.698 Y127.185 
X108.573 Y127.671 
X108.511 Y128.168 
X108.511 Y179 
G02 X109.511 Y179 I0.5 J0 
G01 Z-11.333 F100
G02 X108.511 Y179 I-0.5 J0 F300
G01 X108.511 Y229.831 
X108.573 Y230.328 
X108.698 Y230.814 
X108.883 Y231.281 
X109.125 Y231.721 
X109.419 Y232.127 
X109.763 Y232.492 
X110.15 Y232.813 
X110.573 Y233.081 
X111.028 Y233.295 
X111.505 Y233.451 
X111.999 Y233.544 
X112.5 Y233.576 
X113 Y233.544 
X113.494 Y233.451 
X113.971 Y233.295 
X114.426 Y233.081 
X114.849 Y232.813 
X115.254 Y232.478 
X165.767 Y181.965 
X166.158 Y181.548 
X166.454 Y181.141 
X166.696 Y180.701 
X166.88 Y180.235 
X167.005 Y179.748 
X167.069 Y179.25 
X167.069 Y178.749 
X167.005 Y178.251 
X166.88 Y177.764 
X166.696 Y177.298 
X166.454 Y176.858 
X166.158 Y176.451 
X165.767 Y176.034 
X115.254 Y125.521 
X114.849 Y125.186 
X114.426 Y124.918 
X113.971 Y124.704 
X113.494 Y124.548 
X113 Y124.455 
X112.5 Y124.423 
X111.999 Y124.455 
X111.505 Y124.548 
X111.028 Y124.704 
X110.573 Y124.918 
X110.15 Y125.186 
X109.763 Y125.507 
X109.419 Y125.872 
X109.125 Y126.278 
X108.883 Y126.718 
X108.698 Y127.185 
X108.573 Y127.671 
X108.511 Y128.168 
X108.511 Y179 
G02 X109.511 Y179 I0.5 J0 
G01 Z-14.166 F100
G02 X108.511 Y179 I-0.5 J0 F300
G01 X108.511 Y229.831 
X108.573 Y230.328 
X108.698 Y230.814 
X108.883 Y231.281 
X109.125 Y231.721 
X109.419 Y232.127 
X109.763 Y232.492 
X110.15 Y232.813 
X110.573 Y233.081 
X111.028 Y233.295 
X111.505 Y233.451 
X111.999 Y233.544 
X112.5 Y233.576 
X113 Y233.544 
X113.494 Y233.451 
X113.971 Y233.295 
X114.426 Y233.081 
X114.849 Y232.813 
X115.254 Y232.478 
X165.767 Y181.965 
X166.158 Y181.548 
X166.454 Y181.141 
X166.696 Y180.701 
X166.88 Y180.235 
X167.005 Y179.748 
X167.069 Y179.25 
X167.069 Y178.749 
X167.005 Y178.251 
X166.88 Y177.764 
X166.696 Y177.298 
X166.454 Y176.858 
X166.158 Y176.451 
X165.767 Y176.034 
X115.254 Y125.521 
X114.849 Y125.186 
X114.426 Y124.918 
X113.971 Y124.704 
X113.494 Y124.548 
X113 Y124.455 
X112.5 Y124.423 
X111.999 Y124.455 
X111.505 Y124.548 
X111.028 Y124.704 
X110.573 Y124.918 
X110.15 Y125.186 
X109.763 Y125.507 
X109.419 Y125.872 
X109.125 Y126.278 
X108.883 Y126.718 
X108.698 Y127.185 
X108.573 Y127.671 
X108.511 Y128.168 
X108.511 Y179 
G02 X109.511 Y179 I0.5 J0 
G01 Z-17 F100
G02 X108.511 Y179 I-0.5 J0 F300
G01 X108.511 Y229.831 
X108.573 Y230.328 
X108.698 Y230.814 
X108.883 Y231.281 
X109.125 Y231.721 
X109.419 Y232.127 
X109.763 Y232.492 
X110.15 Y232.813 
X110.573 Y233.081 
X111.028 Y233.295 
X111.505 Y233.451 
X111.999 Y233.544 
X112.5 Y233.576 
X113 Y233.544 
X113.494 Y233.451 
X113.971 Y233.295 
X114.426 Y233.081 
X114.849 Y232.813 
X115.254 Y232.478 
X165.767 Y181.965 
X166.158 Y181.548 
X166.454 Y181.141 
X166.696 Y180.701 
X166.88 Y180.235 
X167.005 Y179.748 
X167.069 Y179.25 
X167.069 Y178.749 
X167.005 Y178.251 
X166.88 Y177.764 
X166.696 Y177.298 
X166.454 Y176.858 
X166.158 Y176.451 
X165.767 Y176.034 
X115.254 Y125.521 
X114.849 Y125.186 
X114.426 Y124.918 
X113.971 Y124.704 
X113.494 Y124.548 
X113 Y124.455 
X112.5 Y124.423 
X111.999 Y124.455 
X111.505 Y124.548 
X111.028 Y124.704 
X110.573 Y124.918 
X110.15 Y125.186 
X109.763 Y125.507 
X109.419 Y125.872 
X109.125 Y126.278 
X108.883 Y126.718 
X108.698 Y127.185 
X108.573 Y127.671 
X108.511 Y128.168 
X108.511 Y179 
G02 X109.511 Y179 I0.5 J0 
G00 Z5
G90
(Sketch 142)
X50 Y24 S7000 M03
Z2
G01 Z-2.833 F100
G02 X50 Y25 I0 J0.5 F300
G01 X58.5 Y25 
X58.5 Y12 
X41.5 Y12 
X41.5 Y25 
X50 Y25 
G02 X50 Y24 I0 J-0.5 
G01 Z-5.666 F100
G02 X50 Y25 I0 J0.5 F300
G01 X58.5 Y25 
X58.5 Y12 
X41.5 Y12 
X41.5 Y25 
X50 Y25 
G02 X50 Y24 I0 J-0.5 
G01 Z-8.5 F100
G02 X50 Y25 I0 J0.5 F300
G01 X58.5 Y25 
X58.5 Y12 
X41.5 Y12 
X41.5 Y25 
X50 Y25 
G02 X50 Y24 I0 J-0.5 
G01 Z-11.333 F100
G02 X50 Y25 I0 J0.5 F300
G01 X58.5 Y25 
X58.5 Y12 
X41.5 Y12 
X41.5 Y25 
X50 Y25 
G02 X50 Y24 I0 J-0.5 
G01 Z-14.166 F100
G02 X50 Y25 I0 J0.5 F300
G01 X58.5 Y25 
X58.5 Y12 
X41.5 Y12 
X41.5 Y25 
X50 Y25 
G02 X50 Y24 I0 J-0.5 
G01 Z-17 F100
G02 X50 Y25 I0 J0.5 F300
G01 X58.5 Y25 
X58.5 Y12 
X41.5 Y12 
X41.5 Y25 
X50 Y25 
G02 X50 Y24 I0 J-0.5 
G00 Z5
G90
(Sketch 163)
X112.5 Y17.996 S7000 M03
Z2
G01 Z-2.833 F100
G02 X112.5 Y18.996 I0 J0.5 F300
G01 X112.532 Y18.996 
X112.592 Y18.988 
X112.653 Y18.972 
X112.713 Y18.949 
X112.765 Y18.92 
X112.815 Y18.883 
X112.862 Y18.839 
X112.903 Y18.791 
X112.936 Y18.739 
X112.961 Y18.685 
X112.98 Y18.624 
X112.993 Y18.561 
X112.996 Y18.5 
X112.993 Y18.438 
X112.98 Y18.375 
X112.961 Y18.314 
X112.936 Y18.26 
X112.903 Y18.208 
X112.862 Y18.16 
X112.815 Y18.116 
X112.765 Y18.079 
X112.713 Y18.05 
X112.653 Y18.027 
X112.592 Y18.011 
X112.532 Y18.004 
X112.467 Y18.004 
X112.407 Y18.011 
X112.346 Y18.027 
X112.286 Y18.05 
X112.234 Y18.079 
X112.184 Y18.116 
X112.137 Y18.16 
X112.096 Y18.208 
X112.063 Y18.26 
X112.038 Y18.314 
X112.019 Y18.375 
X112.006 Y18.438 
X112.003 Y18.5 
X112.006 Y18.561 
X112.019 Y18.624 
X112.038 Y18.685 
X112.063 Y18.739 
X112.096 Y18.791 
X112.137 Y18.839 
X112.184 Y18.883 
X112.234 Y18.92 
X112.286 Y18.949 
X112.346 Y18.972 
X112.407 Y18.988 
X112.467 Y18.996 
X112.5 Y18.996 
G02 X112.5 Y17.996 I0 J-0.5 
G01 Z-5.666 F100
G02 X112.5 Y18.996 I0 J0.5 F300
G01 X112.532 Y18.996 
X112.592 Y18.988 
X112.653 Y18.972 
X112.713 Y18.949 
X112.765 Y18.92 
X112.815 Y18.883 
X112.862 Y18.839 
X112.903 Y18.791 
X112.936 Y18.739 
X112.961 Y18.685 
X112.98 Y18.624 
X112.993 Y18.561 
X112.996 Y18.5 
X112.993 Y18.438 
X112.98 Y18.375 
X112.961 Y18.314 
X112.936 Y18.26 
X112.903 Y18.208 
X112.862 Y18.16 
X112.815 Y18.116 
X112.765 Y18.079 
X112.713 Y18.05 
X112.653 Y18.027 
X112.592 Y18.011 
X112.532 Y18.004 
X112.467 Y18.004 
X112.407 Y18.011 
X112.346 Y18.027 
X112.286 Y18.05 
X112.234 Y18.079 
X112.184 Y18.116 
X112.137 Y18.16 
X112.096 Y18.208 
X112.063 Y18.26 
X112.038 Y18.314 
X112.019 Y18.375 
X112.006 Y18.438 
X112.003 Y18.5 
X112.006 Y18.561 
X112.019 Y18.624 
X112.038 Y18.685 
X112.063 Y18.739 
X112.096 Y18.791 
X112.137 Y18.839 
X112.184 Y18.883 
X112.234 Y18.92 
X112.286 Y18.949 
X112.346 Y18.972 
X112.407 Y18.988 
X112.467 Y18.996 
X112.5 Y18.996 
G02 X112.5 Y17.996 I0 J-0.5 
G01 Z-8.5 F100
G02 X112.5 Y18.996 I0 J0.5 F300
G01 X112.532 Y18.996 
X112.592 Y18.988 
X112.653 Y18.972 
X112.713 Y18.949 
X112.765 Y18.92 
X112.815 Y18.883 
X112.862 Y18.839 
X112.903 Y18.791 
X112.936 Y18.739 
X112.961 Y18.685 
X112.98 Y18.624 
X112.993 Y18.561 
X112.996 Y18.5 
X112.993 Y18.438 
X112.98 Y18.375 
X112.961 Y18.314 
X112.936 Y18.26 
X112.903 Y18.208 
X112.862 Y18.16 
X112.815 Y18.116 
X112.765 Y18.079 
X112.713 Y18.05 
X112.653 Y18.027 
X112.592 Y18.011 
X112.532 Y18.004 
X112.467 Y18.004 
X112.407 Y18.011 
X112.346 Y18.027 
X112.286 Y18.05 
X112.234 Y18.079 
X112.184 Y18.116 
X112.137 Y18.16 
X112.096 Y18.208 
X112.063 Y18.26 
X112.038 Y18.314 
X112.019 Y18.375 
X112.006 Y18.438 
X112.003 Y18.5 
X112.006 Y18.561 
X112.019 Y18.624 
X112.038 Y18.685 
X112.063 Y18.739 
X112.096 Y18.791 
X112.137 Y18.839 
X112.184 Y18.883 
X112.234 Y18.92 
X112.286 Y18.949 
X112.346 Y18.972 
X112.407 Y18.988 
X112.467 Y18.996 
X112.5 Y18.996 
G02 X112.5 Y17.996 I0 J-0.5 
G01 Z-11.333 F100
G02 X112.5 Y18.996 I0 J0.5 F300
G01 X112.532 Y18.996 
X112.592 Y18.988 
X112.653 Y18.972 
X112.713 Y18.949 
X112.765 Y18.92 
X112.815 Y18.883 
X112.862 Y18.839 
X112.903 Y18.791 
X112.936 Y18.739 
X112.961 Y18.685 
X112.98 Y18.624 
X112.993 Y18.561 
X112.996 Y18.5 
X112.993 Y18.438 
X112.98 Y18.375 
X112.961 Y18.314 
X112.936 Y18.26 
X112.903 Y18.208 
X112.862 Y18.16 
X112.815 Y18.116 
X112.765 Y18.079 
X112.713 Y18.05 
X112.653 Y18.027 
X112.592 Y18.011 
X112.532 Y18.004 
X112.467 Y18.004 
X112.407 Y18.011 
X112.346 Y18.027 
X112.286 Y18.05 
X112.234 Y18.079 
X112.184 Y18.116 
X112.137 Y18.16 
X112.096 Y18.208 
X112.063 Y18.26 
X112.038 Y18.314 
X112.019 Y18.375 
X112.006 Y18.438 
X112.003 Y18.5 
X112.006 Y18.561 
X112.019 Y18.624 
X112.038 Y18.685 
X112.063 Y18.739 
X112.096 Y18.791 
X112.137 Y18.839 
X112.184 Y18.883 
X112.234 Y18.92 
X112.286 Y18.949 
X112.346 Y18.972 
X112.407 Y18.988 
X112.467 Y18.996 
X112.5 Y18.996 
G02 X112.5 Y17.996 I0 J-0.5 
G01 Z-14.166 F100
G02 X112.5 Y18.996 I0 J0.5 F300
G01 X112.532 Y18.996 
X112.592 Y18.988 
X112.653 Y18.972 
X112.713 Y18.949 
X112.765 Y18.92 
X112.815 Y18.883 
X112.862 Y18.839 
X112.903 Y18.791 
X112.936 Y18.739 
X112.961 Y18.685 
X112.98 Y18.624 
X112.993 Y18.561 
X112.996 Y18.5 
X112.993 Y18.438 
X112.98 Y18.375 
X112.961 Y18.314 
X112.936 Y18.26 
X112.903 Y18.208 
X112.862 Y18.16 
X112.815 Y18.116 
X112.765 Y18.079 
X112.713 Y18.05 
X112.653 Y18.027 
X112.592 Y18.011 
X112.532 Y18.004 
X112.467 Y18.004 
X112.407 Y18.011 
X112.346 Y18.027 
X112.286 Y18.05 
X112.234 Y18.079 
X112.184 Y18.116 
X112.137 Y18.16 
X112.096 Y18.208 
X112.063 Y18.26 
X112.038 Y18.314 
X112.019 Y18.375 
X112.006 Y18.438 
X112.003 Y18.5 
X112.006 Y18.561 
X112.019 Y18.624 
X112.038 Y18.685 
X112.063 Y18.739 
X112.096 Y18.791 
X112.137 Y18.839 
X112.184 Y18.883 
X112.234 Y18.92 
X112.286 Y18.949 
X112.346 Y18.972 
X112.407 Y18.988 
X112.467 Y18.996 
X112.5 Y18.996 
G02 X112.5 Y17.996 I0 J-0.5 
G01 Z-17 F100
G02 X112.5 Y18.996 I0 J0.5 F300
G01 X112.532 Y18.996 
X112.592 Y18.988 
X112.653 Y18.972 
X112.713 Y18.949 
X112.765 Y18.92 
X112.815 Y18.883 
X112.862 Y18.839 
X112.903 Y18.791 
X112.936 Y18.739 
X112.961 Y18.685 
X112.98 Y18.624 
X112.993 Y18.561 
X112.996 Y18.5 
X112.993 Y18.438 
X112.98 Y18.375 
X112.961 Y18.314 
X112.936 Y18.26 
X112.903 Y18.208 
X112.862 Y18.16 
X112.815 Y18.116 
X112.765 Y18.079 
X112.713 Y18.05 
X112.653 Y18.027 
X112.592 Y18.011 
X112.532 Y18.004 
X112.467 Y18.004 
X112.407 Y18.011 
X112.346 Y18.027 
X112.286 Y18.05 
X112.234 Y18.079 
X112.184 Y18.116 
X112.137 Y18.16 
X112.096 Y18.208 
X112.063 Y18.26 
X112.038 Y18.314 
X112.019 Y18.375 
X112.006 Y18.438 
X112.003 Y18.5 
X112.006 Y18.561 
X112.019 Y18.624 
X112.038 Y18.685 
X112.063 Y18.739 
X112.096 Y18.791 
X112.137 Y18.839 
X112.184 Y18.883 
X112.234 Y18.92 
X112.286 Y18.949 
X112.346 Y18.972 
X112.407 Y18.988 
X112.467 Y18.996 
X112.5 Y18.996 
G02 X112.5 Y17.996 I0 J-0.5 
G00 Z5
G90
(Sketch 149)
X195 Y93.511 S7000 M03
Z2
G01 Z-2.833 F100
G02 X195 Y92.511 I0 J-0.5 F300
G01 X144.168 Y92.511 
X143.671 Y92.573 
X143.185 Y92.698 
X142.718 Y92.883 
X142.278 Y93.125 
X141.872 Y93.419 
X141.507 Y93.763 
X141.186 Y94.15 
X140.918 Y94.573 
X140.704 Y95.028 
X140.548 Y95.505 
X140.455 Y95.999 
X140.423 Y96.5 
X140.455 Y97 
X140.548 Y97.494 
X140.704 Y97.971 
X140.918 Y98.426 
X141.186 Y98.849 
X141.521 Y99.254 
X192.034 Y149.767 
X192.451 Y150.158 
X192.858 Y150.454 
X193.298 Y150.696 
X193.764 Y150.88 
X194.251 Y151.005 
X194.749 Y151.069 
X195.25 Y151.069 
X195.748 Y151.005 
X196.235 Y150.88 
X196.701 Y150.696 
X197.141 Y150.454 
X197.548 Y150.158 
X197.965 Y149.767 
X248.478 Y99.254 
X248.813 Y98.849 
X249.081 Y98.426 
X249.295 Y97.971 
X249.451 Y97.494 
X249.544 Y97 
X249.576 Y96.5 
X249.544 Y95.999 
X249.451 Y95.505 
X249.295 Y95.028 
X249.081 Y94.573 
X248.813 Y94.15 
X248.492 Y93.763 
X248.127 Y93.419 
X247.721 Y93.125 
X247.281 Y92.883 
X246.814 Y92.698 
X246.328 Y92.573 
X245.831 Y92.511 
X195 Y92.511 
G02 X195 Y93.511 I0 J0.5 
G01 Z-5.666 F100
G02 X195 Y92.511 I0 J-0.5 F300
G01 X144.168 Y92.511 
X143.671 Y92.573 
X143.185 Y92.698 
X142.718 Y92.883 
X142.278 Y93.125 
X141.872 Y93.419 
X141.507 Y93.763 
X141.186 Y94.15 
X140.918 Y94.573 
X140.704 Y95.028 
X140.548 Y95.505 
X140.455 Y95.999 
X140.423 Y96.5 
X140.455 Y97 
X140.548 Y97.494 
X140.704 Y97.971 
X140.918 Y98.426 
X141.186 Y98.849 
X141.521 Y99.254 
X192.034 Y149.767 
X192.451 Y150.158 
X192.858 Y150.454 
X193.298 Y150.696 
X193.764 Y150.88 
X194.251 Y151.005 
X194.749 Y151.069 
X195.25 Y151.069 
X195.748 Y151.005 
X196.235 Y150.88 
X196.701 Y150.696 
X197.141 Y150.454 
X197.548 Y150.158 
X197.965 Y149.767 
X248.478 Y99.254 
X248.813 Y98.849 
X249.081 Y98.426 
X249.295 Y97.971 
X249.451 Y97.494 
X249.544 Y97 
X249.576 Y96.5 
X249.544 Y95.999 
X249.451 Y95.505 
X249.295 Y95.028 
X249.081 Y94.573 
X248.813 Y94.15 
X248.492 Y93.763 
X248.127 Y93.419 
X247.721 Y93.125 
X247.281 Y92.883 
X246.814 Y92.698 
X246.328 Y92.573 
X245.831 Y92.511 
X195 Y92.511 
G02 X195 Y93.511 I0 J0.5 
G01 Z-8.5 F100
G02 X195 Y92.511 I0 J-0.5 F300
G01 X144.168 Y92.511 
X143.671 Y92.573 
X143.185 Y92.698 
X142.718 Y92.883 
X142.278 Y93.125 
X141.872 Y93.419 
X141.507 Y93.763 
X141.186 Y94.15 
X140.918 Y94.573 
X140.704 Y95.028 
X140.548 Y95.505 
X140.455 Y95.999 
X140.423 Y96.5 
X140.455 Y97 
X140.548 Y97.494 
X140.704 Y97.971 
X140.918 Y98.426 
X141.186 Y98.849 
X141.521 Y99.254 
X192.034 Y149.767 
X192.451 Y150.158 
X192.858 Y150.454 
X193.298 Y150.696 
X193.764 Y150.88 
X194.251 Y151.005 
X194.749 Y151.069 
X195.25 Y151.069 
X195.748 Y151.005 
X196.235 Y150.88 
X196.701 Y150.696 
X197.141 Y150.454 
X197.548 Y150.158 
X197.965 Y149.767 
X248.478 Y99.254 
X248.813 Y98.849 
X249.081 Y98.426 
X249.295 Y97.971 
X249.451 Y97.494 
X249.544 Y97 
X249.576 Y96.5 
X249.544 Y95.999 
X249.451 Y95.505 
X249.295 Y95.028 
X249.081 Y94.573 
X248.813 Y94.15 
X248.492 Y93.763 
X248.127 Y93.419 
X247.721 Y93.125 
X247.281 Y92.883 
X246.814 Y92.698 
X246.328 Y92.573 
X245.831 Y92.511 
X195 Y92.511 
G02 X195 Y93.511 I0 J0.5 
G01 Z-11.333 F100
G02 X195 Y92.511 I0 J-0.5 F300
G01 X144.168 Y92.511 
X143.671 Y92.573 
X143.185 Y92.698 
X142.718 Y92.883 
X142.278 Y93.125 
X141.872 Y93.419 
X141.507 Y93.763 
X141.186 Y94.15 
X140.918 Y94.573 
X140.704 Y95.028 
X140.548 Y95.505 
X140.455 Y95.999 
X140.423 Y96.5 
X140.455 Y97 
X140.548 Y97.494 
X140.704 Y97.971 
X140.918 Y98.426 
X141.186 Y98.849 
X141.521 Y99.254 
X192.034 Y149.767 
X192.451 Y150.158 
X192.858 Y150.454 
X193.298 Y150.696 
X193.764 Y150.88 
X194.251 Y151.005 
X194.749 Y151.069 
X195.25 Y151.069 
X195.748 Y151.005 
X196.235 Y150.88 
X196.701 Y150.696 
X197.141 Y150.454 
X197.548 Y150.158 
X197.965 Y149.767 
X248.478 Y99.254 
X248.813 Y98.849 
X249.081 Y98.426 
X249.295 Y97.971 
X249.451 Y97.494 
X249.544 Y97 
X249.576 Y96.5 
X249.544 Y95.999 
X249.451 Y95.505 
X249.295 Y95.028 
X249.081 Y94.573 
X248.813 Y94.15 
X248.492 Y93.763 
X248.127 Y93.419 
X247.721 Y93.125 
X247.281 Y92.883 
X246.814 Y92.698 
X246.328 Y92.573 
X245.831 Y92.511 
X195 Y92.511 
G02 X195 Y93.511 I0 J0.5 
G01 Z-14.166 F100
G02 X195 Y92.511 I0 J-0.5 F300
G01 X144.168 Y92.511 
X143.671 Y92.573 
X143.185 Y92.698 
X142.718 Y92.883 
X142.278 Y93.125 
X141.872 Y93.419 
X141.507 Y93.763 
X141.186 Y94.15 
X140.918 Y94.573 
X140.704 Y95.028 
X140.548 Y95.505 
X140.455 Y95.999 
X140.423 Y96.5 
X140.455 Y97 
X140.548 Y97.494 
X140.704 Y97.971 
X140.918 Y98.426 
X141.186 Y98.849 
X141.521 Y99.254 
X192.034 Y149.767 
X192.451 Y150.158 
X192.858 Y150.454 
X193.298 Y150.696 
X193.764 Y150.88 
X194.251 Y151.005 
X194.749 Y151.069 
X195.25 Y151.069 
X195.748 Y151.005 
X196.235 Y150.88 
X196.701 Y150.696 
X197.141 Y150.454 
X197.548 Y150.158 
X197.965 Y149.767 
X248.478 Y99.254 
X248.813 Y98.849 
X249.081 Y98.426 
X249.295 Y97.971 
X249.451 Y97.494 
X249.544 Y97 
X249.576 Y96.5 
X249.544 Y95.999 
X249.451 Y95.505 
X249.295 Y95.028 
X249.081 Y94.573 
X248.813 Y94.15 
X248.492 Y93.763 
X248.127 Y93.419 
X247.721 Y93.125 
X247.281 Y92.883 
X246.814 Y92.698 
X246.328 Y92.573 
X245.831 Y92.511 
X195 Y92.511 
G02 X195 Y93.511 I0 J0.5 
G01 Z-17 F100
G02 X195 Y92.511 I0 J-0.5 F300
G01 X144.168 Y92.511 
X143.671 Y92.573 
X143.185 Y92.698 
X142.718 Y92.883 
X142.278 Y93.125 
X141.872 Y93.419 
X141.507 Y93.763 
X141.186 Y94.15 
X140.918 Y94.573 
X140.704 Y95.028 
X140.548 Y95.505 
X140.455 Y95.999 
X140.423 Y96.5 
X140.455 Y97 
X140.548 Y97.494 
X140.704 Y97.971 
X140.918 Y98.426 
X141.186 Y98.849 
X141.521 Y99.254 
X192.034 Y149.767 
X192.451 Y150.158 
X192.858 Y150.454 
X193.298 Y150.696 
X193.764 Y150.88 
X194.251 Y151.005 
X194.749 Y151.069 
X195.25 Y151.069 
X195.748 Y151.005 
X196.235 Y150.88 
X196.701 Y150.696 
X197.141 Y150.454 
X197.548 Y150.158 
X197.965 Y149.767 
X248.478 Y99.254 
X248.813 Y98.849 
X249.081 Y98.426 
X249.295 Y97.971 
X249.451 Y97.494 
X249.544 Y97 
X249.576 Y96.5 
X249.544 Y95.999 
X249.451 Y95.505 
X249.295 Y95.028 
X249.081 Y94.573 
X248.813 Y94.15 
X248.492 Y93.763 
X248.127 Y93.419 
X247.721 Y93.125 
X247.281 Y92.883 
X246.814 Y92.698 
X246.328 Y92.573 
X245.831 Y92.511 
X195 Y92.511 
G02 X195 Y93.511 I0 J0.5 
G00 Z5
G90
(Sketch 97)
X194.998 Y52.005 S7000 M03
Z2
G01 Z-2.833 F100
G02 X194.751 Y51.036 I-0.123 J-0.484 F300
G01 X194.692 Y51.051 
X194.576 Y51.097 
X194.464 Y51.158 
X194.365 Y51.23 
X194.273 Y51.317 
X194.192 Y51.415 
X194.126 Y51.518 
X194.073 Y51.632 
X194.034 Y51.752 
X194.01 Y51.876 
X194.003 Y52 
X194.01 Y52.123 
X194.034 Y52.247 
X194.073 Y52.367 
X194.126 Y52.481 
X194.192 Y52.584 
X194.273 Y52.682 
X194.365 Y52.769 
X194.464 Y52.841 
X194.576 Y52.902 
X194.692 Y52.948 
X194.812 Y52.979 
X194.936 Y52.995 
X195.063 Y52.995 
X195.187 Y52.979 
X195.307 Y52.948 
X195.423 Y52.902 
X195.535 Y52.841 
X195.634 Y52.769 
X195.726 Y52.682 
X195.807 Y52.584 
X195.873 Y52.481 
X195.926 Y52.367 
X195.965 Y52.247 
X195.989 Y52.123 
X195.996 Y52 
X195.989 Y51.876 
X195.965 Y51.752 
X195.926 Y51.632 
X195.873 Y51.518 
X195.807 Y51.415 
X195.726 Y51.317 
X195.634 Y51.23 
X195.535 Y51.158 
X195.423 Y51.097 
X195.307 Y51.051 
X195.187 Y51.02 
X195.063 Y51.005 
X194.936 Y51.005 
X194.812 Y51.02 
X194.751 Y51.036 
G02 X194.998 Y52.005 I0.123 J0.484 
G01 Z-5.666 F100
G02 X194.751 Y51.036 I-0.123 J-0.484 F300
G01 X194.692 Y51.051 
X194.576 Y51.097 
X194.464 Y51.158 
X194.365 Y51.23 
X194.273 Y51.317 
X194.192 Y51.415 
X194.126 Y51.518 
X194.073 Y51.632 
X194.034 Y51.752 
X194.01 Y51.876 
X194.003 Y52 
X194.01 Y52.123 
X194.034 Y52.247 
X194.073 Y52.367 
X194.126 Y52.481 
X194.192 Y52.584 
X194.273 Y52.682 
X194.365 Y52.769 
X194.464 Y52.841 
X194.576 Y52.902 
X194.692 Y52.948 
X194.812 Y52.979 
X194.936 Y52.995 
X195.063 Y52.995 
X195.187 Y52.979 
X195.307 Y52.948 
X195.423 Y52.902 
X195.535 Y52.841 
X195.634 Y52.769 
X195.726 Y52.682 
X195.807 Y52.584 
X195.873 Y52.481 
X195.926 Y52.367 
X195.965 Y52.247 
X195.989 Y52.123 
X195.996 Y52 
X195.989 Y51.876 
X195.965 Y51.752 
X195.926 Y51.632 
X195.873 Y51.518 
X195.807 Y51.415 
X195.726 Y51.317 
X195.634 Y51.23 
X195.535 Y51.158 
X195.423 Y51.097 
X195.307 Y51.051 
X195.187 Y51.02 
X195.063 Y51.005 
X194.936 Y51.005 
X194.812 Y51.02 
X194.751 Y51.036 
G02 X194.998 Y52.005 I0.123 J0.484 
G01 Z-8.5 F100
G02 X194.751 Y51.036 I-0.123 J-0.484 F300
G01 X194.692 Y51.051 
X194.576 Y51.097 
X194.464 Y51.158 
X194.365 Y51.23 
X194.273 Y51.317 
X194.192 Y51.415 
X194.126 Y51.518 
X194.073 Y51.632 
X194.034 Y51.752 
X194.01 Y51.876 
X194.003 Y52 
X194.01 Y52.123 
X194.034 Y52.247 
X194.073 Y52.367 
X194.126 Y52.481 
X194.192 Y52.584 
X194.273 Y52.682 
X194.365 Y52.769 
X194.464 Y52.841 
X194.576 Y52.902 
X194.692 Y52.948 
X194.812 Y52.979 
X194.936 Y52.995 
X195.063 Y52.995 
X195.187 Y52.979 
X195.307 Y52.948 
X195.423 Y52.902 
X195.535 Y52.841 
X195.634 Y52.769 
X195.726 Y52.682 
X195.807 Y52.584 
X195.873 Y52.481 
X195.926 Y52.367 
X195.965 Y52.247 
X195.989 Y52.123 
X195.996 Y52 
X195.989 Y51.876 
X195.965 Y51.752 
X195.926 Y51.632 
X195.873 Y51.518 
X195.807 Y51.415 
X195.726 Y51.317 
X195.634 Y51.23 
X195.535 Y51.158 
X195.423 Y51.097 
X195.307 Y51.051 
X195.187 Y51.02 
X195.063 Y51.005 
X194.936 Y51.005 
X194.812 Y51.02 
X194.751 Y51.036 
G02 X194.998 Y52.005 I0.123 J0.484 
G01 Z-11.333 F100
G02 X194.751 Y51.036 I-0.123 J-0.484 F300
G01 X194.692 Y51.051 
X194.576 Y51.097 
X194.464 Y51.158 
X194.365 Y51.23 
X194.273 Y51.317 
X194.192 Y51.415 
X194.126 Y51.518 
X194.073 Y51.632 
X194.034 Y51.752 
X194.01 Y51.876 
X194.003 Y52 
X194.01 Y52.123 
X194.034 Y52.247 
X194.073 Y52.367 
X194.126 Y52.481 
X194.192 Y52.584 
X194.273 Y52.682 
X194.365 Y52.769 
X194.464 Y52.841 
X194.576 Y52.902 
X194.692 Y52.948 
X194.812 Y52.979 
X194.936 Y52.995 
X195.063 Y52.995 
X195.187 Y52.979 
X195.307 Y52.948 
X195.423 Y52.902 
X195.535 Y52.841 
X195.634 Y52.769 
X195.726 Y52.682 
X195.807 Y52.584 
X195.873 Y52.481 
X195.926 Y52.367 
X195.965 Y52.247 
X195.989 Y52.123 
X195.996 Y52 
X195.989 Y51.876 
X195.965 Y51.752 
X195.926 Y51.632 
X195.873 Y51.518 
X195.807 Y51.415 
X195.726 Y51.317 
X195.634 Y51.23 
X195.535 Y51.158 
X195.423 Y51.097 
X195.307 Y51.051 
X195.187 Y51.02 
X195.063 Y51.005 
X194.936 Y51.005 
X194.812 Y51.02 
X194.751 Y51.036 
G02 X194.998 Y52.005 I0.123 J0.484 
G01 Z-14.166 F100
G02 X194.751 Y51.036 I-0.123 J-0.484 F300
G01 X194.692 Y51.051 
X194.576 Y51.097 
X194.464 Y51.158 
X194.365 Y51.23 
X194.273 Y51.317 
X194.192 Y51.415 
X194.126 Y51.518 
X194.073 Y51.632 
X194.034 Y51.752 
X194.01 Y51.876 
X194.003 Y52 
X194.01 Y52.123 
X194.034 Y52.247 
X194.073 Y52.367 
X194.126 Y52.481 
X194.192 Y52.584 
X194.273 Y52.682 
X194.365 Y52.769 
X194.464 Y52.841 
X194.576 Y52.902 
X194.692 Y52.948 
X194.812 Y52.979 
X194.936 Y52.995 
X195.063 Y52.995 
X195.187 Y52.979 
X195.307 Y52.948 
X195.423 Y52.902 
X195.535 Y52.841 
X195.634 Y52.769 
X195.726 Y52.682 
X195.807 Y52.584 
X195.873 Y52.481 
X195.926 Y52.367 
X195.965 Y52.247 
X195.989 Y52.123 
X195.996 Y52 
X195.989 Y51.876 
X195.965 Y51.752 
X195.926 Y51.632 
X195.873 Y51.518 
X195.807 Y51.415 
X195.726 Y51.317 
X195.634 Y51.23 
X195.535 Y51.158 
X195.423 Y51.097 
X195.307 Y51.051 
X195.187 Y51.02 
X195.063 Y51.005 
X194.936 Y51.005 
X194.812 Y51.02 
X194.751 Y51.036 
G02 X194.998 Y52.005 I0.123 J0.484 
G01 Z-17 F100
G02 X194.751 Y51.036 I-0.123 J-0.484 F300
G01 X194.692 Y51.051 
X194.576 Y51.097 
X194.464 Y51.158 
X194.365 Y51.23 
X194.273 Y51.317 
X194.192 Y51.415 
X194.126 Y51.518 
X194.073 Y51.632 
X194.034 Y51.752 
X194.01 Y51.876 
X194.003 Y52 
X194.01 Y52.123 
X194.034 Y52.247 
X194.073 Y52.367 
X194.126 Y52.481 
X194.192 Y52.584 
X194.273 Y52.682 
X194.365 Y52.769 
X194.464 Y52.841 
X194.576 Y52.902 
X194.692 Y52.948 
X194.812 Y52.979 
X194.936 Y52.995 
X195.063 Y52.995 
X195.187 Y52.979 
X195.307 Y52.948 
X195.423 Y52.902 
X195.535 Y52.841 
X195.634 Y52.769 
X195.726 Y52.682 
X195.807 Y52.584 
X195.873 Y52.481 
X195.926 Y52.367 
X195.965 Y52.247 
X195.989 Y52.123 
X195.996 Y52 
X195.989 Y51.876 
X195.965 Y51.752 
X195.926 Y51.632 
X195.873 Y51.518 
X195.807 Y51.415 
X195.726 Y51.317 
X195.634 Y51.23 
X195.535 Y51.158 
X195.423 Y51.097 
X195.307 Y51.051 
X195.187 Y51.02 
X195.063 Y51.005 
X194.936 Y51.005 
X194.812 Y51.02 
X194.751 Y51.036 
G02 X194.998 Y52.005 I0.123 J0.484 
G00 Z5
G90
(Sketch 132)
X195 Y24 S7000 M03
Z2
G01 Z-2.833 F100
G02 X195 Y25 I0 J0.5 F300
G01 X203.5 Y25 
X203.5 Y12 
X186.5 Y12 
X186.5 Y25 
X195 Y25 
G02 X195 Y24 I0 J-0.5 
G01 Z-5.666 F100
G02 X195 Y25 I0 J0.5 F300
G01 X203.5 Y25 
X203.5 Y12 
X186.5 Y12 
X186.5 Y25 
X195 Y25 
G02 X195 Y24 I0 J-0.5 
G01 Z-8.5 F100
G02 X195 Y25 I0 J0.5 F300
G01 X203.5 Y25 
X203.5 Y12 
X186.5 Y12 
X186.5 Y25 
X195 Y25 
G02 X195 Y24 I0 J-0.5 
G01 Z-11.333 F100
G02 X195 Y25 I0 J0.5 F300
G01 X203.5 Y25 
X203.5 Y12 
X186.5 Y12 
X186.5 Y25 
X195 Y25 
G02 X195 Y24 I0 J-0.5 
G01 Z-14.166 F100
G02 X195 Y25 I0 J0.5 F300
G01 X203.5 Y25 
X203.5 Y12 
X186.5 Y12 
X186.5 Y25 
X195 Y25 
G02 X195 Y24 I0 J-0.5 
G01 Z-17 F100
G02 X195 Y25 I0 J0.5 F300
G01 X203.5 Y25 
X203.5 Y12 
X186.5 Y12 
X186.5 Y25 
X195 Y25 
G02 X195 Y24 I0 J-0.5 
G00 Z5
G90
(Sketch 164)
X277.5 Y17.996 S7000 M03
Z2
G01 Z-2.833 F100
G02 X277.5 Y18.996 I0 J0.5 F300
G01 X277.532 Y18.996 
X277.592 Y18.988 
X277.653 Y18.972 
X277.713 Y18.949 
X277.765 Y18.92 
X277.815 Y18.883 
X277.862 Y18.839 
X277.903 Y18.791 
X277.936 Y18.739 
X277.961 Y18.685 
X277.98 Y18.624 
X277.993 Y18.561 
X277.996 Y18.5 
X277.993 Y18.438 
X277.98 Y18.375 
X277.961 Y18.314 
X277.936 Y18.26 
X277.903 Y18.208 
X277.862 Y18.16 
X277.815 Y18.116 
X277.765 Y18.079 
X277.713 Y18.05 
X277.653 Y18.027 
X277.592 Y18.011 
X277.532 Y18.004 
X277.467 Y18.004 
X277.407 Y18.011 
X277.346 Y18.027 
X277.286 Y18.05 
X277.234 Y18.079 
X277.184 Y18.116 
X277.137 Y18.16 
X277.096 Y18.208 
X277.063 Y18.26 
X277.038 Y18.314 
X277.019 Y18.375 
X277.006 Y18.438 
X277.003 Y18.5 
X277.006 Y18.561 
X277.019 Y18.624 
X277.038 Y18.685 
X277.063 Y18.739 
X277.096 Y18.791 
X277.137 Y18.839 
X277.184 Y18.883 
X277.234 Y18.92 
X277.286 Y18.949 
X277.346 Y18.972 
X277.407 Y18.988 
X277.467 Y18.996 
X277.5 Y18.996 
G02 X277.5 Y17.996 I0 J-0.5 
G01 Z-5.666 F100
G02 X277.5 Y18.996 I0 J0.5 F300
G01 X277.532 Y18.996 
X277.592 Y18.988 
X277.653 Y18.972 
X277.713 Y18.949 
X277.765 Y18.92 
X277.815 Y18.883 
X277.862 Y18.839 
X277.903 Y18.791 
X277.936 Y18.739 
X277.961 Y18.685 
X277.98 Y18.624 
X277.993 Y18.561 
X277.996 Y18.5 
X277.993 Y18.438 
X277.98 Y18.375 
X277.961 Y18.314 
X277.936 Y18.26 
X277.903 Y18.208 
X277.862 Y18.16 
X277.815 Y18.116 
X277.765 Y18.079 
X277.713 Y18.05 
X277.653 Y18.027 
X277.592 Y18.011 
X277.532 Y18.004 
X277.467 Y18.004 
X277.407 Y18.011 
X277.346 Y18.027 
X277.286 Y18.05 
X277.234 Y18.079 
X277.184 Y18.116 
X277.137 Y18.16 
X277.096 Y18.208 
X277.063 Y18.26 
X277.038 Y18.314 
X277.019 Y18.375 
X277.006 Y18.438 
X277.003 Y18.5 
X277.006 Y18.561 
X277.019 Y18.624 
X277.038 Y18.685 
X277.063 Y18.739 
X277.096 Y18.791 
X277.137 Y18.839 
X277.184 Y18.883 
X277.234 Y18.92 
X277.286 Y18.949 
X277.346 Y18.972 
X277.407 Y18.988 
X277.467 Y18.996 
X277.5 Y18.996 
G02 X277.5 Y17.996 I0 J-0.5 
G01 Z-8.5 F100
G02 X277.5 Y18.996 I0 J0.5 F300
G01 X277.532 Y18.996 
X277.592 Y18.988 
X277.653 Y18.972 
X277.713 Y18.949 
X277.765 Y18.92 
X277.815 Y18.883 
X277.862 Y18.839 
X277.903 Y18.791 
X277.936 Y18.739 
X277.961 Y18.685 
X277.98 Y18.624 
X277.993 Y18.561 
X277.996 Y18.5 
X277.993 Y18.438 
X277.98 Y18.375 
X277.961 Y18.314 
X277.936 Y18.26 
X277.903 Y18.208 
X277.862 Y18.16 
X277.815 Y18.116 
X277.765 Y18.079 
X277.713 Y18.05 
X277.653 Y18.027 
X277.592 Y18.011 
X277.532 Y18.004 
X277.467 Y18.004 
X277.407 Y18.011 
X277.346 Y18.027 
X277.286 Y18.05 
X277.234 Y18.079 
X277.184 Y18.116 
X277.137 Y18.16 
X277.096 Y18.208 
X277.063 Y18.26 
X277.038 Y18.314 
X277.019 Y18.375 
X277.006 Y18.438 
X277.003 Y18.5 
X277.006 Y18.561 
X277.019 Y18.624 
X277.038 Y18.685 
X277.063 Y18.739 
X277.096 Y18.791 
X277.137 Y18.839 
X277.184 Y18.883 
X277.234 Y18.92 
X277.286 Y18.949 
X277.346 Y18.972 
X277.407 Y18.988 
X277.467 Y18.996 
X277.5 Y18.996 
G02 X277.5 Y17.996 I0 J-0.5 
G01 Z-11.333 F100
G02 X277.5 Y18.996 I0 J0.5 F300
G01 X277.532 Y18.996 
X277.592 Y18.988 
X277.653 Y18.972 
X277.713 Y18.949 
X277.765 Y18.92 
X277.815 Y18.883 
X277.862 Y18.839 
X277.903 Y18.791 
X277.936 Y18.739 
X277.961 Y18.685 
X277.98 Y18.624 
X277.993 Y18.561 
X277.996 Y18.5 
X277.993 Y18.438 
X277.98 Y18.375 
X277.961 Y18.314 
X277.936 Y18.26 
X277.903 Y18.208 
X277.862 Y18.16 
X277.815 Y18.116 
X277.765 Y18.079 
X277.713 Y18.05 
X277.653 Y18.027 
X277.592 Y18.011 
X277.532 Y18.004 
X277.467 Y18.004 
X277.407 Y18.011 
X277.346 Y18.027 
X277.286 Y18.05 
X277.234 Y18.079 
X277.184 Y18.116 
X277.137 Y18.16 
X277.096 Y18.208 
X277.063 Y18.26 
X277.038 Y18.314 
X277.019 Y18.375 
X277.006 Y18.438 
X277.003 Y18.5 
X277.006 Y18.561 
X277.019 Y18.624 
X277.038 Y18.685 
X277.063 Y18.739 
X277.096 Y18.791 
X277.137 Y18.839 
X277.184 Y18.883 
X277.234 Y18.92 
X277.286 Y18.949 
X277.346 Y18.972 
X277.407 Y18.988 
X277.467 Y18.996 
X277.5 Y18.996 
G02 X277.5 Y17.996 I0 J-0.5 
G01 Z-14.166 F100
G02 X277.5 Y18.996 I0 J0.5 F300
G01 X277.532 Y18.996 
X277.592 Y18.988 
X277.653 Y18.972 
X277.713 Y18.949 
X277.765 Y18.92 
X277.815 Y18.883 
X277.862 Y18.839 
X277.903 Y18.791 
X277.936 Y18.739 
X277.961 Y18.685 
X277.98 Y18.624 
X277.993 Y18.561 
X277.996 Y18.5 
X277.993 Y18.438 
X277.98 Y18.375 
X277.961 Y18.314 
X277.936 Y18.26 
X277.903 Y18.208 
X277.862 Y18.16 
X277.815 Y18.116 
X277.765 Y18.079 
X277.713 Y18.05 
X277.653 Y18.027 
X277.592 Y18.011 
X277.532 Y18.004 
X277.467 Y18.004 
X277.407 Y18.011 
X277.346 Y18.027 
X277.286 Y18.05 
X277.234 Y18.079 
X277.184 Y18.116 
X277.137 Y18.16 
X277.096 Y18.208 
X277.063 Y18.26 
X277.038 Y18.314 
X277.019 Y18.375 
X277.006 Y18.438 
X277.003 Y18.5 
X277.006 Y18.561 
X277.019 Y18.624 
X277.038 Y18.685 
X277.063 Y18.739 
X277.096 Y18.791 
X277.137 Y18.839 
X277.184 Y18.883 
X277.234 Y18.92 
X277.286 Y18.949 
X277.346 Y18.972 
X277.407 Y18.988 
X277.467 Y18.996 
X277.5 Y18.996 
G02 X277.5 Y17.996 I0 J-0.5 
G01 Z-17 F100
G02 X277.5 Y18.996 I0 J0.5 F300
G01 X277.532 Y18.996 
X277.592 Y18.988 
X277.653 Y18.972 
X277.713 Y18.949 
X277.765 Y18.92 
X277.815 Y18.883 
X277.862 Y18.839 
X277.903 Y18.791 
X277.936 Y18.739 
X277.961 Y18.685 
X277.98 Y18.624 
X277.993 Y18.561 
X277.996 Y18.5 
X277.993 Y18.438 
X277.98 Y18.375 
X277.961 Y18.314 
X277.936 Y18.26 
X277.903 Y18.208 
X277.862 Y18.16 
X277.815 Y18.116 
X277.765 Y18.079 
X277.713 Y18.05 
X277.653 Y18.027 
X277.592 Y18.011 
X277.532 Y18.004 
X277.467 Y18.004 
X277.407 Y18.011 
X277.346 Y18.027 
X277.286 Y18.05 
X277.234 Y18.079 
X277.184 Y18.116 
X277.137 Y18.16 
X277.096 Y18.208 
X277.063 Y18.26 
X277.038 Y18.314 
X277.019 Y18.375 
X277.006 Y18.438 
X277.003 Y18.5 
X277.006 Y18.561 
X277.019 Y18.624 
X277.038 Y18.685 
X277.063 Y18.739 
X277.096 Y18.791 
X277.137 Y18.839 
X277.184 Y18.883 
X277.234 Y18.92 
X277.286 Y18.949 
X277.346 Y18.972 
X277.407 Y18.988 
X277.467 Y18.996 
X277.5 Y18.996 
G02 X277.5 Y17.996 I0 J-0.5 
G00 Z5
G90
(Sketch 131)
X340 Y24 S7000 M03
Z2
G01 Z-2.833 F100
G02 X340 Y25 I0 J0.5 F300
G01 X348.5 Y25 
X348.5 Y12 
X331.5 Y12 
X331.5 Y25 
X340 Y25 
G02 X340 Y24 I0 J-0.5 
G01 Z-5.666 F100
G02 X340 Y25 I0 J0.5 F300
G01 X348.5 Y25 
X348.5 Y12 
X331.5 Y12 
X331.5 Y25 
X340 Y25 
G02 X340 Y24 I0 J-0.5 
G01 Z-8.5 F100
G02 X340 Y25 I0 J0.5 F300
G01 X348.5 Y25 
X348.5 Y12 
X331.5 Y12 
X331.5 Y25 
X340 Y25 
G02 X340 Y24 I0 J-0.5 
G01 Z-11.333 F100
G02 X340 Y25 I0 J0.5 F300
G01 X348.5 Y25 
X348.5 Y12 
X331.5 Y12 
X331.5 Y25 
X340 Y25 
G02 X340 Y24 I0 J-0.5 
G01 Z-14.166 F100
G02 X340 Y25 I0 J0.5 F300
G01 X348.5 Y25 
X348.5 Y12 
X331.5 Y12 
X331.5 Y25 
X340 Y25 
G02 X340 Y24 I0 J-0.5 
G01 Z-17 F100
G02 X340 Y25 I0 J0.5 F300
G01 X348.5 Y25 
X348.5 Y12 
X331.5 Y12 
X331.5 Y25 
X340 Y25 
G02 X340 Y24 I0 J-0.5 
G00 Z5
G90
(Sketch 148)
X280.489 Y179 S7000 M03
Z2
G01 Z-2.833 F100
G02 X281.489 Y179 I0.5 J0 F300
G01 X281.489 Y128.168 
X281.426 Y127.671 
X281.301 Y127.185 
X281.116 Y126.718 
X280.874 Y126.278 
X280.58 Y125.872 
X280.236 Y125.507 
X279.849 Y125.186 
X279.426 Y124.918 
X278.971 Y124.704 
X278.494 Y124.548 
X278 Y124.455 
X277.5 Y124.423 
X276.999 Y124.455 
X276.505 Y124.548 
X276.028 Y124.704 
X275.573 Y124.918 
X275.15 Y125.186 
X274.745 Y125.521 
X224.232 Y176.034 
X223.841 Y176.451 
X223.545 Y176.858 
X223.303 Y177.298 
X223.119 Y177.764 
X222.994 Y178.251 
X222.931 Y178.749 
X222.931 Y179.25 
X222.994 Y179.748 
X223.119 Y180.235 
X223.303 Y180.701 
X223.545 Y181.141 
X223.841 Y181.548 
X224.232 Y181.965 
X274.745 Y232.478 
X275.15 Y232.813 
X275.573 Y233.081 
X276.028 Y233.295 
X276.505 Y233.451 
X276.999 Y233.544 
X277.5 Y233.576 
X278 Y233.544 
X278.494 Y233.451 
X278.971 Y233.295 
X279.426 Y233.081 
X279.849 Y232.813 
X280.236 Y232.492 
X280.58 Y232.127 
X280.874 Y231.721 
X281.116 Y231.281 
X281.301 Y230.814 
X281.426 Y230.328 
X281.489 Y229.831 
X281.489 Y179 
G02 X280.489 Y179 I-0.5 J0 
G01 Z-5.666 F100
G02 X281.489 Y179 I0.5 J0 F300
G01 X281.489 Y128.168 
X281.426 Y127.671 
X281.301 Y127.185 
X281.116 Y126.718 
X280.874 Y126.278 
X280.58 Y125.872 
X280.236 Y125.507 
X279.849 Y125.186 
X279.426 Y124.918 
X278.971 Y124.704 
X278.494 Y124.548 
X278 Y124.455 
X277.5 Y124.423 
X276.999 Y124.455 
X276.505 Y124.548 
X276.028 Y124.704 
X275.573 Y124.918 
X275.15 Y125.186 
X274.745 Y125.521 
X224.232 Y176.034 
X223.841 Y176.451 
X223.545 Y176.858 
X223.303 Y177.298 
X223.119 Y177.764 
X222.994 Y178.251 
X222.931 Y178.749 
X222.931 Y179.25 
X222.994 Y179.748 
X223.119 Y180.235 
X223.303 Y180.701 
X223.545 Y181.141 
X223.841 Y181.548 
X224.232 Y181.965 
X274.745 Y232.478 
X275.15 Y232.813 
X275.573 Y233.081 
X276.028 Y233.295 
X276.505 Y233.451 
X276.999 Y233.544 
X277.5 Y233.576 
X278 Y233.544 
X278.494 Y233.451 
X278.971 Y233.295 
X279.426 Y233.081 
X279.849 Y232.813 
X280.236 Y232.492 
X280.58 Y232.127 
X280.874 Y231.721 
X281.116 Y231.281 
X281.301 Y230.814 
X281.426 Y230.328 
X281.489 Y229.831 
X281.489 Y179 
G02 X280.489 Y179 I-0.5 J0 
G01 Z-8.5 F100
G02 X281.489 Y179 I0.5 J0 F300
G01 X281.489 Y128.168 
X281.426 Y127.671 
X281.301 Y127.185 
X281.116 Y126.718 
X280.874 Y126.278 
X280.58 Y125.872 
X280.236 Y125.507 
X279.849 Y125.186 
X279.426 Y124.918 
X278.971 Y124.704 
X278.494 Y124.548 
X278 Y124.455 
X277.5 Y124.423 
X276.999 Y124.455 
X276.505 Y124.548 
X276.028 Y124.704 
X275.573 Y124.918 
X275.15 Y125.186 
X274.745 Y125.521 
X224.232 Y176.034 
X223.841 Y176.451 
X223.545 Y176.858 
X223.303 Y177.298 
X223.119 Y177.764 
X222.994 Y178.251 
X222.931 Y178.749 
X222.931 Y179.25 
X222.994 Y179.748 
X223.119 Y180.235 
X223.303 Y180.701 
X223.545 Y181.141 
X223.841 Y181.548 
X224.232 Y181.965 
X274.745 Y232.478 
X275.15 Y232.813 
X275.573 Y233.081 
X276.028 Y233.295 
X276.505 Y233.451 
X276.999 Y233.544 
X277.5 Y233.576 
X278 Y233.544 
X278.494 Y233.451 
X278.971 Y233.295 
X279.426 Y233.081 
X279.849 Y232.813 
X280.236 Y232.492 
X280.58 Y232.127 
X280.874 Y231.721 
X281.116 Y231.281 
X281.301 Y230.814 
X281.426 Y230.328 
X281.489 Y229.831 
X281.489 Y179 
G02 X280.489 Y179 I-0.5 J0 
G01 Z-11.333 F100
G02 X281.489 Y179 I0.5 J0 F300
G01 X281.489 Y128.168 
X281.426 Y127.671 
X281.301 Y127.185 
X281.116 Y126.718 
X280.874 Y126.278 
X280.58 Y125.872 
X280.236 Y125.507 
X279.849 Y125.186 
X279.426 Y124.918 
X278.971 Y124.704 
X278.494 Y124.548 
X278 Y124.455 
X277.5 Y124.423 
X276.999 Y124.455 
X276.505 Y124.548 
X276.028 Y124.704 
X275.573 Y124.918 
X275.15 Y125.186 
X274.745 Y125.521 
X224.232 Y176.034 
X223.841 Y176.451 
X223.545 Y176.858 
X223.303 Y177.298 
X223.119 Y177.764 
X222.994 Y178.251 
X222.931 Y178.749 
X222.931 Y179.25 
X222.994 Y179.748 
X223.119 Y180.235 
X223.303 Y180.701 
X223.545 Y181.141 
X223.841 Y181.548 
X224.232 Y181.965 
X274.745 Y232.478 
X275.15 Y232.813 
X275.573 Y233.081 
X276.028 Y233.295 
X276.505 Y233.451 
X276.999 Y233.544 
X277.5 Y233.576 
X278 Y233.544 
X278.494 Y233.451 
X278.971 Y233.295 
X279.426 Y233.081 
X279.849 Y232.813 
X280.236 Y232.492 
X280.58 Y232.127 
X280.874 Y231.721 
X281.116 Y231.281 
X281.301 Y230.814 
X281.426 Y230.328 
X281.489 Y229.831 
X281.489 Y179 
G02 X280.489 Y179 I-0.5 J0 
G01 Z-14.166 F100
G02 X281.489 Y179 I0.5 J0 F300
G01 X281.489 Y128.168 
X281.426 Y127.671 
X281.301 Y127.185 
X281.116 Y126.718 
X280.874 Y126.278 
X280.58 Y125.872 
X280.236 Y125.507 
X279.849 Y125.186 
X279.426 Y124.918 
X278.971 Y124.704 
X278.494 Y124.548 
X278 Y124.455 
X277.5 Y124.423 
X276.999 Y124.455 
X276.505 Y124.548 
X276.028 Y124.704 
X275.573 Y124.918 
X275.15 Y125.186 
X274.745 Y125.521 
X224.232 Y176.034 
X223.841 Y176.451 
X223.545 Y176.858 
X223.303 Y177.298 
X223.119 Y177.764 
X222.994 Y178.251 
X222.931 Y178.749 
X222.931 Y179.25 
X222.994 Y179.748 
X223.119 Y180.235 
X223.303 Y180.701 
X223.545 Y181.141 
X223.841 Y181.548 
X224.232 Y181.965 
X274.745 Y232.478 
X275.15 Y232.813 
X275.573 Y233.081 
X276.028 Y233.295 
X276.505 Y233.451 
X276.999 Y233.544 
X277.5 Y233.576 
X278 Y233.544 
X278.494 Y233.451 
X278.971 Y233.295 
X279.426 Y233.081 
X279.849 Y232.813 
X280.236 Y232.492 
X280.58 Y232.127 
X280.874 Y231.721 
X281.116 Y231.281 
X281.301 Y230.814 
X281.426 Y230.328 
X281.489 Y229.831 
X281.489 Y179 
G02 X280.489 Y179 I-0.5 J0 
G01 Z-17 F100
G02 X281.489 Y179 I0.5 J0 F300
G01 X281.489 Y128.168 
X281.426 Y127.671 
X281.301 Y127.185 
X281.116 Y126.718 
X280.874 Y126.278 
X280.58 Y125.872 
X280.236 Y125.507 
X279.849 Y125.186 
X279.426 Y124.918 
X278.971 Y124.704 
X278.494 Y124.548 
X278 Y124.455 
X277.5 Y124.423 
X276.999 Y124.455 
X276.505 Y124.548 
X276.028 Y124.704 
X275.573 Y124.918 
X275.15 Y125.186 
X274.745 Y125.521 
X224.232 Y176.034 
X223.841 Y176.451 
X223.545 Y176.858 
X223.303 Y177.298 
X223.119 Y177.764 
X222.994 Y178.251 
X222.931 Y178.749 
X222.931 Y179.25 
X222.994 Y179.748 
X223.119 Y180.235 
X223.303 Y180.701 
X223.545 Y181.141 
X223.841 Y181.548 
X224.232 Y181.965 
X274.745 Y232.478 
X275.15 Y232.813 
X275.573 Y233.081 
X276.028 Y233.295 
X276.505 Y233.451 
X276.999 Y233.544 
X277.5 Y233.576 
X278 Y233.544 
X278.494 Y233.451 
X278.971 Y233.295 
X279.426 Y233.081 
X279.849 Y232.813 
X280.236 Y232.492 
X280.58 Y232.127 
X280.874 Y231.721 
X281.116 Y231.281 
X281.301 Y230.814 
X281.426 Y230.328 
X281.489 Y229.831 
X281.489 Y179 
G02 X280.489 Y179 I-0.5 J0 
G00 Z5
G90
(Sketch 130)
X358.812 Y266.401 S7000 M03
Z2
G01 Z-2.833 F100
G02 X358.687 Y267.393 I-0.062 J0.496 F300
G01 X359.341 Y267.476 
X360.658 Y267.476 
X361.967 Y267.31 
X363.243 Y266.983 
X364.469 Y266.498 
X365.624 Y265.863 
X366.691 Y265.087 
X367.652 Y264.186 
X368.492 Y263.169 
X369.198 Y262.056 
X369.759 Y260.863 
X370.167 Y259.61 
X370.413 Y258.315 
X370.497 Y257 
X370.413 Y255.684 
X370.167 Y254.389 
X369.759 Y253.136 
X369.198 Y251.943 
X368.492 Y250.83 
X367.652 Y249.813 
X366.691 Y248.912 
X365.624 Y248.136 
X364.469 Y247.501 
X363.243 Y247.016 
X361.967 Y246.689 
X360.658 Y246.524 
X359.341 Y246.524 
X358.032 Y246.689 
X356.756 Y247.016 
X355.53 Y247.501 
X354.375 Y248.136 
X353.308 Y248.912 
X352.347 Y249.813 
X351.507 Y250.83 
X350.801 Y251.943 
X350.24 Y253.136 
X349.832 Y254.389 
X349.586 Y255.684 
X349.502 Y257 
X349.586 Y258.315 
X349.832 Y259.61 
X350.24 Y260.863 
X350.801 Y262.056 
X351.507 Y263.169 
X352.347 Y264.186 
X353.308 Y265.087 
X354.375 Y265.863 
X355.53 Y266.498 
X356.756 Y266.983 
X358.032 Y267.31 
X358.687 Y267.393 
G02 X358.812 Y266.401 I0.062 J-0.496 
G01 Z-5.666 F100
G02 X358.687 Y267.393 I-0.062 J0.496 F300
G01 X359.341 Y267.476 
X360.658 Y267.476 
X361.967 Y267.31 
X363.243 Y266.983 
X364.469 Y266.498 
X365.624 Y265.863 
X366.691 Y265.087 
X367.652 Y264.186 
X368.492 Y263.169 
X369.198 Y262.056 
X369.759 Y260.863 
X370.167 Y259.61 
X370.413 Y258.315 
X370.497 Y257 
X370.413 Y255.684 
X370.167 Y254.389 
X369.759 Y253.136 
X369.198 Y251.943 
X368.492 Y250.83 
X367.652 Y249.813 
X366.691 Y248.912 
X365.624 Y248.136 
X364.469 Y247.501 
X363.243 Y247.016 
X361.967 Y246.689 
X360.658 Y246.524 
X359.341 Y246.524 
X358.032 Y246.689 
X356.756 Y247.016 
X355.53 Y247.501 
X354.375 Y248.136 
X353.308 Y248.912 
X352.347 Y249.813 
X351.507 Y250.83 
X350.801 Y251.943 
X350.24 Y253.136 
X349.832 Y254.389 
X349.586 Y255.684 
X349.502 Y257 
X349.586 Y258.315 
X349.832 Y259.61 
X350.24 Y260.863 
X350.801 Y262.056 
X351.507 Y263.169 
X352.347 Y264.186 
X353.308 Y265.087 
X354.375 Y265.863 
X355.53 Y266.498 
X356.756 Y266.983 
X358.032 Y267.31 
X358.687 Y267.393 
G02 X358.812 Y266.401 I0.062 J-0.496 
G01 Z-8.5 F100
G02 X358.687 Y267.393 I-0.062 J0.496 F300
G01 X359.341 Y267.476 
X360.658 Y267.476 
X361.967 Y267.31 
X363.243 Y266.983 
X364.469 Y266.498 
X365.624 Y265.863 
X366.691 Y265.087 
X367.652 Y264.186 
X368.492 Y263.169 
X369.198 Y262.056 
X369.759 Y260.863 
X370.167 Y259.61 
X370.413 Y258.315 
X370.497 Y257 
X370.413 Y255.684 
X370.167 Y254.389 
X369.759 Y253.136 
X369.198 Y251.943 
X368.492 Y250.83 
X367.652 Y249.813 
X366.691 Y248.912 
X365.624 Y248.136 
X364.469 Y247.501 
X363.243 Y247.016 
X361.967 Y246.689 
X360.658 Y246.524 
X359.341 Y246.524 
X358.032 Y246.689 
X356.756 Y247.016 
X355.53 Y247.501 
X354.375 Y248.136 
X353.308 Y248.912 
X352.347 Y249.813 
X351.507 Y250.83 
X350.801 Y251.943 
X350.24 Y253.136 
X349.832 Y254.389 
X349.586 Y255.684 
X349.502 Y257 
X349.586 Y258.315 
X349.832 Y259.61 
X350.24 Y260.863 
X350.801 Y262.056 
X351.507 Y263.169 
X352.347 Y264.186 
X353.308 Y265.087 
X354.375 Y265.863 
X355.53 Y266.498 
X356.756 Y266.983 
X358.032 Y267.31 
X358.687 Y267.393 
G02 X358.812 Y266.401 I0.062 J-0.496 
G01 Z-11.333 F100
G02 X358.687 Y267.393 I-0.062 J0.496 F300
G01 X359.341 Y267.476 
X360.658 Y267.476 
X361.967 Y267.31 
X363.243 Y266.983 
X364.469 Y266.498 
X365.624 Y265.863 
X366.691 Y265.087 
X367.652 Y264.186 
X368.492 Y263.169 
X369.198 Y262.056 
X369.759 Y260.863 
X370.167 Y259.61 
X370.413 Y258.315 
X370.497 Y257 
X370.413 Y255.684 
X370.167 Y254.389 
X369.759 Y253.136 
X369.198 Y251.943 
X368.492 Y250.83 
X367.652 Y249.813 
X366.691 Y248.912 
X365.624 Y248.136 
X364.469 Y247.501 
X363.243 Y247.016 
X361.967 Y246.689 
X360.658 Y246.524 
X359.341 Y246.524 
X358.032 Y246.689 
X356.756 Y247.016 
X355.53 Y247.501 
X354.375 Y248.136 
X353.308 Y248.912 
X352.347 Y249.813 
X351.507 Y250.83 
X350.801 Y251.943 
X350.24 Y253.136 
X349.832 Y254.389 
X349.586 Y255.684 
X349.502 Y257 
X349.586 Y258.315 
X349.832 Y259.61 
X350.24 Y260.863 
X350.801 Y262.056 
X351.507 Y263.169 
X352.347 Y264.186 
X353.308 Y265.087 
X354.375 Y265.863 
X355.53 Y266.498 
X356.756 Y266.983 
X358.032 Y267.31 
X358.687 Y267.393 
G02 X358.812 Y266.401 I0.062 J-0.496 
G01 Z-14.166 F100
G02 X358.687 Y267.393 I-0.062 J0.496 F300
G01 X359.341 Y267.476 
X360.658 Y267.476 
X361.967 Y267.31 
X363.243 Y266.983 
X364.469 Y266.498 
X365.624 Y265.863 
X366.691 Y265.087 
X367.652 Y264.186 
X368.492 Y263.169 
X369.198 Y262.056 
X369.759 Y260.863 
X370.167 Y259.61 
X370.413 Y258.315 
X370.497 Y257 
X370.413 Y255.684 
X370.167 Y254.389 
X369.759 Y253.136 
X369.198 Y251.943 
X368.492 Y250.83 
X367.652 Y249.813 
X366.691 Y248.912 
X365.624 Y248.136 
X364.469 Y247.501 
X363.243 Y247.016 
X361.967 Y246.689 
X360.658 Y246.524 
X359.341 Y246.524 
X358.032 Y246.689 
X356.756 Y247.016 
X355.53 Y247.501 
X354.375 Y248.136 
X353.308 Y248.912 
X352.347 Y249.813 
X351.507 Y250.83 
X350.801 Y251.943 
X350.24 Y253.136 
X349.832 Y254.389 
X349.586 Y255.684 
X349.502 Y257 
X349.586 Y258.315 
X349.832 Y259.61 
X350.24 Y260.863 
X350.801 Y262.056 
X351.507 Y263.169 
X352.347 Y264.186 
X353.308 Y265.087 
X354.375 Y265.863 
X355.53 Y266.498 
X356.756 Y266.983 
X358.032 Y267.31 
X358.687 Y267.393 
G02 X358.812 Y266.401 I0.062 J-0.496 
G01 Z-17 F100
G02 X358.687 Y267.393 I-0.062 J0.496 F300
G01 X359.341 Y267.476 
X360.658 Y267.476 
X361.967 Y267.31 
X363.243 Y266.983 
X364.469 Y266.498 
X365.624 Y265.863 
X366.691 Y265.087 
X367.652 Y264.186 
X368.492 Y263.169 
X369.198 Y262.056 
X369.759 Y260.863 
X370.167 Y259.61 
X370.413 Y258.315 
X370.497 Y257 
X370.413 Y255.684 
X370.167 Y254.389 
X369.759 Y253.136 
X369.198 Y251.943 
X368.492 Y250.83 
X367.652 Y249.813 
X366.691 Y248.912 
X365.624 Y248.136 
X364.469 Y247.501 
X363.243 Y247.016 
X361.967 Y246.689 
X360.658 Y246.524 
X359.341 Y246.524 
X358.032 Y246.689 
X356.756 Y247.016 
X355.53 Y247.501 
X354.375 Y248.136 
X353.308 Y248.912 
X352.347 Y249.813 
X351.507 Y250.83 
X350.801 Y251.943 
X350.24 Y253.136 
X349.832 Y254.389 
X349.586 Y255.684 
X349.502 Y257 
X349.586 Y258.315 
X349.832 Y259.61 
X350.24 Y260.863 
X350.801 Y262.056 
X351.507 Y263.169 
X352.347 Y264.186 
X353.308 Y265.087 
X354.375 Y265.863 
X355.53 Y266.498 
X356.756 Y266.983 
X358.032 Y267.31 
X358.687 Y267.393 
G02 X358.812 Y266.401 I0.062 J-0.496 
G00 Z5
G90
(Sketch 124)
X376.812 Y258.48 S7000 M03
Z2
G01 Z-2.833 F100
G02 X376.687 Y259.472 I-0.062 J0.496 F300
G01 X376.843 Y259.492 
X377.156 Y259.492 
X377.468 Y259.452 
X377.771 Y259.374 
X378.062 Y259.259 
X378.338 Y259.107 
X378.592 Y258.923 
X378.82 Y258.709 
X379.019 Y258.467 
X379.187 Y258.203 
X379.321 Y257.918 
X379.418 Y257.621 
X379.476 Y257.312 
X379.496 Y257 
X379.476 Y256.687 
X379.418 Y256.378 
X379.321 Y256.081 
X379.187 Y255.796 
X379.019 Y255.532 
X378.82 Y255.29 
X378.592 Y255.076 
X378.338 Y254.892 
X378.062 Y254.74 
X377.771 Y254.625 
X377.468 Y254.547 
X377.156 Y254.508 
X376.843 Y254.508 
X376.531 Y254.547 
X376.228 Y254.625 
X375.937 Y254.74 
X375.661 Y254.892 
X375.407 Y255.076 
X375.179 Y255.29 
X374.98 Y255.532 
X374.812 Y255.796 
X374.678 Y256.081 
X374.581 Y256.378 
X374.523 Y256.687 
X374.503 Y257 
X374.523 Y257.312 
X374.581 Y257.621 
X374.678 Y257.918 
X374.812 Y258.203 
X374.98 Y258.467 
X375.179 Y258.709 
X375.407 Y258.923 
X375.661 Y259.107 
X375.937 Y259.259 
X376.228 Y259.374 
X376.531 Y259.452 
X376.687 Y259.472 
G02 X376.812 Y258.48 I0.062 J-0.496 
G01 Z-5.666 F100
G02 X376.687 Y259.472 I-0.062 J0.496 F300
G01 X376.843 Y259.492 
X377.156 Y259.492 
X377.468 Y259.452 
X377.771 Y259.374 
X378.062 Y259.259 
X378.338 Y259.107 
X378.592 Y258.923 
X378.82 Y258.709 
X379.019 Y258.467 
X379.187 Y258.203 
X379.321 Y257.918 
X379.418 Y257.621 
X379.476 Y257.312 
X379.496 Y257 
X379.476 Y256.687 
X379.418 Y256.378 
X379.321 Y256.081 
X379.187 Y255.796 
X379.019 Y255.532 
X378.82 Y255.29 
X378.592 Y255.076 
X378.338 Y254.892 
X378.062 Y254.74 
X377.771 Y254.625 
X377.468 Y254.547 
X377.156 Y254.508 
X376.843 Y254.508 
X376.531 Y254.547 
X376.228 Y254.625 
X375.937 Y254.74 
X375.661 Y254.892 
X375.407 Y255.076 
X375.179 Y255.29 
X374.98 Y255.532 
X374.812 Y255.796 
X374.678 Y256.081 
X374.581 Y256.378 
X374.523 Y256.687 
X374.503 Y257 
X374.523 Y257.312 
X374.581 Y257.621 
X374.678 Y257.918 
X374.812 Y258.203 
X374.98 Y258.467 
X375.179 Y258.709 
X375.407 Y258.923 
X375.661 Y259.107 
X375.937 Y259.259 
X376.228 Y259.374 
X376.531 Y259.452 
X376.687 Y259.472 
G02 X376.812 Y258.48 I0.062 J-0.496 
G01 Z-8.5 F100
G02 X376.687 Y259.472 I-0.062 J0.496 F300
G01 X376.843 Y259.492 
X377.156 Y259.492 
X377.468 Y259.452 
X377.771 Y259.374 
X378.062 Y259.259 
X378.338 Y259.107 
X378.592 Y258.923 
X378.82 Y258.709 
X379.019 Y258.467 
X379.187 Y258.203 
X379.321 Y257.918 
X379.418 Y257.621 
X379.476 Y257.312 
X379.496 Y257 
X379.476 Y256.687 
X379.418 Y256.378 
X379.321 Y256.081 
X379.187 Y255.796 
X379.019 Y255.532 
X378.82 Y255.29 
X378.592 Y255.076 
X378.338 Y254.892 
X378.062 Y254.74 
X377.771 Y254.625 
X377.468 Y254.547 
X377.156 Y254.508 
X376.843 Y254.508 
X376.531 Y254.547 
X376.228 Y254.625 
X375.937 Y254.74 
X375.661 Y254.892 
X375.407 Y255.076 
X375.179 Y255.29 
X374.98 Y255.532 
X374.812 Y255.796 
X374.678 Y256.081 
X374.581 Y256.378 
X374.523 Y256.687 
X374.503 Y257 
X374.523 Y257.312 
X374.581 Y257.621 
X374.678 Y257.918 
X374.812 Y258.203 
X374.98 Y258.467 
X375.179 Y258.709 
X375.407 Y258.923 
X375.661 Y259.107 
X375.937 Y259.259 
X376.228 Y259.374 
X376.531 Y259.452 
X376.687 Y259.472 
G02 X376.812 Y258.48 I0.062 J-0.496 
G01 Z-11.333 F100
G02 X376.687 Y259.472 I-0.062 J0.496 F300
G01 X376.843 Y259.492 
X377.156 Y259.492 
X377.468 Y259.452 
X377.771 Y259.374 
X378.062 Y259.259 
X378.338 Y259.107 
X378.592 Y258.923 
X378.82 Y258.709 
X379.019 Y258.467 
X379.187 Y258.203 
X379.321 Y257.918 
X379.418 Y257.621 
X379.476 Y257.312 
X379.496 Y257 
X379.476 Y256.687 
X379.418 Y256.378 
X379.321 Y256.081 
X379.187 Y255.796 
X379.019 Y255.532 
X378.82 Y255.29 
X378.592 Y255.076 
X378.338 Y254.892 
X378.062 Y254.74 
X377.771 Y254.625 
X377.468 Y254.547 
X377.156 Y254.508 
X376.843 Y254.508 
X376.531 Y254.547 
X376.228 Y254.625 
X375.937 Y254.74 
X375.661 Y254.892 
X375.407 Y255.076 
X375.179 Y255.29 
X374.98 Y255.532 
X374.812 Y255.796 
X374.678 Y256.081 
X374.581 Y256.378 
X374.523 Y256.687 
X374.503 Y257 
X374.523 Y257.312 
X374.581 Y257.621 
X374.678 Y257.918 
X374.812 Y258.203 
X374.98 Y258.467 
X375.179 Y258.709 
X375.407 Y258.923 
X375.661 Y259.107 
X375.937 Y259.259 
X376.228 Y259.374 
X376.531 Y259.452 
X376.687 Y259.472 
G02 X376.812 Y258.48 I0.062 J-0.496 
G01 Z-14.166 F100
G02 X376.687 Y259.472 I-0.062 J0.496 F300
G01 X376.843 Y259.492 
X377.156 Y259.492 
X377.468 Y259.452 
X377.771 Y259.374 
X378.062 Y259.259 
