(Created with emc2b post processor 2016/07/27 20:51)
(tool change to 3 mm Slot Cutter)
T1 M06 G43
G17 G90 G21
G00 X39 Y61 S7000 M03
Z5
G83 Q3 G98 X39 Y61 Z-17 R2 F100
X61 Y61 
X184 Y61 
X206 Y61 
X329 Y61 
X351 Y61 
G80
(Sketch 20)
G00 X195 Y20 S7000 M03
Z2
G01 Z-2.833 
X340 Y20 F300
X340.491 Y19.988 
X340.98 Y19.951 
X341.467 Y19.891 
X341.951 Y19.807 
X342.43 Y19.7 
X342.903 Y19.569 
X343.369 Y19.415 
X343.827 Y19.238 
X344.276 Y19.039 
X344.714 Y18.819 
X345.141 Y18.577 
X345.556 Y18.314 
X345.957 Y18.032 
X346.344 Y17.73 
X346.716 Y17.409 
X347.071 Y17.071 
X347.41 Y16.715 
X347.73 Y16.343 
X348.032 Y15.957 
X348.315 Y15.555 
X348.577 Y15.141 
X348.819 Y14.714 
X349.04 Y14.275 
X349.239 Y13.826 
X349.415 Y13.368 
X349.569 Y12.902 
X349.7 Y12.429 
X349.808 Y11.95 
X349.892 Y11.467 
X349.952 Y10.98 
X349.988 Y10.49 
X350.012 Y9.509 
X350.048 Y9.019 
X350.108 Y8.532 
X350.192 Y8.049 
X350.3 Y7.57 
X350.431 Y7.097 
X350.585 Y6.631 
X350.761 Y6.173 
X350.96 Y5.724 
X351.181 Y5.286 
X351.423 Y4.858 
X351.685 Y4.444 
X351.968 Y4.043 
X352.27 Y3.656 
X352.59 Y3.284 
X352.929 Y2.928 
X353.284 Y2.59 
X353.656 Y2.269 
X354.043 Y1.967 
X354.444 Y1.685 
X354.859 Y1.422 
X355.286 Y1.18 
X355.724 Y0.96 
X356.173 Y0.761 
X356.631 Y0.584 
X357.097 Y0.43 
X357.57 Y0.299 
X358.049 Y0.192 
X358.533 Y0.108 
X359.02 Y0.048 
X359.509 Y0.012 
X360 Y0 
X380 Y0 
X380.491 Y0.012 
X380.98 Y0.048 
X381.467 Y0.108 
X381.951 Y0.192 
X382.43 Y0.299 
X382.903 Y0.43 
X383.369 Y0.584 
X383.827 Y0.761 
X384.276 Y0.96 
X384.714 Y1.18 
X385.141 Y1.422 
X385.556 Y1.685 
X385.957 Y1.967 
X386.344 Y2.269 
X386.716 Y2.59 
X387.071 Y2.928 
X387.41 Y3.284 
X387.73 Y3.656 
X388.032 Y4.043 
X388.315 Y4.444 
X388.577 Y4.858 
X388.819 Y5.286 
X389.04 Y5.724 
X389.239 Y6.173 
X389.415 Y6.631 
X389.569 Y7.097 
X389.7 Y7.57 
X389.808 Y8.049 
X389.892 Y8.532 
X389.952 Y9.019 
X389.988 Y9.509 
X390 Y10 
X390 Y60 
X350 Y60 
X350 Y76 
X330 Y76 
X330 Y60 
X205 Y60 
X205 Y76 
X185 Y76 
X185 Y60 
X60 Y60 
X60 Y76 
X40 Y76 
X40 Y60 
X0 Y60 
X0 Y10 
X0.012 Y9.509 
X0.048 Y9.019 
X0.108 Y8.532 
X0.192 Y8.049 
X0.299 Y7.57 
X0.43 Y7.097 
X0.584 Y6.631 
X0.761 Y6.173 
X0.96 Y5.724 
X1.18 Y5.286 
X1.422 Y4.858 
X1.685 Y4.444 
X1.967 Y4.043 
X2.269 Y3.656 
X2.59 Y3.284 
X2.928 Y2.928 
X3.284 Y2.59 
X3.656 Y2.269 
X4.043 Y1.967 
X4.444 Y1.685 
X4.858 Y1.422 
X5.286 Y1.18 
X5.724 Y0.96 
X6.173 Y0.761 
X6.631 Y0.584 
X7.097 Y0.43 
X7.57 Y0.299 
X8.049 Y0.192 
X8.532 Y0.108 
X9.019 Y0.048 
X9.509 Y0.012 
X10 Y0 
X30 Y0 
X30.49 Y0.012 
X30.98 Y0.048 
X31.467 Y0.108 
X31.95 Y0.192 
X32.429 Y0.299 
X32.902 Y0.43 
X33.368 Y0.584 
X33.826 Y0.761 
X34.275 Y0.96 
X34.714 Y1.18 
X35.141 Y1.422 
X35.555 Y1.685 
X35.957 Y1.967 
X36.343 Y2.269 
X36.715 Y2.59 
X37.071 Y2.928 
X37.409 Y3.284 
X37.73 Y3.656 
X38.032 Y4.043 
X38.314 Y4.444 
X38.577 Y4.858 
X38.819 Y5.286 
X39.039 Y5.724 
X39.238 Y6.173 
X39.415 Y6.631 
X39.569 Y7.097 
X39.7 Y7.57 
X39.807 Y8.049 
X39.891 Y8.532 
X39.951 Y9.019 
X39.988 Y9.509 
X40.012 Y10.49 
X40.048 Y10.98 
X40.108 Y11.467 
X40.192 Y11.95 
X40.299 Y12.429 
X40.43 Y12.902 
X40.584 Y13.368 
X40.761 Y13.826 
X40.96 Y14.275 
X41.18 Y14.714 
X41.422 Y15.141 
X41.685 Y15.555 
X41.967 Y15.957 
X42.269 Y16.343 
X42.59 Y16.715 
X42.928 Y17.071 
X43.284 Y17.409 
X43.656 Y17.73 
X44.043 Y18.032 
X44.444 Y18.314 
X44.859 Y18.577 
X45.286 Y18.819 
X45.724 Y19.039 
X46.173 Y19.238 
X46.631 Y19.415 
X47.097 Y19.569 
X47.57 Y19.7 
X48.049 Y19.807 
X48.532 Y19.891 
X49.019 Y19.951 
X49.509 Y19.988 
X50 Y20 
X195 Y20 
Z-5.666 F100
X340 Y20 F300
X340.491 Y19.988 
X340.98 Y19.951 
X341.467 Y19.891 
X341.951 Y19.807 
X342.43 Y19.7 
X342.903 Y19.569 
X343.369 Y19.415 
X343.827 Y19.238 
X344.276 Y19.039 
X344.714 Y18.819 
X345.141 Y18.577 
X345.556 Y18.314 
X345.957 Y18.032 
X346.344 Y17.73 
X346.716 Y17.409 
X347.071 Y17.071 
X347.41 Y16.715 
X347.73 Y16.343 
X348.032 Y15.957 
X348.315 Y15.555 
X348.577 Y15.141 
X348.819 Y14.714 
X349.04 Y14.275 
X349.239 Y13.826 
X349.415 Y13.368 
X349.569 Y12.902 
X349.7 Y12.429 
X349.808 Y11.95 
X349.892 Y11.467 
X349.952 Y10.98 
X349.988 Y10.49 
X350.012 Y9.509 
X350.048 Y9.019 
X350.108 Y8.532 
X350.192 Y8.049 
X350.3 Y7.57 
X350.431 Y7.097 
X350.585 Y6.631 
X350.761 Y6.173 
X350.96 Y5.724 
X351.181 Y5.286 
X351.423 Y4.858 
X351.685 Y4.444 
X351.968 Y4.043 
X352.27 Y3.656 
X352.59 Y3.284 
X352.929 Y2.928 
X353.284 Y2.59 
X353.656 Y2.269 
X354.043 Y1.967 
X354.444 Y1.685 
X354.859 Y1.422 
X355.286 Y1.18 
X355.724 Y0.96 
X356.173 Y0.761 
X356.631 Y0.584 
X357.097 Y0.43 
X357.57 Y0.299 
X358.049 Y0.192 
X358.533 Y0.108 
X359.02 Y0.048 
X359.509 Y0.012 
X360 Y0 
X380 Y0 
X380.491 Y0.012 
X380.98 Y0.048 
X381.467 Y0.108 
X381.951 Y0.192 
X382.43 Y0.299 
X382.903 Y0.43 
X383.369 Y0.584 
X383.827 Y0.761 
X384.276 Y0.96 
X384.714 Y1.18 
X385.141 Y1.422 
X385.556 Y1.685 
X385.957 Y1.967 
X386.344 Y2.269 
X386.716 Y2.59 
X387.071 Y2.928 
X387.41 Y3.284 
X387.73 Y3.656 
X388.032 Y4.043 
X388.315 Y4.444 
X388.577 Y4.858 
X388.819 Y5.286 
X389.04 Y5.724 
X389.239 Y6.173 
X389.415 Y6.631 
X389.569 Y7.097 
X389.7 Y7.57 
X389.808 Y8.049 
X389.892 Y8.532 
X389.952 Y9.019 
X389.988 Y9.509 
X390 Y10 
X390 Y60 
X350 Y60 
X350 Y76 
X330 Y76 
X330 Y60 
X205 Y60 
X205 Y76 
X185 Y76 
X185 Y60 
X60 Y60 
X60 Y76 
X40 Y76 
X40 Y60 
X0 Y60 
X0 Y10 
X0.012 Y9.509 
X0.048 Y9.019 
X0.108 Y8.532 
X0.192 Y8.049 
X0.299 Y7.57 
X0.43 Y7.097 
X0.584 Y6.631 
X0.761 Y6.173 
X0.96 Y5.724 
X1.18 Y5.286 
X1.422 Y4.858 
X1.685 Y4.444 
X1.967 Y4.043 
X2.269 Y3.656 
X2.59 Y3.284 
X2.928 Y2.928 
X3.284 Y2.59 
X3.656 Y2.269 
X4.043 Y1.967 
X4.444 Y1.685 
X4.858 Y1.422 
X5.286 Y1.18 
X5.724 Y0.96 
X6.173 Y0.761 
X6.631 Y0.584 
X7.097 Y0.43 
X7.57 Y0.299 
X8.049 Y0.192 
X8.532 Y0.108 
X9.019 Y0.048 
X9.509 Y0.012 
X10 Y0 
X30 Y0 
X30.49 Y0.012 
X30.98 Y0.048 
X31.467 Y0.108 
X31.95 Y0.192 
X32.429 Y0.299 
X32.902 Y0.43 
X33.368 Y0.584 
X33.826 Y0.761 
X34.275 Y0.96 
X34.714 Y1.18 
X35.141 Y1.422 
X35.555 Y1.685 
X35.957 Y1.967 
X36.343 Y2.269 
X36.715 Y2.59 
X37.071 Y2.928 
X37.409 Y3.284 
X37.73 Y3.656 
X38.032 Y4.043 
X38.314 Y4.444 
X38.577 Y4.858 
X38.819 Y5.286 
X39.039 Y5.724 
X39.238 Y6.173 
X39.415 Y6.631 
X39.569 Y7.097 
X39.7 Y7.57 
X39.807 Y8.049 
X39.891 Y8.532 
X39.951 Y9.019 
X39.988 Y9.509 
X40.012 Y10.49 
X40.048 Y10.98 
X40.108 Y11.467 
X40.192 Y11.95 
X40.299 Y12.429 
X40.43 Y12.902 
X40.584 Y13.368 
X40.761 Y13.826 
X40.96 Y14.275 
X41.18 Y14.714 
X41.422 Y15.141 
X41.685 Y15.555 
X41.967 Y15.957 
X42.269 Y16.343 
X42.59 Y16.715 
X42.928 Y17.071 
X43.284 Y17.409 
X43.656 Y17.73 
X44.043 Y18.032 
X44.444 Y18.314 
X44.859 Y18.577 
X45.286 Y18.819 
X45.724 Y19.039 
X46.173 Y19.238 
X46.631 Y19.415 
X47.097 Y19.569 
X47.57 Y19.7 
X48.049 Y19.807 
X48.532 Y19.891 
X49.019 Y19.951 
X49.509 Y19.988 
X50 Y20 
X195 Y20 
Z-8.5 F100
X340 Y20 F300
X340.491 Y19.988 
X340.98 Y19.951 
X341.467 Y19.891 
X341.951 Y19.807 
X342.43 Y19.7 
X342.903 Y19.569 
X343.369 Y19.415 
X343.827 Y19.238 
X344.276 Y19.039 
X344.714 Y18.819 
X345.141 Y18.577 
X345.556 Y18.314 
X345.957 Y18.032 
X346.344 Y17.73 
X346.716 Y17.409 
X347.071 Y17.071 
X347.41 Y16.715 
X347.73 Y16.343 
X348.032 Y15.957 
X348.315 Y15.555 
X348.577 Y15.141 
X348.819 Y14.714 
X349.04 Y14.275 
X349.239 Y13.826 
X349.415 Y13.368 
X349.569 Y12.902 
X349.7 Y12.429 
X349.808 Y11.95 
X349.892 Y11.467 
X349.952 Y10.98 
X349.988 Y10.49 
X350.012 Y9.509 
X350.048 Y9.019 
X350.108 Y8.532 
X350.192 Y8.049 
X350.3 Y7.57 
X350.431 Y7.097 
X350.585 Y6.631 
X350.761 Y6.173 
X350.96 Y5.724 
X351.181 Y5.286 
X351.423 Y4.858 
X351.685 Y4.444 
X351.968 Y4.043 
X352.27 Y3.656 
X352.59 Y3.284 
X352.929 Y2.928 
X353.284 Y2.59 
X353.656 Y2.269 
X354.043 Y1.967 
X354.444 Y1.685 
X354.859 Y1.422 
X355.286 Y1.18 
X355.724 Y0.96 
X356.173 Y0.761 
X356.631 Y0.584 
X357.097 Y0.43 
X357.57 Y0.299 
X358.049 Y0.192 
X358.533 Y0.108 
X359.02 Y0.048 
X359.509 Y0.012 
X360 Y0 
X380 Y0 
X380.491 Y0.012 
X380.98 Y0.048 
X381.467 Y0.108 
X381.951 Y0.192 
X382.43 Y0.299 
X382.903 Y0.43 
X383.369 Y0.584 
X383.827 Y0.761 
X384.276 Y0.96 
X384.714 Y1.18 
X385.141 Y1.422 
X385.556 Y1.685 
X385.957 Y1.967 
X386.344 Y2.269 
X386.716 Y2.59 
X387.071 Y2.928 
X387.41 Y3.284 
X387.73 Y3.656 
X388.032 Y4.043 
X388.315 Y4.444 
X388.577 Y4.858 
X388.819 Y5.286 
X389.04 Y5.724 
X389.239 Y6.173 
X389.415 Y6.631 
X389.569 Y7.097 
X389.7 Y7.57 
X389.808 Y8.049 
X389.892 Y8.532 
X389.952 Y9.019 
X389.988 Y9.509 
X390 Y10 
X390 Y60 
X350 Y60 
X350 Y76 
X330 Y76 
X330 Y60 
X205 Y60 
X205 Y76 
X185 Y76 
X185 Y60 
X60 Y60 
X60 Y76 
X40 Y76 
X40 Y60 
X0 Y60 
X0 Y10 
X0.012 Y9.509 
X0.048 Y9.019 
X0.108 Y8.532 
X0.192 Y8.049 
X0.299 Y7.57 
X0.43 Y7.097 
X0.584 Y6.631 
X0.761 Y6.173 
X0.96 Y5.724 
X1.18 Y5.286 
X1.422 Y4.858 
X1.685 Y4.444 
X1.967 Y4.043 
X2.269 Y3.656 
X2.59 Y3.284 
X2.928 Y2.928 
X3.284 Y2.59 
X3.656 Y2.269 
X4.043 Y1.967 
X4.444 Y1.685 
X4.858 Y1.422 
X5.286 Y1.18 
X5.724 Y0.96 
X6.173 Y0.761 
X6.631 Y0.584 
X7.097 Y0.43 
X7.57 Y0.299 
X8.049 Y0.192 
X8.532 Y0.108 
X9.019 Y0.048 
X9.509 Y0.012 
X10 Y0 
X30 Y0 
X30.49 Y0.012 
X30.98 Y0.048 
X31.467 Y0.108 
X31.95 Y0.192 
X32.429 Y0.299 
X32.902 Y0.43 
X33.368 Y0.584 
X33.826 Y0.761 
X34.275 Y0.96 
X34.714 Y1.18 
X35.141 Y1.422 
X35.555 Y1.685 
X35.957 Y1.967 
X36.343 Y2.269 
X36.715 Y2.59 
X37.071 Y2.928 
X37.409 Y3.284 
X37.73 Y3.656 
X38.032 Y4.043 
X38.314 Y4.444 
X38.577 Y4.858 
X38.819 Y5.286 
X39.039 Y5.724 
X39.238 Y6.173 
X39.415 Y6.631 
X39.569 Y7.097 
X39.7 Y7.57 
X39.807 Y8.049 
X39.891 Y8.532 
X39.951 Y9.019 
X39.988 Y9.509 
X40.012 Y10.49 
X40.048 Y10.98 
X40.108 Y11.467 
X40.192 Y11.95 
X40.299 Y12.429 
X40.43 Y12.902 
X40.584 Y13.368 
X40.761 Y13.826 
X40.96 Y14.275 
X41.18 Y14.714 
X41.422 Y15.141 
X41.685 Y15.555 
X41.967 Y15.957 
X42.269 Y16.343 
X42.59 Y16.715 
X42.928 Y17.071 
X43.284 Y17.409 
X43.656 Y17.73 
X44.043 Y18.032 
X44.444 Y18.314 
X44.859 Y18.577 
X45.286 Y18.819 
X45.724 Y19.039 
X46.173 Y19.238 
X46.631 Y19.415 
X47.097 Y19.569 
X47.57 Y19.7 
X48.049 Y19.807 
X48.532 Y19.891 
X49.019 Y19.951 
X49.509 Y19.988 
X50 Y20 
X195 Y20 
Z-11.333 F100
X340 Y20 F300
X340.491 Y19.988 
X340.98 Y19.951 
X341.467 Y19.891 
X341.951 Y19.807 
X342.43 Y19.7 
X342.903 Y19.569 
X343.369 Y19.415 
X343.827 Y19.238 
X344.276 Y19.039 
X344.714 Y18.819 
X345.141 Y18.577 
X345.556 Y18.314 
X345.957 Y18.032 
X346.344 Y17.73 
X346.716 Y17.409 
X347.071 Y17.071 
X347.41 Y16.715 
X347.73 Y16.343 
X348.032 Y15.957 
X348.315 Y15.555 
X348.577 Y15.141 
X348.819 Y14.714 
X349.04 Y14.275 
X349.239 Y13.826 
X349.415 Y13.368 
X349.569 Y12.902 
X349.7 Y12.429 
X349.808 Y11.95 
X349.892 Y11.467 
X349.952 Y10.98 
X349.988 Y10.49 
X350.012 Y9.509 
X350.048 Y9.019 
X350.108 Y8.532 
X350.192 Y8.049 
X350.3 Y7.57 
X350.431 Y7.097 
X350.585 Y6.631 
X350.761 Y6.173 
X350.96 Y5.724 
X351.181 Y5.286 
X351.423 Y4.858 
X351.685 Y4.444 
X351.968 Y4.043 
X352.27 Y3.656 
X352.59 Y3.284 
X352.929 Y2.928 
X353.284 Y2.59 
X353.656 Y2.269 
X354.043 Y1.967 
X354.444 Y1.685 
X354.859 Y1.422 
X355.286 Y1.18 
X355.724 Y0.96 
X356.173 Y0.761 
X356.631 Y0.584 
X357.097 Y0.43 
X357.57 Y0.299 
X358.049 Y0.192 
X358.533 Y0.108 
X359.02 Y0.048 
X359.509 Y0.012 
X360 Y0 
X380 Y0 
X380.491 Y0.012 
X380.98 Y0.048 
X381.467 Y0.108 
X381.951 Y0.192 
X382.43 Y0.299 
X382.903 Y0.43 
X383.369 Y0.584 
X383.827 Y0.761 
X384.276 Y0.96 
X384.714 Y1.18 
X385.141 Y1.422 
X385.556 Y1.685 
X385.957 Y1.967 
X386.344 Y2.269 
X386.716 Y2.59 
X387.071 Y2.928 
X387.41 Y3.284 
X387.73 Y3.656 
X388.032 Y4.043 
X388.315 Y4.444 
X388.577 Y4.858 
X388.819 Y5.286 
X389.04 Y5.724 
X389.239 Y6.173 
X389.415 Y6.631 
X389.569 Y7.097 
X389.7 Y7.57 
X389.808 Y8.049 
X389.892 Y8.532 
X389.952 Y9.019 
X389.988 Y9.509 
X390 Y10 
X390 Y60 
X350 Y60 
X350 Y76 
X330 Y76 
X330 Y60 
X205 Y60 
X205 Y76 
X185 Y76 
X185 Y60 
X60 Y60 
X60 Y76 
X40 Y76 
X40 Y60 
X0 Y60 
X0 Y10 
X0.012 Y9.509 
X0.048 Y9.019 
X0.108 Y8.532 
X0.192 Y8.049 
X0.299 Y7.57 
X0.43 Y7.097 
X0.584 Y6.631 
X0.761 Y6.173 
X0.96 Y5.724 
X1.18 Y5.286 
X1.422 Y4.858 
X1.685 Y4.444 
X1.967 Y4.043 
X2.269 Y3.656 
X2.59 Y3.284 
X2.928 Y2.928 
X3.284 Y2.59 
X3.656 Y2.269 
X4.043 Y1.967 
X4.444 Y1.685 
X4.858 Y1.422 
X5.286 Y1.18 
X5.724 Y0.96 
X6.173 Y0.761 
X6.631 Y0.584 
X7.097 Y0.43 
X7.57 Y0.299 
X8.049 Y0.192 
X8.532 Y0.108 
X9.019 Y0.048 
X9.509 Y0.012 
X10 Y0 
X30 Y0 
X30.49 Y0.012 
X30.98 Y0.048 
X31.467 Y0.108 
X31.95 Y0.192 
X32.429 Y0.299 
X32.902 Y0.43 
X33.368 Y0.584 
X33.826 Y0.761 
X34.275 Y0.96 
X34.714 Y1.18 
X35.141 Y1.422 
X35.555 Y1.685 
X35.957 Y1.967 
X36.343 Y2.269 
X36.715 Y2.59 
X37.071 Y2.928 
X37.409 Y3.284 
X37.73 Y3.656 
X38.032 Y4.043 
X38.314 Y4.444 
X38.577 Y4.858 
X38.819 Y5.286 
X39.039 Y5.724 
X39.238 Y6.173 
X39.415 Y6.631 
X39.569 Y7.097 
X39.7 Y7.57 
X39.807 Y8.049 
X39.891 Y8.532 
X39.951 Y9.019 
X39.988 Y9.509 
X40.012 Y10.49 
X40.048 Y10.98 
X40.108 Y11.467 
X40.192 Y11.95 
X40.299 Y12.429 
X40.43 Y12.902 
X40.584 Y13.368 
X40.761 Y13.826 
X40.96 Y14.275 
X41.18 Y14.714 
X41.422 Y15.141 
X41.685 Y15.555 
X41.967 Y15.957 
X42.269 Y16.343 
X42.59 Y16.715 
X42.928 Y17.071 
X43.284 Y17.409 
X43.656 Y17.73 
X44.043 Y18.032 
X44.444 Y18.314 
X44.859 Y18.577 
X45.286 Y18.819 
X45.724 Y19.039 
X46.173 Y19.238 
X46.631 Y19.415 
X47.097 Y19.569 
X47.57 Y19.7 
X48.049 Y19.807 
X48.532 Y19.891 
X49.019 Y19.951 
X49.509 Y19.988 
X50 Y20 
X195 Y20 
Z-14.166 F100
X340 Y20 F300
X340.491 Y19.988 
X340.98 Y19.951 
X341.467 Y19.891 
X341.951 Y19.807 
X342.43 Y19.7 
X342.903 Y19.569 
X343.369 Y19.415 
X343.827 Y19.238 
X344.276 Y19.039 
X344.714 Y18.819 
X345.141 Y18.577 
X345.556 Y18.314 
X345.957 Y18.032 
X346.344 Y17.73 
X346.716 Y17.409 
X347.071 Y17.071 
X347.41 Y16.715 
X347.73 Y16.343 
X348.032 Y15.957 
X348.315 Y15.555 
X348.577 Y15.141 
X348.819 Y14.714 
X349.04 Y14.275 
X349.239 Y13.826 
X349.415 Y13.368 
X349.569 Y12.902 
X349.7 Y12.429 
X349.808 Y11.95 
X349.892 Y11.467 
X349.952 Y10.98 
X349.988 Y10.49 
X350.012 Y9.509 
X350.048 Y9.019 
X350.108 Y8.532 
X350.192 Y8.049 
X350.3 Y7.57 
X350.431 Y7.097 
X350.585 Y6.631 
X350.761 Y6.173 
X350.96 Y5.724 
X351.181 Y5.286 
X351.423 Y4.858 
X351.685 Y4.444 
X351.968 Y4.043 
X352.27 Y3.656 
X352.59 Y3.284 
X352.929 Y2.928 
X353.284 Y2.59 
X353.656 Y2.269 
X354.043 Y1.967 
X354.444 Y1.685 
X354.859 Y1.422 
X355.286 Y1.18 
X355.724 Y0.96 
X356.173 Y0.761 
X356.631 Y0.584 
X357.097 Y0.43 
X357.57 Y0.299 
X358.049 Y0.192 
X358.533 Y0.108 
X359.02 Y0.048 
X359.509 Y0.012 
X360 Y0 
X380 Y0 
X380.491 Y0.012 
X380.98 Y0.048 
X381.467 Y0.108 
X381.951 Y0.192 
X382.43 Y0.299 
X382.903 Y0.43 
X383.369 Y0.584 
X383.827 Y0.761 
X384.276 Y0.96 
X384.714 Y1.18 
X385.141 Y1.422 
X385.556 Y1.685 
X385.957 Y1.967 
X386.344 Y2.269 
X386.716 Y2.59 
X387.071 Y2.928 
X387.41 Y3.284 
X387.73 Y3.656 
X388.032 Y4.043 
X388.315 Y4.444 
X388.577 Y4.858 
X388.819 Y5.286 
X389.04 Y5.724 
X389.239 Y6.173 
X389.415 Y6.631 
X389.569 Y7.097 
X389.7 Y7.57 
X389.808 Y8.049 
X389.892 Y8.532 
X389.952 Y9.019 
X389.988 Y9.509 
X390 Y10 
X390 Y60 
X350 Y60 
X350 Y76 
X330 Y76 
X330 Y60 
X205 Y60 
X205 Y76 
X185 Y76 
X185 Y60 
X60 Y60 
X60 Y76 
X40 Y76 
X40 Y60 
X0 Y60 
X0 Y10 
X0.012 Y9.509 
X0.048 Y9.019 
X0.108 Y8.532 
X0.192 Y8.049 
X0.299 Y7.57 
X0.43 Y7.097 
X0.584 Y6.631 
X0.761 Y6.173 
X0.96 Y5.724 
X1.18 Y5.286 
X1.422 Y4.858 
X1.685 Y4.444 
X1.967 Y4.043 
X2.269 Y3.656 
X2.59 Y3.284 
X2.928 Y2.928 
X3.284 Y2.59 
X3.656 Y2.269 
X4.043 Y1.967 
X4.444 Y1.685 
X4.858 Y1.422 
X5.286 Y1.18 
X5.724 Y0.96 
X6.173 Y0.761 
X6.631 Y0.584 
X7.097 Y0.43 
X7.57 Y0.299 
X8.049 Y0.192 
X8.532 Y0.108 
X9.019 Y0.048 
X9.509 Y0.012 
X10 Y0 
X30 Y0 
X30.49 Y0.012 
X30.98 Y0.048 
X31.467 Y0.108 
X31.95 Y0.192 
X32.429 Y0.299 
X32.902 Y0.43 
X33.368 Y0.584 
X33.826 Y0.761 
X34.275 Y0.96 
X34.714 Y1.18 
X35.141 Y1.422 
X35.555 Y1.685 
X35.957 Y1.967 
X36.343 Y2.269 
X36.715 Y2.59 
X37.071 Y2.928 
X37.409 Y3.284 
X37.73 Y3.656 
X38.032 Y4.043 
X38.314 Y4.444 
X38.577 Y4.858 
X38.819 Y5.286 
X39.039 Y5.724 
X39.238 Y6.173 
X39.415 Y6.631 
X39.569 Y7.097 
X39.7 Y7.57 
X39.807 Y8.049 
X39.891 Y8.532 
X39.951 Y9.019 
X39.988 Y9.509 
X40.012 Y10.49 
X40.048 Y10.98 
X40.108 Y11.467 
X40.192 Y11.95 
X40.299 Y12.429 
X40.43 Y12.902 
X40.584 Y13.368 
X40.761 Y13.826 
X40.96 Y14.275 
X41.18 Y14.714 
X41.422 Y15.141 
X41.685 Y15.555 
X41.967 Y15.957 
X42.269 Y16.343 
X42.59 Y16.715 
X42.928 Y17.071 
X43.284 Y17.409 
X43.656 Y17.73 
X44.043 Y18.032 
X44.444 Y18.314 
X44.859 Y18.577 
X45.286 Y18.819 
X45.724 Y19.039 
X46.173 Y19.238 
X46.631 Y19.415 
X47.097 Y19.569 
X47.57 Y19.7 
X48.049 Y19.807 
X48.532 Y19.891 
X49.019 Y19.951 
X49.509 Y19.988 
X50 Y20 
X195 Y20 
Z-17 F100
X340 Y20 F300
X340.491 Y19.988 
X340.98 Y19.951 
X341.467 Y19.891 
X341.951 Y19.807 
X342.43 Y19.7 
X342.903 Y19.569 
X343.369 Y19.415 
X343.827 Y19.238 
X344.276 Y19.039 
X344.714 Y18.819 
X345.141 Y18.577 
X345.556 Y18.314 
X345.957 Y18.032 
X346.344 Y17.73 
X346.716 Y17.409 
X347.071 Y17.071 
X347.41 Y16.715 
X347.73 Y16.343 
X348.032 Y15.957 
X348.315 Y15.555 
X348.577 Y15.141 
X348.819 Y14.714 
X349.04 Y14.275 
X349.239 Y13.826 
X349.415 Y13.368 
X349.569 Y12.902 
X349.7 Y12.429 
X349.808 Y11.95 
X349.892 Y11.467 
X349.952 Y10.98 
X349.988 Y10.49 
X350.012 Y9.509 
X350.048 Y9.019 
X350.108 Y8.532 
X350.192 Y8.049 
X350.3 Y7.57 
X350.431 Y7.097 
X350.585 Y6.631 
X350.761 Y6.173 
X350.96 Y5.724 
X351.181 Y5.286 
X351.423 Y4.858 
X351.685 Y4.444 
X351.968 Y4.043 
X352.27 Y3.656 
X352.59 Y3.284 
X352.929 Y2.928 
X353.284 Y2.59 
X353.656 Y2.269 
X354.043 Y1.967 
X354.444 Y1.685 
X354.859 Y1.422 
X355.286 Y1.18 
X355.724 Y0.96 
X356.173 Y0.761 
X356.631 Y0.584 
X357.097 Y0.43 
X357.57 Y0.299 
X358.049 Y0.192 
X358.533 Y0.108 
X359.02 Y0.048 
X359.509 Y0.012 
X360 Y0 
X380 Y0 
X380.491 Y0.012 
X380.98 Y0.048 
X381.467 Y0.108 
X381.951 Y0.192 
X382.43 Y0.299 
X382.903 Y0.43 
X383.369 Y0.584 
X383.827 Y0.761 
X384.276 Y0.96 
X384.714 Y1.18 
X385.141 Y1.422 
X385.556 Y1.685 
X385.957 Y1.967 
X386.344 Y2.269 
X386.716 Y2.59 
X387.071 Y2.928 
X387.41 Y3.284 
X387.73 Y3.656 
X388.032 Y4.043 
X388.315 Y4.444 
X388.577 Y4.858 
X388.819 Y5.286 
X389.04 Y5.724 
X389.239 Y6.173 
X389.415 Y6.631 
X389.569 Y7.097 
X389.7 Y7.57 
X389.808 Y8.049 
X389.892 Y8.532 
X389.952 Y9.019 
X389.988 Y9.509 
X390 Y10 
X390 Y60 
X350 Y60 
X350 Y76 
X330 Y76 
X330 Y60 
X205 Y60 
X205 Y76 
X185 Y76 
X185 Y60 
X60 Y60 
X60 Y76 
X40 Y76 
X40 Y60 
X0 Y60 
X0 Y10 
X0.012 Y9.509 
X0.048 Y9.019 
X0.108 Y8.532 
X0.192 Y8.049 
X0.299 Y7.57 
X0.43 Y7.097 
X0.584 Y6.631 
X0.761 Y6.173 
X0.96 Y5.724 
X1.18 Y5.286 
X1.422 Y4.858 
X1.685 Y4.444 
X1.967 Y4.043 
X2.269 Y3.656 
X2.59 Y3.284 
X2.928 Y2.928 
X3.284 Y2.59 
X3.656 Y2.269 
X4.043 Y1.967 
X4.444 Y1.685 
X4.858 Y1.422 
X5.286 Y1.18 
X5.724 Y0.96 
X6.173 Y0.761 
X6.631 Y0.584 
X7.097 Y0.43 
X7.57 Y0.299 
X8.049 Y0.192 
X8.532 Y0.108 
X9.019 Y0.048 
X9.509 Y0.012 
X10 Y0 
X30 Y0 
X30.49 Y0.012 
X30.98 Y0.048 
X31.467 Y0.108 
X31.95 Y0.192 
X32.429 Y0.299 
X32.902 Y0.43 
X33.368 Y0.584 
X33.826 Y0.761 
X34.275 Y0.96 
X34.714 Y1.18 
X35.141 Y1.422 
X35.555 Y1.685 
X35.957 Y1.967 
X36.343 Y2.269 
X36.715 Y2.59 
X37.071 Y2.928 
X37.409 Y3.284 
X37.73 Y3.656 
X38.032 Y4.043 
X38.314 Y4.444 
X38.577 Y4.858 
X38.819 Y5.286 
X39.039 Y5.724 
X39.238 Y6.173 
X39.415 Y6.631 
X39.569 Y7.097 
X39.7 Y7.57 
X39.807 Y8.049 
X39.891 Y8.532 
X39.951 Y9.019 
X39.988 Y9.509 
X40.012 Y10.49 
X40.048 Y10.98 
X40.108 Y11.467 
X40.192 Y11.95 
X40.299 Y12.429 
X40.43 Y12.902 
X40.584 Y13.368 
X40.761 Y13.826 
X40.96 Y14.275 
X41.18 Y14.714 
X41.422 Y15.141 
X41.685 Y15.555 
X41.967 Y15.957 
X42.269 Y16.343 
X42.59 Y16.715 
X42.928 Y17.071 
X43.284 Y17.409 
X43.656 Y17.73 
X44.043 Y18.032 
X44.444 Y18.314 
X44.859 Y18.577 
X45.286 Y18.819 
X45.724 Y19.039 
X46.173 Y19.238 
X46.631 Y19.415 
X47.097 Y19.569 
X47.57 Y19.7 
X48.049 Y19.807 
X48.532 Y19.891 
X49.019 Y19.951 
X49.509 Y19.988 
X50 Y20 
X195 Y20 
G00 Z5
T0 M06 M02
