(Created with emc2b post processor 2016/07/28 03:29)
(tool change to 3 mm Slot Cutter)
T1 M06 G43
G17 G90 G21
G00 X39 Y61 S7000 M03
Z5
G83 Q3 G98 X39 Y61 Z-17 R2 F100
X61 Y61 
X184 Y61 
X206 Y61 
X329 Y61 
X351 Y61 
G80
(foot_outter_cut)
G00 X195 Y17.5 S7000 M03
Z2
G01 Z-2.833 
G02 X195 Y18.5 I0 J0.5 F400
G01 X339.757 Y18.5 
G03 X340 Y18.48 I0.242 J1.48 
G01 X340.533 Y18.48 
X341.592 Y18.346 
X342.625 Y18.081 
X343.618 Y17.688 
X344.552 Y17.174 
X345.416 Y16.546 
X346.194 Y15.816 
X346.873 Y14.994 
X347.446 Y14.093 
X347.9 Y13.127 
X348.23 Y12.113 
X348.429 Y11.065 
X348.581 Y8.652 
G03 X348.605 Y8.465 I1.497 J0.094 
G01 X348.84 Y7.232 
G03 X348.887 Y7.049 I1.473 J0.28 
G01 X349.275 Y5.855 
G03 X349.344 Y5.679 I1.426 J0.463 
G01 X349.879 Y4.543 
G03 X349.97 Y4.378 I1.357 J0.638 
G01 X350.643 Y3.318 
G03 X350.753 Y3.166 I1.266 J0.803 
G01 X351.553 Y2.198 
G03 X351.683 Y2.06 I1.156 J0.955 
G01 X352.599 Y1.201 
G03 X352.744 Y1.081 I1.026 J1.093 
G01 X353.76 Y0.343 
G03 X353.919 Y0.242 I0.881 J1.213 
G01 X355.019 Y-0.362 
G03 X355.189 Y-0.443 I0.722 J1.314 
G01 X356.357 Y-0.905 
G03 X356.536 Y-0.963 I0.552 J1.394 
G01 X357.752 Y-1.275 
G03 X357.938 Y-1.311 I0.373 J1.452 
G01 X359.184 Y-1.468 
G03 X359.372 Y-1.48 I0.187 J1.488 
G01 X359.757 Y-1.48 
G03 X360 Y-1.5 I0.242 J1.48 
G01 X380 Y-1.5 
G03 X380.094 Y-1.497 I0 J1.5 
G01 X381.347 Y-1.418 
G03 X381.533 Y-1.394 I-0.094 J1.497 
G01 X382.767 Y-1.159 
G03 X382.95 Y-1.112 I-0.28 J1.473 
G01 X384.144 Y-0.724 
G03 X384.319 Y-0.655 I-0.463 J1.426 
G01 X385.456 Y-0.12 
G03 X385.621 Y-0.029 I-0.638 J1.357 
G01 X386.681 Y0.643 
G03 X386.834 Y0.754 I-0.803 J1.266 
G01 X387.801 Y1.554 
G03 X387.938 Y1.683 I-0.956 J1.155 
G01 X388.798 Y2.598 
G03 X388.918 Y2.744 I-1.093 J1.027 
G01 X389.656 Y3.76 
G03 X389.757 Y3.919 I-1.213 J0.881 
G01 X390.362 Y5.019 
G03 X390.442 Y5.189 I-1.314 J0.722 
G01 X390.905 Y6.356 
G03 X390.963 Y6.537 I-1.394 J0.552 
G01 X391.275 Y7.753 
G03 X391.311 Y7.938 I-1.452 J0.372 
G01 X391.468 Y9.184 
G03 X391.48 Y9.372 I-1.488 J0.187 
G01 X391.48 Y9.755 
G03 X391.5 Y10 I-1.48 J0.244 
G01 X391.5 Y60 
G03 X390 Y61.5 I-1.5 J0 
G01 X351.5 Y61.5 
X351.5 Y76 
G03 X350 Y77.5 I-1.5 J0 
G01 X330 Y77.5 
G03 X328.5 Y76 I0 J-1.5 
G01 X328.5 Y61.5 
X206.5 Y61.5 
X206.5 Y76 
G03 X205 Y77.5 I-1.5 J0 
G01 X185 Y77.5 
G03 X183.5 Y76 I0 J-1.5 
G01 X183.5 Y61.5 
X61.5 Y61.5 
X61.5 Y76 
G03 X60 Y77.5 I-1.5 J0 
G01 X40 Y77.5 
G03 X38.5 Y76 I0 J-1.5 
G01 X38.5 Y61.5 
X0 Y61.5 
G03 X-1.5 Y60 I0 J-1.5 
G01 X-1.5 Y10 
G03 X-1.497 Y9.905 I1.5 J0 
G01 X-1.418 Y8.652 
G03 X-1.394 Y8.465 I1.497 J0.094 
G01 X-1.159 Y7.232 
G03 X-1.112 Y7.049 I1.473 J0.281 
G01 X-0.724 Y5.855 
G03 X-0.655 Y5.68 I1.426 J0.463 
G01 X-0.12 Y4.543 
G03 X-0.029 Y4.378 I1.357 J0.638 
G01 X0.643 Y3.318 
G03 X0.754 Y3.166 I1.266 J0.803 
G01 X1.554 Y2.198 
G03 X1.683 Y2.061 I1.155 J0.956 
G01 X2.598 Y1.201 
G03 X2.744 Y1.081 I1.026 J1.093 
G01 X3.76 Y0.343 
G03 X3.919 Y0.242 I0.881 J1.213 
G01 X5.019 Y-0.362 
G03 X5.19 Y-0.442 I0.722 J1.314 
G01 X6.357 Y-0.905 
G03 X6.536 Y-0.963 I0.552 J1.394 
G01 X7.753 Y-1.275 
G03 X7.938 Y-1.311 I0.373 J1.452 
G01 X9.184 Y-1.468 
G03 X9.372 Y-1.48 I0.187 J1.488 
G01 X9.757 Y-1.48 
G03 X10 Y-1.5 I0.242 J1.48 
G01 X30 Y-1.5 
G03 X30.242 Y-1.48 I0 J1.5 
G01 X30.627 Y-1.48 
G03 X30.815 Y-1.468 I0 J1.5 
G01 X32.061 Y-1.311 
G03 X32.246 Y-1.275 I-0.187 J1.488 
G01 X33.463 Y-0.963 
G03 X33.642 Y-0.905 I-0.373 J1.452 
G01 X34.809 Y-0.442 
G03 X34.98 Y-0.362 I-0.552 J1.394 
G01 X36.08 Y0.242 
G03 X36.239 Y0.343 I-0.722 J1.314 
G01 X37.255 Y1.081 
G03 X37.401 Y1.201 I-0.881 J1.213 
G01 X38.316 Y2.061 
G03 X38.445 Y2.198 I-1.026 J1.093 
G01 X39.245 Y3.166 
G03 X39.356 Y3.318 I-1.155 J0.956 
G01 X40.029 Y4.378 
G03 X40.12 Y4.543 I-1.266 J0.803 
G01 X40.655 Y5.68 
G03 X40.724 Y5.855 I-1.357 J0.638 
G01 X41.112 Y7.049 
G03 X41.159 Y7.231 I-1.426 J0.463 
G01 X41.394 Y8.465 
G03 X41.418 Y8.652 I-1.473 J0.281 
G01 X41.481 Y9.665 
G03 X41.519 Y10 I-1.462 J0.334 
G01 X41.519 Y10.533 
X41.653 Y11.592 
X41.918 Y12.625 
X42.311 Y13.617 
X42.825 Y14.552 
X43.452 Y15.416 
X44.183 Y16.194 
X45.005 Y16.874 
X45.906 Y17.446 
X46.871 Y17.9 
X47.886 Y18.23 
X48.935 Y18.43 
X50.047 Y18.5 
X195 Y18.5 
G02 X195 Y17.5 I0 J-0.5 
G01 Z-5.666 F100
G02 X195 Y18.5 I0 J0.5 F400
G01 X339.757 Y18.5 
G03 X340 Y18.48 I0.242 J1.48 
G01 X340.533 Y18.48 
X341.592 Y18.346 
X342.625 Y18.081 
X343.618 Y17.688 
X344.552 Y17.174 
X345.416 Y16.546 
X346.194 Y15.816 
X346.873 Y14.994 
X347.446 Y14.093 
X347.9 Y13.127 
X348.23 Y12.113 
X348.429 Y11.065 
X348.581 Y8.652 
G03 X348.605 Y8.465 I1.497 J0.094 
G01 X348.84 Y7.232 
G03 X348.887 Y7.049 I1.473 J0.28 
G01 X349.275 Y5.855 
G03 X349.344 Y5.679 I1.426 J0.463 
G01 X349.879 Y4.543 
G03 X349.97 Y4.378 I1.357 J0.638 
G01 X350.643 Y3.318 
G03 X350.753 Y3.166 I1.266 J0.803 
G01 X351.553 Y2.198 
G03 X351.683 Y2.06 I1.156 J0.955 
G01 X352.599 Y1.201 
G03 X352.744 Y1.081 I1.026 J1.093 
G01 X353.76 Y0.343 
G03 X353.919 Y0.242 I0.881 J1.213 
G01 X355.019 Y-0.362 
G03 X355.189 Y-0.443 I0.722 J1.314 
G01 X356.357 Y-0.905 
G03 X356.536 Y-0.963 I0.552 J1.394 
G01 X357.752 Y-1.275 
G03 X357.938 Y-1.311 I0.373 J1.452 
G01 X359.184 Y-1.468 
G03 X359.372 Y-1.48 I0.187 J1.488 
G01 X359.757 Y-1.48 
G03 X360 Y-1.5 I0.242 J1.48 
G01 X380 Y-1.5 
G03 X380.094 Y-1.497 I0 J1.5 
G01 X381.347 Y-1.418 
G03 X381.533 Y-1.394 I-0.094 J1.497 
G01 X382.767 Y-1.159 
G03 X382.95 Y-1.112 I-0.28 J1.473 
G01 X384.144 Y-0.724 
G03 X384.319 Y-0.655 I-0.463 J1.426 
G01 X385.456 Y-0.12 
G03 X385.621 Y-0.029 I-0.638 J1.357 
G01 X386.681 Y0.643 
G03 X386.834 Y0.754 I-0.803 J1.266 
G01 X387.801 Y1.554 
G03 X387.938 Y1.683 I-0.956 J1.155 
G01 X388.798 Y2.598 
G03 X388.918 Y2.744 I-1.093 J1.027 
G01 X389.656 Y3.76 
G03 X389.757 Y3.919 I-1.213 J0.881 
G01 X390.362 Y5.019 
G03 X390.442 Y5.189 I-1.314 J0.722 
G01 X390.905 Y6.356 
G03 X390.963 Y6.537 I-1.394 J0.552 
G01 X391.275 Y7.753 
G03 X391.311 Y7.938 I-1.452 J0.372 
G01 X391.468 Y9.184 
G03 X391.48 Y9.372 I-1.488 J0.187 
G01 X391.48 Y9.755 
G03 X391.5 Y10 I-1.48 J0.244 
G01 X391.5 Y60 
G03 X390 Y61.5 I-1.5 J0 
G01 X351.5 Y61.5 
X351.5 Y76 
G03 X350 Y77.5 I-1.5 J0 
G01 X330 Y77.5 
G03 X328.5 Y76 I0 J-1.5 
G01 X328.5 Y61.5 
X206.5 Y61.5 
X206.5 Y76 
G03 X205 Y77.5 I-1.5 J0 
G01 X185 Y77.5 
G03 X183.5 Y76 I0 J-1.5 
G01 X183.5 Y61.5 
X61.5 Y61.5 
X61.5 Y76 
G03 X60 Y77.5 I-1.5 J0 
G01 X40 Y77.5 
G03 X38.5 Y76 I0 J-1.5 
G01 X38.5 Y61.5 
X0 Y61.5 
G03 X-1.5 Y60 I0 J-1.5 
G01 X-1.5 Y10 
G03 X-1.497 Y9.905 I1.5 J0 
G01 X-1.418 Y8.652 
G03 X-1.394 Y8.465 I1.497 J0.094 
G01 X-1.159 Y7.232 
G03 X-1.112 Y7.049 I1.473 J0.281 
G01 X-0.724 Y5.855 
G03 X-0.655 Y5.68 I1.426 J0.463 
G01 X-0.12 Y4.543 
G03 X-0.029 Y4.378 I1.357 J0.638 
G01 X0.643 Y3.318 
G03 X0.754 Y3.166 I1.266 J0.803 
G01 X1.554 Y2.198 
G03 X1.683 Y2.061 I1.155 J0.956 
G01 X2.598 Y1.201 
G03 X2.744 Y1.081 I1.026 J1.093 
G01 X3.76 Y0.343 
G03 X3.919 Y0.242 I0.881 J1.213 
G01 X5.019 Y-0.362 
G03 X5.19 Y-0.442 I0.722 J1.314 
G01 X6.357 Y-0.905 
G03 X6.536 Y-0.963 I0.552 J1.394 
G01 X7.753 Y-1.275 
G03 X7.938 Y-1.311 I0.373 J1.452 
G01 X9.184 Y-1.468 
G03 X9.372 Y-1.48 I0.187 J1.488 
G01 X9.757 Y-1.48 
G03 X10 Y-1.5 I0.242 J1.48 
G01 X30 Y-1.5 
G03 X30.242 Y-1.48 I0 J1.5 
G01 X30.627 Y-1.48 
G03 X30.815 Y-1.468 I0 J1.5 
G01 X32.061 Y-1.311 
G03 X32.246 Y-1.275 I-0.187 J1.488 
G01 X33.463 Y-0.963 
G03 X33.642 Y-0.905 I-0.373 J1.452 
G01 X34.809 Y-0.442 
G03 X34.98 Y-0.362 I-0.552 J1.394 
G01 X36.08 Y0.242 
G03 X36.239 Y0.343 I-0.722 J1.314 
G01 X37.255 Y1.081 
G03 X37.401 Y1.201 I-0.881 J1.213 
G01 X38.316 Y2.061 
G03 X38.445 Y2.198 I-1.026 J1.093 
G01 X39.245 Y3.166 
G03 X39.356 Y3.318 I-1.155 J0.956 
G01 X40.029 Y4.378 
G03 X40.12 Y4.543 I-1.266 J0.803 
G01 X40.655 Y5.68 
G03 X40.724 Y5.855 I-1.357 J0.638 
G01 X41.112 Y7.049 
G03 X41.159 Y7.231 I-1.426 J0.463 
G01 X41.394 Y8.465 
G03 X41.418 Y8.652 I-1.473 J0.281 
G01 X41.481 Y9.665 
G03 X41.519 Y10 I-1.462 J0.334 
G01 X41.519 Y10.533 
X41.653 Y11.592 
X41.918 Y12.625 
X42.311 Y13.617 
X42.825 Y14.552 
X43.452 Y15.416 
X44.183 Y16.194 
X45.005 Y16.874 
X45.906 Y17.446 
X46.871 Y17.9 
X47.886 Y18.23 
X48.935 Y18.43 
X50.047 Y18.5 
X195 Y18.5 
G02 X195 Y17.5 I0 J-0.5 
G01 Z-8.5 F100
G02 X195 Y18.5 I0 J0.5 F400
G01 X339.757 Y18.5 
G03 X340 Y18.48 I0.242 J1.48 
G01 X340.533 Y18.48 
X341.592 Y18.346 
X342.625 Y18.081 
X343.618 Y17.688 
X344.552 Y17.174 
X345.416 Y16.546 
X346.194 Y15.816 
X346.873 Y14.994 
X347.446 Y14.093 
X347.9 Y13.127 
X348.23 Y12.113 
X348.429 Y11.065 
X348.581 Y8.652 
G03 X348.605 Y8.465 I1.497 J0.094 
G01 X348.84 Y7.232 
G03 X348.887 Y7.049 I1.473 J0.28 
G01 X349.275 Y5.855 
G03 X349.344 Y5.679 I1.426 J0.463 
G01 X349.879 Y4.543 
G03 X349.97 Y4.378 I1.357 J0.638 
G01 X350.643 Y3.318 
G03 X350.753 Y3.166 I1.266 J0.803 
G01 X351.553 Y2.198 
G03 X351.683 Y2.06 I1.156 J0.955 
G01 X352.599 Y1.201 
G03 X352.744 Y1.081 I1.026 J1.093 
G01 X353.76 Y0.343 
G03 X353.919 Y0.242 I0.881 J1.213 
G01 X355.019 Y-0.362 
G03 X355.189 Y-0.443 I0.722 J1.314 
G01 X356.357 Y-0.905 
G03 X356.536 Y-0.963 I0.552 J1.394 
G01 X357.752 Y-1.275 
G03 X357.938 Y-1.311 I0.373 J1.452 
G01 X359.184 Y-1.468 
G03 X359.372 Y-1.48 I0.187 J1.488 
G01 X359.757 Y-1.48 
G03 X360 Y-1.5 I0.242 J1.48 
G01 X380 Y-1.5 
G03 X380.094 Y-1.497 I0 J1.5 
G01 X381.347 Y-1.418 
G03 X381.533 Y-1.394 I-0.094 J1.497 
G01 X382.767 Y-1.159 
G03 X382.95 Y-1.112 I-0.28 J1.473 
G01 X384.144 Y-0.724 
G03 X384.319 Y-0.655 I-0.463 J1.426 
G01 X385.456 Y-0.12 
G03 X385.621 Y-0.029 I-0.638 J1.357 
G01 X386.681 Y0.643 
G03 X386.834 Y0.754 I-0.803 J1.266 
G01 X387.801 Y1.554 
G03 X387.938 Y1.683 I-0.956 J1.155 
G01 X388.798 Y2.598 
G03 X388.918 Y2.744 I-1.093 J1.027 
G01 X389.656 Y3.76 
G03 X389.757 Y3.919 I-1.213 J0.881 
G01 X390.362 Y5.019 
G03 X390.442 Y5.189 I-1.314 J0.722 
G01 X390.905 Y6.356 
G03 X390.963 Y6.537 I-1.394 J0.552 
G01 X391.275 Y7.753 
G03 X391.311 Y7.938 I-1.452 J0.372 
G01 X391.468 Y9.184 
G03 X391.48 Y9.372 I-1.488 J0.187 
G01 X391.48 Y9.755 
G03 X391.5 Y10 I-1.48 J0.244 
G01 X391.5 Y60 
G03 X390 Y61.5 I-1.5 J0 
G01 X351.5 Y61.5 
X351.5 Y76 
G03 X350 Y77.5 I-1.5 J0 
G01 X330 Y77.5 
G03 X328.5 Y76 I0 J-1.5 
G01 X328.5 Y61.5 
X206.5 Y61.5 
X206.5 Y76 
G03 X205 Y77.5 I-1.5 J0 
G01 X185 Y77.5 
G03 X183.5 Y76 I0 J-1.5 
G01 X183.5 Y61.5 
X61.5 Y61.5 
X61.5 Y76 
G03 X60 Y77.5 I-1.5 J0 
G01 X40 Y77.5 
G03 X38.5 Y76 I0 J-1.5 
G01 X38.5 Y61.5 
X0 Y61.5 
G03 X-1.5 Y60 I0 J-1.5 
G01 X-1.5 Y10 
G03 X-1.497 Y9.905 I1.5 J0 
G01 X-1.418 Y8.652 
G03 X-1.394 Y8.465 I1.497 J0.094 
G01 X-1.159 Y7.232 
G03 X-1.112 Y7.049 I1.473 J0.281 
G01 X-0.724 Y5.855 
G03 X-0.655 Y5.68 I1.426 J0.463 
G01 X-0.12 Y4.543 
G03 X-0.029 Y4.378 I1.357 J0.638 
G01 X0.643 Y3.318 
G03 X0.754 Y3.166 I1.266 J0.803 
G01 X1.554 Y2.198 
G03 X1.683 Y2.061 I1.155 J0.956 
G01 X2.598 Y1.201 
G03 X2.744 Y1.081 I1.026 J1.093 
G01 X3.76 Y0.343 
G03 X3.919 Y0.242 I0.881 J1.213 
G01 X5.019 Y-0.362 
G03 X5.19 Y-0.442 I0.722 J1.314 
G01 X6.357 Y-0.905 
G03 X6.536 Y-0.963 I0.552 J1.394 
G01 X7.753 Y-1.275 
G03 X7.938 Y-1.311 I0.373 J1.452 
G01 X9.184 Y-1.468 
G03 X9.372 Y-1.48 I0.187 J1.488 
G01 X9.757 Y-1.48 
G03 X10 Y-1.5 I0.242 J1.48 
G01 X30 Y-1.5 
G03 X30.242 Y-1.48 I0 J1.5 
G01 X30.627 Y-1.48 
G03 X30.815 Y-1.468 I0 J1.5 
G01 X32.061 Y-1.311 
G03 X32.246 Y-1.275 I-0.187 J1.488 
G01 X33.463 Y-0.963 
G03 X33.642 Y-0.905 I-0.373 J1.452 
G01 X34.809 Y-0.442 
G03 X34.98 Y-0.362 I-0.552 J1.394 
G01 X36.08 Y0.242 
G03 X36.239 Y0.343 I-0.722 J1.314 
G01 X37.255 Y1.081 
G03 X37.401 Y1.201 I-0.881 J1.213 
G01 X38.316 Y2.061 
G03 X38.445 Y2.198 I-1.026 J1.093 
G01 X39.245 Y3.166 
G03 X39.356 Y3.318 I-1.155 J0.956 
G01 X40.029 Y4.378 
G03 X40.12 Y4.543 I-1.266 J0.803 
G01 X40.655 Y5.68 
G03 X40.724 Y5.855 I-1.357 J0.638 
G01 X41.112 Y7.049 
G03 X41.159 Y7.231 I-1.426 J0.463 
G01 X41.394 Y8.465 
G03 X41.418 Y8.652 I-1.473 J0.281 
G01 X41.481 Y9.665 
G03 X41.519 Y10 I-1.462 J0.334 
G01 X41.519 Y10.533 
X41.653 Y11.592 
X41.918 Y12.625 
X42.311 Y13.617 
X42.825 Y14.552 
X43.452 Y15.416 
X44.183 Y16.194 
X45.005 Y16.874 
X45.906 Y17.446 
X46.871 Y17.9 
X47.886 Y18.23 
X48.935 Y18.43 
X50.047 Y18.5 
X195 Y18.5 
G02 X195 Y17.5 I0 J-0.5 
G01 Z-11.333 F100
G02 X195 Y18.5 I0 J0.5 F400
G01 X339.757 Y18.5 
G03 X340 Y18.48 I0.242 J1.48 
G01 X340.533 Y18.48 
X341.592 Y18.346 
X342.625 Y18.081 
X343.618 Y17.688 
X344.552 Y17.174 
X345.416 Y16.546 
X346.194 Y15.816 
X346.873 Y14.994 
X347.446 Y14.093 
X347.9 Y13.127 
X348.23 Y12.113 
X348.429 Y11.065 
X348.581 Y8.652 
G03 X348.605 Y8.465 I1.497 J0.094 
G01 X348.84 Y7.232 
G03 X348.887 Y7.049 I1.473 J0.28 
G01 X349.275 Y5.855 
G03 X349.344 Y5.679 I1.426 J0.463 
G01 X349.879 Y4.543 
G03 X349.97 Y4.378 I1.357 J0.638 
G01 X350.643 Y3.318 
G03 X350.753 Y3.166 I1.266 J0.803 
G01 X351.553 Y2.198 
G03 X351.683 Y2.06 I1.156 J0.955 
G01 X352.599 Y1.201 
G03 X352.744 Y1.081 I1.026 J1.093 
G01 X353.76 Y0.343 
G03 X353.919 Y0.242 I0.881 J1.213 
G01 X355.019 Y-0.362 
G03 X355.189 Y-0.443 I0.722 J1.314 
G01 X356.357 Y-0.905 
G03 X356.536 Y-0.963 I0.552 J1.394 
G01 X357.752 Y-1.275 
G03 X357.938 Y-1.311 I0.373 J1.452 
G01 X359.184 Y-1.468 
G03 X359.372 Y-1.48 I0.187 J1.488 
G01 X359.757 Y-1.48 
G03 X360 Y-1.5 I0.242 J1.48 
G01 X380 Y-1.5 
G03 X380.094 Y-1.497 I0 J1.5 
G01 X381.347 Y-1.418 
G03 X381.533 Y-1.394 I-0.094 J1.497 
G01 X382.767 Y-1.159 
G03 X382.95 Y-1.112 I-0.28 J1.473 
G01 X384.144 Y-0.724 
G03 X384.319 Y-0.655 I-0.463 J1.426 
G01 X385.456 Y-0.12 
G03 X385.621 Y-0.029 I-0.638 J1.357 
G01 X386.681 Y0.643 
G03 X386.834 Y0.754 I-0.803 J1.266 
G01 X387.801 Y1.554 
G03 X387.938 Y1.683 I-0.956 J1.155 
G01 X388.798 Y2.598 
G03 X388.918 Y2.744 I-1.093 J1.027 
G01 X389.656 Y3.76 
G03 X389.757 Y3.919 I-1.213 J0.881 
G01 X390.362 Y5.019 
G03 X390.442 Y5.189 I-1.314 J0.722 
G01 X390.905 Y6.356 
G03 X390.963 Y6.537 I-1.394 J0.552 
G01 X391.275 Y7.753 
G03 X391.311 Y7.938 I-1.452 J0.372 
G01 X391.468 Y9.184 
G03 X391.48 Y9.372 I-1.488 J0.187 
G01 X391.48 Y9.755 
G03 X391.5 Y10 I-1.48 J0.244 
G01 X391.5 Y60 
G03 X390 Y61.5 I-1.5 J0 
G01 X351.5 Y61.5 
X351.5 Y76 
G03 X350 Y77.5 I-1.5 J0 
G01 X330 Y77.5 
G03 X328.5 Y76 I0 J-1.5 
G01 X328.5 Y61.5 
X206.5 Y61.5 
X206.5 Y76 
G03 X205 Y77.5 I-1.5 J0 
G01 X185 Y77.5 
G03 X183.5 Y76 I0 J-1.5 
G01 X183.5 Y61.5 
X61.5 Y61.5 
X61.5 Y76 
G03 X60 Y77.5 I-1.5 J0 
G01 X40 Y77.5 
G03 X38.5 Y76 I0 J-1.5 
G01 X38.5 Y61.5 
X0 Y61.5 
G03 X-1.5 Y60 I0 J-1.5 
G01 X-1.5 Y10 
G03 X-1.497 Y9.905 I1.5 J0 
G01 X-1.418 Y8.652 
G03 X-1.394 Y8.465 I1.497 J0.094 
G01 X-1.159 Y7.232 
G03 X-1.112 Y7.049 I1.473 J0.281 
G01 X-0.724 Y5.855 
G03 X-0.655 Y5.68 I1.426 J0.463 
G01 X-0.12 Y4.543 
G03 X-0.029 Y4.378 I1.357 J0.638 
G01 X0.643 Y3.318 
G03 X0.754 Y3.166 I1.266 J0.803 
G01 X1.554 Y2.198 
G03 X1.683 Y2.061 I1.155 J0.956 
G01 X2.598 Y1.201 
G03 X2.744 Y1.081 I1.026 J1.093 
G01 X3.76 Y0.343 
G03 X3.919 Y0.242 I0.881 J1.213 
G01 X5.019 Y-0.362 
G03 X5.19 Y-0.442 I0.722 J1.314 
G01 X6.357 Y-0.905 
G03 X6.536 Y-0.963 I0.552 J1.394 
G01 X7.753 Y-1.275 
G03 X7.938 Y-1.311 I0.373 J1.452 
G01 X9.184 Y-1.468 
G03 X9.372 Y-1.48 I0.187 J1.488 
G01 X9.757 Y-1.48 
G03 X10 Y-1.5 I0.242 J1.48 
G01 X30 Y-1.5 
G03 X30.242 Y-1.48 I0 J1.5 
G01 X30.627 Y-1.48 
G03 X30.815 Y-1.468 I0 J1.5 
G01 X32.061 Y-1.311 
G03 X32.246 Y-1.275 I-0.187 J1.488 
G01 X33.463 Y-0.963 
G03 X33.642 Y-0.905 I-0.373 J1.452 
G01 X34.809 Y-0.442 
G03 X34.98 Y-0.362 I-0.552 J1.394 
G01 X36.08 Y0.242 
G03 X36.239 Y0.343 I-0.722 J1.314 
G01 X37.255 Y1.081 
G03 X37.401 Y1.201 I-0.881 J1.213 
G01 X38.316 Y2.061 
G03 X38.445 Y2.198 I-1.026 J1.093 
G01 X39.245 Y3.166 
G03 X39.356 Y3.318 I-1.155 J0.956 
G01 X40.029 Y4.378 
G03 X40.12 Y4.543 I-1.266 J0.803 
G01 X40.655 Y5.68 
G03 X40.724 Y5.855 I-1.357 J0.638 
G01 X41.112 Y7.049 
G03 X41.159 Y7.231 I-1.426 J0.463 
G01 X41.394 Y8.465 
G03 X41.418 Y8.652 I-1.473 J0.281 
G01 X41.481 Y9.665 
G03 X41.519 Y10 I-1.462 J0.334 
G01 X41.519 Y10.533 
X41.653 Y11.592 
X41.918 Y12.625 
X42.311 Y13.617 
X42.825 Y14.552 
X43.452 Y15.416 
X44.183 Y16.194 
X45.005 Y16.874 
X45.906 Y17.446 
X46.871 Y17.9 
X47.886 Y18.23 
X48.935 Y18.43 
X50.047 Y18.5 
X195 Y18.5 
G02 X195 Y17.5 I0 J-0.5 
G01 Z-14.166 F100
G02 X195 Y18.5 I0 J0.5 F400
G01 X339.757 Y18.5 
G03 X340 Y18.48 I0.242 J1.48 
G01 X340.533 Y18.48 
X341.592 Y18.346 
X342.625 Y18.081 
X343.618 Y17.688 
X344.552 Y17.174 
X345.416 Y16.546 
X346.194 Y15.816 
X346.873 Y14.994 
X347.446 Y14.093 
X347.9 Y13.127 
X348.23 Y12.113 
X348.429 Y11.065 
X348.581 Y8.652 
G03 X348.605 Y8.465 I1.497 J0.094 
G01 X348.84 Y7.232 
G03 X348.887 Y7.049 I1.473 J0.28 
G01 X349.275 Y5.855 
G03 X349.344 Y5.679 I1.426 J0.463 
G01 X349.879 Y4.543 
G03 X349.97 Y4.378 I1.357 J0.638 
G01 X350.643 Y3.318 
G03 X350.753 Y3.166 I1.266 J0.803 
G01 X351.553 Y2.198 
G03 X351.683 Y2.06 I1.156 J0.955 
G01 X352.599 Y1.201 
G03 X352.744 Y1.081 I1.026 J1.093 
G01 X353.76 Y0.343 
G03 X353.919 Y0.242 I0.881 J1.213 
G01 X355.019 Y-0.362 
G03 X355.189 Y-0.443 I0.722 J1.314 
G01 X356.357 Y-0.905 
G03 X356.536 Y-0.963 I0.552 J1.394 
G01 X357.752 Y-1.275 
G03 X357.938 Y-1.311 I0.373 J1.452 
G01 X359.184 Y-1.468 
G03 X359.372 Y-1.48 I0.187 J1.488 
G01 X359.757 Y-1.48 
G03 X360 Y-1.5 I0.242 J1.48 
G01 X380 Y-1.5 
G03 X380.094 Y-1.497 I0 J1.5 
G01 X381.347 Y-1.418 
G03 X381.533 Y-1.394 I-0.094 J1.497 
G01 X382.767 Y-1.159 
G03 X382.95 Y-1.112 I-0.28 J1.473 
G01 X384.144 Y-0.724 
G03 X384.319 Y-0.655 I-0.463 J1.426 
G01 X385.456 Y-0.12 
G03 X385.621 Y-0.029 I-0.638 J1.357 
G01 X386.681 Y0.643 
G03 X386.834 Y0.754 I-0.803 J1.266 
G01 X387.801 Y1.554 
G03 X387.938 Y1.683 I-0.956 J1.155 
G01 X388.798 Y2.598 
G03 X388.918 Y2.744 I-1.093 J1.027 
G01 X389.656 Y3.76 
G03 X389.757 Y3.919 I-1.213 J0.881 
G01 X390.362 Y5.019 
G03 X390.442 Y5.189 I-1.314 J0.722 
G01 X390.905 Y6.356 
G03 X390.963 Y6.537 I-1.394 J0.552 
G01 X391.275 Y7.753 
G03 X391.311 Y7.938 I-1.452 J0.372 
G01 X391.468 Y9.184 
G03 X391.48 Y9.372 I-1.488 J0.187 
G01 X391.48 Y9.755 
G03 X391.5 Y10 I-1.48 J0.244 
G01 X391.5 Y60 
G03 X390 Y61.5 I-1.5 J0 
G01 X351.5 Y61.5 
X351.5 Y76 
G03 X350 Y77.5 I-1.5 J0 
G01 X330 Y77.5 
G03 X328.5 Y76 I0 J-1.5 
G01 X328.5 Y61.5 
X206.5 Y61.5 
X206.5 Y76 
G03 X205 Y77.5 I-1.5 J0 
G01 X185 Y77.5 
G03 X183.5 Y76 I0 J-1.5 
G01 X183.5 Y61.5 
X61.5 Y61.5 
X61.5 Y76 
G03 X60 Y77.5 I-1.5 J0 
G01 X40 Y77.5 
G03 X38.5 Y76 I0 J-1.5 
G01 X38.5 Y61.5 
X0 Y61.5 
G03 X-1.5 Y60 I0 J-1.5 
G01 X-1.5 Y10 
G03 X-1.497 Y9.905 I1.5 J0 
G01 X-1.418 Y8.652 
G03 X-1.394 Y8.465 I1.497 J0.094 
G01 X-1.159 Y7.232 
G03 X-1.112 Y7.049 I1.473 J0.281 
G01 X-0.724 Y5.855 
G03 X-0.655 Y5.68 I1.426 J0.463 
G01 X-0.12 Y4.543 
G03 X-0.029 Y4.378 I1.357 J0.638 
G01 X0.643 Y3.318 
G03 X0.754 Y3.166 I1.266 J0.803 
G01 X1.554 Y2.198 
G03 X1.683 Y2.061 I1.155 J0.956 
G01 X2.598 Y1.201 
G03 X2.744 Y1.081 I1.026 J1.093 
G01 X3.76 Y0.343 
G03 X3.919 Y0.242 I0.881 J1.213 
G01 X5.019 Y-0.362 
G03 X5.19 Y-0.442 I0.722 J1.314 
G01 X6.357 Y-0.905 
G03 X6.536 Y-0.963 I0.552 J1.394 
G01 X7.753 Y-1.275 
G03 X7.938 Y-1.311 I0.373 J1.452 
G01 X9.184 Y-1.468 
G03 X9.372 Y-1.48 I0.187 J1.488 
G01 X9.757 Y-1.48 
G03 X10 Y-1.5 I0.242 J1.48 
G01 X30 Y-1.5 
G03 X30.242 Y-1.48 I0 J1.5 
G01 X30.627 Y-1.48 
G03 X30.815 Y-1.468 I0 J1.5 
G01 X32.061 Y-1.311 
G03 X32.246 Y-1.275 I-0.187 J1.488 
G01 X33.463 Y-0.963 
G03 X33.642 Y-0.905 I-0.373 J1.452 
G01 X34.809 Y-0.442 
G03 X34.98 Y-0.362 I-0.552 J1.394 
G01 X36.08 Y0.242 
G03 X36.239 Y0.343 I-0.722 J1.314 
G01 X37.255 Y1.081 
G03 X37.401 Y1.201 I-0.881 J1.213 
G01 X38.316 Y2.061 
G03 X38.445 Y2.198 I-1.026 J1.093 
G01 X39.245 Y3.166 
G03 X39.356 Y3.318 I-1.155 J0.956 
G01 X40.029 Y4.378 
G03 X40.12 Y4.543 I-1.266 J0.803 
G01 X40.655 Y5.68 
G03 X40.724 Y5.855 I-1.357 J0.638 
G01 X41.112 Y7.049 
G03 X41.159 Y7.231 I-1.426 J0.463 
G01 X41.394 Y8.465 
G03 X41.418 Y8.652 I-1.473 J0.281 
G01 X41.481 Y9.665 
G03 X41.519 Y10 I-1.462 J0.334 
G01 X41.519 Y10.533 
X41.653 Y11.592 
X41.918 Y12.625 
X42.311 Y13.617 
X42.825 Y14.552 
X43.452 Y15.416 
X44.183 Y16.194 
X45.005 Y16.874 
X45.906 Y17.446 
X46.871 Y17.9 
X47.886 Y18.23 
X48.935 Y18.43 
X50.047 Y18.5 
X195 Y18.5 
G02 X195 Y17.5 I0 J-0.5 
G01 Z-17 F100
G02 X195 Y18.5 I0 J0.5 F400
G01 X339.757 Y18.5 
G03 X340 Y18.48 I0.242 J1.48 
G01 X340.533 Y18.48 
X341.592 Y18.346 
X342.625 Y18.081 
X343.618 Y17.688 
X344.552 Y17.174 
X345.416 Y16.546 
X346.194 Y15.816 
X346.873 Y14.994 
X347.446 Y14.093 
X347.9 Y13.127 
X348.23 Y12.113 
X348.429 Y11.065 
X348.581 Y8.652 
G03 X348.605 Y8.465 I1.497 J0.094 
G01 X348.84 Y7.232 
G03 X348.887 Y7.049 I1.473 J0.28 
G01 X349.275 Y5.855 
G03 X349.344 Y5.679 I1.426 J0.463 
G01 X349.879 Y4.543 
G03 X349.97 Y4.378 I1.357 J0.638 
G01 X350.643 Y3.318 
G03 X350.753 Y3.166 I1.266 J0.803 
G01 X351.553 Y2.198 
G03 X351.683 Y2.06 I1.156 J0.955 
G01 X352.599 Y1.201 
G03 X352.744 Y1.081 I1.026 J1.093 
G01 X353.76 Y0.343 
G03 X353.919 Y0.242 I0.881 J1.213 
G01 X355.019 Y-0.362 
G03 X355.189 Y-0.443 I0.722 J1.314 
G01 X356.357 Y-0.905 
G03 X356.536 Y-0.963 I0.552 J1.394 
G01 X357.752 Y-1.275 
G03 X357.938 Y-1.311 I0.373 J1.452 
G01 X359.184 Y-1.468 
G03 X359.372 Y-1.48 I0.187 J1.488 
G01 X359.757 Y-1.48 
G03 X360 Y-1.5 I0.242 J1.48 
G01 X380 Y-1.5 
G03 X380.094 Y-1.497 I0 J1.5 
G01 X381.347 Y-1.418 
G03 X381.533 Y-1.394 I-0.094 J1.497 
G01 X382.767 Y-1.159 
G03 X382.95 Y-1.112 I-0.28 J1.473 
G01 X384.144 Y-0.724 
G03 X384.319 Y-0.655 I-0.463 J1.426 
G01 X385.456 Y-0.12 
G03 X385.621 Y-0.029 I-0.638 J1.357 
G01 X386.681 Y0.643 
G03 X386.834 Y0.754 I-0.803 J1.266 
G01 X387.801 Y1.554 
G03 X387.938 Y1.683 I-0.956 J1.155 
G01 X388.798 Y2.598 
G03 X388.918 Y2.744 I-1.093 J1.027 
G01 X389.656 Y3.76 
G03 X389.757 Y3.919 I-1.213 J0.881 
G01 X390.362 Y5.019 
G03 X390.442 Y5.189 I-1.314 J0.722 
G01 X390.905 Y6.356 
G03 X390.963 Y6.537 I-1.394 J0.552 
G01 X391.275 Y7.753 
G03 X391.311 Y7.938 I-1.452 J0.372 
G01 X391.468 Y9.184 
G03 X391.48 Y9.372 I-1.488 J0.187 
G01 X391.48 Y9.755 
G03 X391.5 Y10 I-1.48 J0.244 
G01 X391.5 Y60 
G03 X390 Y61.5 I-1.5 J0 
G01 X351.5 Y61.5 
X351.5 Y76 
G03 X350 Y77.5 I-1.5 J0 
G01 X330 Y77.5 
G03 X328.5 Y76 I0 J-1.5 
G01 X328.5 Y61.5 
X206.5 Y61.5 
X206.5 Y76 
G03 X205 Y77.5 I-1.5 J0 
G01 X185 Y77.5 
G03 X183.5 Y76 I0 J-1.5 
G01 X183.5 Y61.5 
X61.5 Y61.5 
X61.5 Y76 
G03 X60 Y77.5 I-1.5 J0 
G01 X40 Y77.5 
G03 X38.5 Y76 I0 J-1.5 
G01 X38.5 Y61.5 
X0 Y61.5 
G03 X-1.5 Y60 I0 J-1.5 
G01 X-1.5 Y10 
G03 X-1.497 Y9.905 I1.5 J0 
G01 X-1.418 Y8.652 
G03 X-1.394 Y8.465 I1.497 J0.094 
G01 X-1.159 Y7.232 
G03 X-1.112 Y7.049 I1.473 J0.281 
G01 X-0.724 Y5.855 
G03 X-0.655 Y5.68 I1.426 J0.463 
G01 X-0.12 Y4.543 
G03 X-0.029 Y4.378 I1.357 J0.638 
G01 X0.643 Y3.318 
G03 X0.754 Y3.166 I1.266 J0.803 
G01 X1.554 Y2.198 
G03 X1.683 Y2.061 I1.155 J0.956 
G01 X2.598 Y1.201 
G03 X2.744 Y1.081 I1.026 J1.093 
G01 X3.76 Y0.343 
G03 X3.919 Y0.242 I0.881 J1.213 
G01 X5.019 Y-0.362 
G03 X5.19 Y-0.442 I0.722 J1.314 
G01 X6.357 Y-0.905 
G03 X6.536 Y-0.963 I0.552 J1.394 
G01 X7.753 Y-1.275 
G03 X7.938 Y-1.311 I0.373 J1.452 
G01 X9.184 Y-1.468 
G03 X9.372 Y-1.48 I0.187 J1.488 
G01 X9.757 Y-1.48 
G03 X10 Y-1.5 I0.242 J1.48 
G01 X30 Y-1.5 
G03 X30.242 Y-1.48 I0 J1.5 
G01 X30.627 Y-1.48 
G03 X30.815 Y-1.468 I0 J1.5 
G01 X32.061 Y-1.311 
G03 X32.246 Y-1.275 I-0.187 J1.488 
G01 X33.463 Y-0.963 
G03 X33.642 Y-0.905 I-0.373 J1.452 
G01 X34.809 Y-0.442 
G03 X34.98 Y-0.362 I-0.552 J1.394 
G01 X36.08 Y0.242 
G03 X36.239 Y0.343 I-0.722 J1.314 
G01 X37.255 Y1.081 
G03 X37.401 Y1.201 I-0.881 J1.213 
G01 X38.316 Y2.061 
G03 X38.445 Y2.198 I-1.026 J1.093 
G01 X39.245 Y3.166 
G03 X39.356 Y3.318 I-1.155 J0.956 
G01 X40.029 Y4.378 
G03 X40.12 Y4.543 I-1.266 J0.803 
G01 X40.655 Y5.68 
G03 X40.724 Y5.855 I-1.357 J0.638 
G01 X41.112 Y7.049 
G03 X41.159 Y7.231 I-1.426 J0.463 
G01 X41.394 Y8.465 
G03 X41.418 Y8.652 I-1.473 J0.281 
G01 X41.481 Y9.665 
G03 X41.519 Y10 I-1.462 J0.334 
G01 X41.519 Y10.533 
X41.653 Y11.592 
X41.918 Y12.625 
X42.311 Y13.617 
X42.825 Y14.552 
X43.452 Y15.416 
X44.183 Y16.194 
X45.005 Y16.874 
X45.906 Y17.446 
X46.871 Y17.9 
X47.886 Y18.23 
X48.935 Y18.43 
X50.047 Y18.5 
X195 Y18.5 
G02 X195 Y17.5 I0 J-0.5 
G00 Z5
T0 M06 M02
