(Created with emc2b post processor 2016/07/28 00:36)
(tool change to 3 mm Slot Cutter)
T1 M06 G43
G17 G90 G21
G00 X19 Y428 S7000 M03
Z5
G83 Q3 G98 X19 Y428 Z-17 R2 F100
X39 Y428 
X37 Y395 
X23 Y395 
X23 Y377 
X37 Y377 
X90 Y330 
X37 Y255 
X23 Y255 
X23 Y237 
X37 Y237 
X90 Y212 
X90 Y190 
X37 Y115 
X23 Y115 
X23 Y97 
X37 Y97 
X41 Y75 
X90 Y72 
X90 Y50 
X145 Y30 
X167 Y30 
X300 Y36 
X349 Y75 
X353 Y97 
X367 Y97 
X367 Y115 
X353 Y115 
X300 Y154 
X300 Y176 
X353 Y237 
X367 Y237 
X367 Y255 
X353 Y255 
X300 Y294 
X300 Y316 
X245 Y336 
X223 Y336 
X353 Y377 
X367 Y377 
X367 Y395 
X353 Y395 
X351 Y428 
X371 Y428 
G80
G00 X262.216 Y404.362 S7000 M03
Z2
G01 Z-3 
X262.08 Y402.71 F200
X261.861 Y402.134 
X261.335 Y401.314 
X260.8 Y400.77 
G03 X260.918 Y401.3 I-3.853 J1.136 
G01 X261.204 Y403.773 
G03 X261.226 Y404.362 I-4.678 J0.469 
G01 X262.216 Y404.362 
G00 Z5
X152.529 Y414.786
Z2
G01 Z-3 F100
X152.529 Y396.196 F200
X150.82 Y396.196 
X150.82 Y414.786 
X152.529 Y414.786 
G00 Z5
X260.539 Y417.871
Z2
G01 Z-3 F100
X260.507 Y417.989 F200
X261.105 Y417.512 
X261.713 Y416.555 
X262.141 Y414.912 
X262.324 Y412.119 
X262.324 Y411.956 
X260.636 Y411.956 
G03 X260.819 Y412.958 I-2.831 J1.034 
X260.817 Y414.829 I-34.146 J0.898 
X260.807 Y415.003 I-2.95 J-0.082 
G01 X260.602 Y417.468 
G03 X260.539 Y417.871 I-4.223 J-0.453 
G00 Z5
X252.969 Y418.24
Z2
G01 Z-3 F100
G03 X252.824 Y417.52 I3.426 J-1.064 F200
G01 X252.639 Y414.972 
G03 X252.642 Y412.792 I30.474 J-1.048 
X253.399 Y410.951 I3.07 J0.186 
X252.633 Y408.956 I2.268 J-2.015 
G01 X252.633 Y403.638 
G03 X252.651 Y403.304 I4.533 J0.076 
G01 X252.891 Y401.154 
G03 X253.027 Y400.56 I2.345 J0.224 
G01 X252.84 Y400.654 
X252.201 Y401.218 
X251.746 Y401.886 
X251.442 Y402.654 
X251.234 Y403.918 
X251.146 Y406.088 
X251.146 Y413.085 
X251.33 Y415.536 
X251.754 Y416.966 
X252.326 Y417.785 
X252.969 Y418.24 
G00 Z5
X222.888 Y418.686
Z2
G01 Z-3 F100
G03 X223.409 Y417.663 I2.695 J0.728 F200
X222.984 Y416.356 I2.621 J-1.575 
X222.797 Y413.979 I58.347 J-5.786 
X222.793 Y413.811 I2.476 J-0.143 
G01 X222.793 Y405.052 
G03 X222.801 Y404.812 I3.578 J-0 
G01 X222.992 Y402.422 
G03 X223.425 Y401.1 I3.036 J0.262 
X222.763 Y399.232 I2.344 J-1.882 
G01 X222.763 Y396.595 
X221.276 Y396.595 
X221.276 Y418.686 
X222.888 Y418.686 
G00 Z5
X242.682 Y418.686
Z2
G01 Z-3 F100
X242.682 Y400.097 F200
X240.974 Y400.097 
X240.974 Y418.686 
X242.682 Y418.686 
G00 Z5
X230.559 Y419.105
Z2
G01 Z-3 F100
X231.306 Y418.996 F200
X231.843 Y418.725 
X232.165 Y418.41 
X232.243 Y418.248 
X232.509 Y414.583 
X232.509 Y404.579 
X232.417 Y401.943 
X232.213 Y400.65 
X232.028 Y400.261 
X231.76 Y400.003 
X231.272 Y399.777 
X230.49 Y399.674 
X229.91 Y399.744 
X229.442 Y399.929 
G03 X230.682 Y401.648 I-2.896 J3.395 
X230.839 Y402.405 I-3.57 J1.135 
G01 X230.993 Y404.64 
X230.997 Y404.744 
X230.997 Y413.908 
X230.994 Y413.998 
X230.85 Y416.374 
G03 X230.127 Y418.152 I-3.088 J-0.219 
X229.469 Y418.845 I-4.179 J-3.309 
G01 X229.956 Y419.033 
X230.559 Y419.105 
G00 Z5
X163.329 Y421.061
Z2
G01 Z-3 F100
X174.001 Y418.203 F200
X174 Y418.2 
X172.423 Y418.622 
G03 X168.749 Y416.502 I-0.769 J-2.91 
G01 X163.315 Y396.219 
X161.575 Y396.685 
X167.008 Y416.966 
G03 X164.888 Y420.64 I-2.911 J0.768 
X163.328 Y421.058 I-65.914 J-242.877 
G01 X163.329 Y421.061 
G00 Z5
X195.013 Y422.793
Z2
G01 Z-3 F100
G03 X197.199 Y420.984 I3.807 J2.375 F200
G01 X201.506 Y419.327 
G03 X203.899 Y419.107 I1.591 J4.188 
X204.163 Y416.274 I4.37 J-1.021 
G01 X206.036 Y412.059 
G03 X207.572 Y410.211 I4.076 J1.826 
X205.758 Y408.022 I2.383 J-3.821 
G01 X204.101 Y403.717 
G03 X203.881 Y401.321 I4.198 J-1.593 
X203.574 Y401.384 I-0.63 J-2.292 
G01 X202.741 Y403.592 
G03 X187.612 Y417.268 I-7.745 J6.637 
X187.306 Y403.532 I7.371 J-7.035 
G01 X186.358 Y401.383 
G03 X186.097 Y401.343 I0.121 J-1.663 
X185.834 Y404.172 I-4.386 J1.018 
G01 X183.961 Y408.389 
G03 X182.427 Y410.24 I-4.074 J-1.815 
X184.239 Y412.427 I-2.382 J3.818 
G01 X185.896 Y416.733 
G03 X186.115 Y419.124 I-4.224 J1.592 
X188.949 Y419.389 I1.02 J4.376 
G01 X193.166 Y421.263 
G03 X195.013 Y422.793 I-1.817 J4.073 
G01 X194.882 Y427.335 
X195.285 Y427.319 
X195.883 Y424.549 
G03 X197.739 Y422.384 I2.949 J0.65 
G01 X202.045 Y420.727 
G03 X204.701 Y420.975 I1.073 J2.846 
G01 X207.014 Y422.406 
X207.287 Y422.11 
X205.752 Y419.728 
G03 X205.534 Y416.884 I2.56 J-1.626 
G01 X207.407 Y412.669 
G03 X209.46 Y410.966 I2.769 J1.25 
G01 X212.108 Y410.342 
X212.092 Y409.939 
X209.321 Y409.338 
G03 X207.158 Y407.484 I0.651 J-2.948 
G01 X205.501 Y403.179 
G03 X205.749 Y400.523 I2.845 J-1.073 
G01 X207.18 Y398.21 
X206.884 Y397.937 
X204.501 Y399.472 
G03 X202.523 Y399.923 I-1.63 J-2.585 
G01 X201.008 Y403.938 
G03 X189.332 Y416.836 I-6.01 J6.292 
X189.085 Y403.846 I5.657 J-6.604 
G01 X187.335 Y399.881 
G03 X185.297 Y399.475 I-0.462 J-2.998 
G01 X182.984 Y398.044 
X182.711 Y398.341 
X184.246 Y400.723 
G03 X184.464 Y403.565 I-2.564 J1.626 
G01 X182.591 Y407.781 
G03 X180.536 Y409.485 I-2.745 J-1.22 
G01 X177.89 Y410.108 
X177.906 Y410.511 
X180.677 Y411.112 
G03 X182.84 Y412.966 I-0.651 J2.948 
G01 X184.497 Y417.272 
G03 X184.249 Y419.928 I-2.853 J1.073 
G01 X182.818 Y422.241 
X183.114 Y422.513 
X185.497 Y420.978 
G03 X188.34 Y420.76 I1.625 J2.548 
G01 X192.557 Y422.634 
G03 X194.259 Y424.688 I-1.221 J2.744 
G01 X194.882 Y427.335 
X193.706 Y428.885 
X196.506 Y428.771 
X197.35 Y424.866 
G03 X198.278 Y423.784 I1.464 J0.317 
G01 X202.584 Y422.127 
G03 X203.912 Y422.251 I0.539 J1.397 
G01 X207.278 Y424.334 
X209.177 Y422.274 
X207.014 Y418.916 
G03 X206.905 Y417.495 I1.262 J-0.811 
G01 X208.778 Y413.279 
G03 X209.804 Y412.427 I1.372 J0.608 
G01 X213.658 Y411.519 
X213.544 Y408.72 
X209.64 Y407.873 
G03 X208.558 Y406.946 I0.314 J-1.461 
G01 X206.901 Y402.641 
G03 X207.025 Y401.313 I1.397 J-0.539 
G01 X209.108 Y397.947 
X207.048 Y396.048 
X203.689 Y398.211 
G03 X202.465 Y398.392 I-0.812 J-1.268 
G01 X201.592 Y398.143 
X199.233 Y404.396 
G03 X190.945 Y416.186 I-4.234 J5.831 
X190.92 Y404.285 I4.053 J-5.959 
G01 X188.17 Y398.058 
X187.377 Y398.338 
G03 X186.087 Y398.2 I-0.501 J-1.41 
G01 X182.721 Y396.117 
X180.822 Y398.178 
X182.985 Y401.536 
G03 X183.094 Y402.957 I-1.262 J0.811 
G01 X181.221 Y407.173 
G03 X180.194 Y408.025 I-1.371 J-0.608 
G01 X176.341 Y408.932 
X176.455 Y411.731 
X180.359 Y412.578 
G03 X181.441 Y413.505 I-0.314 J1.461 
G01 X183.098 Y417.811 
G03 X182.974 Y419.139 I-1.397 J0.539 
G01 X180.892 Y422.505 
X182.951 Y424.403 
X186.31 Y422.24 
G03 X187.732 Y422.131 I0.812 J1.263 
G01 X191.948 Y424.005 
G03 X192.799 Y425.032 I-0.61 J1.371 
G01 X193.706 Y428.885 
G00 Z5
X244.182 Y425.597
Z2
G01 Z-3 F100
X244.182 Y424.687 F200
X242.842 Y424.687 
X241.076 Y424.687 
X239.474 Y424.687 
X239.474 Y425.597 
G03 X244.182 Y425.597 I2.354 J594.959 
G00 Z5
X162.269 Y422.899
Z2
G01 Z-3 F100
X175.838 Y419.264 F200
X175.061 Y416.363 
G03 X172.035 Y417.174 I-224.431 J-831.347 
X170.198 Y416.114 I-0.388 J-1.448 
G01 X164.376 Y394.383 
X159.738 Y395.625 
X165.56 Y417.355 
G03 X164.5 Y419.192 I-1.448 J0.388 
G01 X161.492 Y419.998 
X162.269 Y422.899 
G00 Z5
X154.029 Y421.696
Z2
G01 Z-3 F100
X154.029 Y420.787 F200
X149.32 Y420.787 
X149.32 Y421.696 
X154.029 Y421.696 
G00 Z5
X256.428 Y420.623
Z2
G01 Z-3 F100
X256.835 Y420.58 F200
X256.835 Y419.275 
G03 X255.573 Y419.042 I0.179 J-4.504 
X255.058 Y418.685 I0.576 J-1.382 
X254.521 Y418.058 I2.491 J-2.677 
X254.321 Y417.412 I1.285 J-0.751 
G01 X254.136 Y414.864 
G03 X254.133 Y412.958 I34.306 J-1.007 
X255.633 Y411.458 I1.498 J-0.001 
G01 X257.819 Y411.458 
G03 X259.319 Y412.958 I0 J1.5 
G01 X259.319 Y414.756 
X259.313 Y414.879 
X259.109 Y417.344 
G03 X258.818 Y418.115 I-1.475 J-0.116 
X258.279 Y418.778 I-3.261 J-2.1 
X257.687 Y419.088 I-0.984 J-1.16 
X256.835 Y419.275 I-1.278 J-3.791 
G01 X256.835 Y420.58 
X258.949 Y420.36 
X260.871 Y419.619 
X262.237 Y418.529 
X263.106 Y417.161 
X263.629 Y415.153 
X263.824 Y412.168 
X263.824 Y410.456 
X255.633 Y410.456 
G03 X254.133 Y408.956 I0 J-1.499 
G01 X254.133 Y403.638 
X254.142 Y403.471 
X254.382 Y401.321 
G03 X254.8 Y400.439 I1.48 J0.161 
X255.379 Y399.888 I3.105 J2.683 
X255.919 Y399.658 I0.853 J1.255 
X256.81 Y399.507 I1.137 J4.01 
X258.132 Y399.801 I-0.402 J4.929 
X258.63 Y400.167 I-0.619 J1.364 
X259.237 Y400.895 I-3.217 J3.3 
X259.428 Y401.473 I-1.301 J0.75 
G01 X259.715 Y403.946 
X259.726 Y404.119 
X259.726 Y405.862 
X263.824 Y405.862 
X263.824 Y405.608 
X263.558 Y402.377 
X263.209 Y401.456 
X262.514 Y400.373 
X261.565 Y399.409 
X260.421 Y398.737 
X258.921 Y398.309 
X256.946 Y398.156 
X254.966 Y398.308 
X253.294 Y398.748 
X251.993 Y399.402 
X251.068 Y400.219 
X250.413 Y401.18 
X249.989 Y402.252 
X249.739 Y403.765 
X249.646 Y406.058 
X249.646 Y410.393 
X249.646 Y410.907 
X249.646 Y413.142 
X249.847 Y415.809 
X250.386 Y417.626 
X251.246 Y418.858 
X252.565 Y419.793 
X254.329 Y420.408 
X256.428 Y420.623 
G00 Z5
X230.579 Y420.618
Z2
G01 Z-3 F100
X231.765 Y420.446 F200
X232.726 Y419.96 
X233.403 Y419.299 
X233.719 Y418.641 
G02 X234.009 Y414.638 I-358.998 J-28.019 
G01 X234.009 Y413.6 
X234.009 Y406.065 
X234.009 Y405.552 
X234.009 Y404.553 
X233.913 Y401.8 
X233.661 Y400.203 
X233.266 Y399.371 
X232.62 Y398.749 
X231.696 Y398.32 
X230.498 Y398.163 
X229.538 Y398.279 
X228.651 Y398.63 
X227.792 Y399.24 
X226.867 Y400.246 
G03 X224.263 Y399.232 I-1.104 J-1.013 
G01 X224.263 Y399.074 
X224.263 Y397.448 
X224.263 Y397.421 
X224.263 Y395.095 
X219.776 Y395.095 
X219.776 Y397.528 
X219.776 Y397.554 
X219.776 Y398.445 
X219.776 Y398.602 
X219.776 Y399.842 
X219.776 Y400.163 
X219.776 Y400.289 
X219.776 Y400.677 
X219.776 Y402.7 
X219.776 Y403.739 
X219.776 Y403.831 
X219.776 Y405.104 
X219.776 Y420.186 
X224.3 Y420.186 
G03 X224.283 Y419.268 I4.011 J-0.533 
X226.907 Y418.542 I1.48 J0.247 
G01 X226.907 Y418.175 
G03 X225.676 Y417.892 I0.363 J-4.4 
X225.162 Y417.491 I0.639 J-1.349 
X224.649 Y416.82 I2.999 J-2.824 
X224.48 Y416.238 I1.33 J-0.701 
G01 X224.297 Y413.929 
X224.293 Y413.811 
X224.293 Y410.212 
X224.293 Y408.939 
X224.293 Y407.907 
X224.293 Y406.868 
X224.293 Y405.052 
X224.297 Y404.932 
X224.488 Y402.542 
G03 X224.839 Y401.692 I1.486 J0.116 
X225.425 Y401.054 I3.198 J2.349 
X226.004 Y400.782 I0.901 J1.166 
X226.941 Y400.606 I1.26 J4.127 
X228.17 Y400.875 I-0.27 J4.176 
X228.694 Y401.283 I-0.641 J1.364 
X229.176 Y401.921 I-2.846 J2.651 
X229.343 Y402.509 I-1.314 J0.69 
X229.498 Y404.744 I-244.795 J18.099 
G01 X229.497 Y413.908 
X229.353 Y416.284 
G03 X228.987 Y417.178 I-1.494 J-0.089 
X228.43 Y417.764 I-2.982 J-2.277 
X227.83 Y418.027 I-0.885 J-1.205 
X226.907 Y418.175 I-1.167 J-4.329 
G01 X226.907 Y418.542 
X227.811 Y419.532 
X228.682 Y420.149 
X229.592 Y420.501 
X230.579 Y420.618 
G00 Z5
X244.182 Y420.186
Z2
G01 Z-3 F100
X244.182 Y409.549 F200
X244.182 Y409.036 
X244.182 Y398.597 
X243.978 Y398.597 
X239.474 Y398.597 
X239.474 Y406.91 
X239.474 Y407.423 
X239.474 Y416.346 
X239.474 Y417.386 
X239.474 Y420.186 
X243.515 Y420.186 
X244.182 Y420.186 
G00 Z5
X154.029 Y416.286
Z2
G01 Z-3 F100
X154.029 Y394.696 F200
X149.32 Y394.696 
X149.32 Y416.286 
X154.029 Y416.286 
G00 Z5
(Sketch 9)
X354.5 Y386 S7000 M03
Z2
G01 Z-2.833 F100
G02 X353.5 Y386 I-0.5 J0 F300
G01 X353.5 Y394.5 
X366.5 Y394.5 
X366.5 Y377.5 
X353.5 Y377.5 
X353.5 Y386 
G02 X354.5 Y386 I0.5 J0 
G01 Z-5.666 F100
G02 X353.5 Y386 I-0.5 J0 F300
G01 X353.5 Y394.5 
X366.5 Y394.5 
X366.5 Y377.5 
X353.5 Y377.5 
X353.5 Y386 
G02 X354.5 Y386 I0.5 J0 
G01 Z-8.5 F100
G02 X353.5 Y386 I-0.5 J0 F300
G01 X353.5 Y394.5 
X366.5 Y394.5 
X366.5 Y377.5 
X353.5 Y377.5 
X353.5 Y386 
G02 X354.5 Y386 I0.5 J0 
G01 Z-11.333 F100
G02 X353.5 Y386 I-0.5 J0 F300
G01 X353.5 Y394.5 
X366.5 Y394.5 
X366.5 Y377.5 
X353.5 Y377.5 
X353.5 Y386 
G02 X354.5 Y386 I0.5 J0 
G01 Z-14.166 F100
G02 X353.5 Y386 I-0.5 J0 F300
G01 X353.5 Y394.5 
X366.5 Y394.5 
X366.5 Y377.5 
X353.5 Y377.5 
X353.5 Y386 
G02 X354.5 Y386 I0.5 J0 
G01 Z-17 F100
G02 X353.5 Y386 I-0.5 J0 F300
G01 X353.5 Y394.5 
X366.5 Y394.5 
X366.5 Y377.5 
X353.5 Y377.5 
X353.5 Y386 
G02 X354.5 Y386 I0.5 J0 
G00 Z5
G90
(Sketch 10)
X360.126 Y316.484 S7000 M03
Z2
G01 Z-2.833 F100
G02 X359.862 Y315.519 I-0.131 J-0.482 F200
G01 X359.854 Y315.521 
X359.832 Y315.529 
X359.809 Y315.538 
X359.785 Y315.548 
X359.767 Y315.557 
X359.745 Y315.57 
X359.723 Y315.584 
X359.701 Y315.599 
X359.679 Y315.616 
X359.667 Y315.627 
X359.646 Y315.646 
X359.627 Y315.667 
X359.616 Y315.679 
X359.599 Y315.701 
X359.584 Y315.723 
X359.57 Y315.745 
X359.557 Y315.767 
X359.548 Y315.785 
X359.538 Y315.809 
X359.529 Y315.832 
X359.521 Y315.854 
X359.515 Y315.879 
X359.51 Y315.899 
X359.506 Y315.921 
X359.502 Y315.957 
X359.5 Y315.978 
X359.5 Y316 
X359.5 Y316.021 
X359.502 Y316.042 
X359.506 Y316.078 
X359.51 Y316.1 
X359.515 Y316.12 
X359.521 Y316.145 
X359.529 Y316.167 
X359.538 Y316.19 
X359.548 Y316.214 
X359.557 Y316.232 
X359.57 Y316.254 
X359.584 Y316.276 
X359.599 Y316.298 
X359.616 Y316.32 
X359.627 Y316.332 
X359.646 Y316.353 
X359.667 Y316.372 
X359.679 Y316.383 
X359.701 Y316.4 
X359.723 Y316.415 
X359.745 Y316.429 
X359.767 Y316.442 
X359.785 Y316.451 
X359.809 Y316.461 
X359.832 Y316.47 
X359.854 Y316.478 
X359.879 Y316.484 
X359.899 Y316.489 
X359.921 Y316.493 
X359.957 Y316.497 
X359.978 Y316.499 
X360 Y316.499 
X360.021 Y316.499 
X360.042 Y316.497 
X360.078 Y316.493 
X360.1 Y316.489 
X360.12 Y316.484 
X360.145 Y316.478 
X360.167 Y316.47 
X360.19 Y316.461 
X360.214 Y316.451 
X360.232 Y316.442 
X360.254 Y316.429 
X360.276 Y316.415 
X360.298 Y316.4 
X360.32 Y316.383 
X360.332 Y316.372 
X360.353 Y316.353 
X360.372 Y316.332 
X360.383 Y316.32 
X360.4 Y316.298 
X360.415 Y316.276 
X360.429 Y316.254 
X360.442 Y316.232 
X360.451 Y316.214 
X360.461 Y316.19 
X360.47 Y316.167 
X360.478 Y316.145 
X360.484 Y316.12 
X360.489 Y316.1 
X360.493 Y316.078 
X360.497 Y316.042 
X360.499 Y316.021 
X360.499 Y316 
X360.499 Y315.978 
X360.497 Y315.957 
X360.493 Y315.921 
X360.489 Y315.899 
X360.484 Y315.879 
X360.478 Y315.854 
X360.47 Y315.832 
X360.461 Y315.809 
X360.451 Y315.785 
X360.442 Y315.767 
X360.429 Y315.745 
X360.415 Y315.723 
X360.4 Y315.701 
X360.383 Y315.679 
X360.372 Y315.667 
X360.353 Y315.646 
X360.332 Y315.627 
X360.32 Y315.616 
X360.298 Y315.599 
X360.276 Y315.584 
X360.254 Y315.57 
X360.232 Y315.557 
X360.214 Y315.548 
X360.19 Y315.538 
X360.167 Y315.529 
X360.145 Y315.521 
X360.12 Y315.515 
X360.1 Y315.51 
X360.078 Y315.506 
X360.042 Y315.502 
X360.021 Y315.5 
X360 Y315.5 
X359.978 Y315.5 
X359.957 Y315.502 
X359.921 Y315.506 
X359.899 Y315.51 
X359.879 Y315.515 
X359.862 Y315.519 
G02 X360.126 Y316.484 I0.131 J0.482 
G01 Z-5.666 F100
G02 X359.862 Y315.519 I-0.131 J-0.482 F200
G01 X359.854 Y315.521 
X359.832 Y315.529 
X359.809 Y315.538 
X359.785 Y315.548 
X359.767 Y315.557 
X359.745 Y315.57 
X359.723 Y315.584 
X359.701 Y315.599 
X359.679 Y315.616 
X359.667 Y315.627 
X359.646 Y315.646 
X359.627 Y315.667 
X359.616 Y315.679 
X359.599 Y315.701 
X359.584 Y315.723 
X359.57 Y315.745 
X359.557 Y315.767 
X359.548 Y315.785 
X359.538 Y315.809 
X359.529 Y315.832 
X359.521 Y315.854 
X359.515 Y315.879 
X359.51 Y315.899 
X359.506 Y315.921 
X359.502 Y315.957 
X359.5 Y315.978 
X359.5 Y316 
X359.5 Y316.021 
X359.502 Y316.042 
X359.506 Y316.078 
X359.51 Y316.1 
X359.515 Y316.12 
X359.521 Y316.145 
X359.529 Y316.167 
X359.538 Y316.19 
X359.548 Y316.214 
X359.557 Y316.232 
X359.57 Y316.254 
X359.584 Y316.276 
X359.599 Y316.298 
X359.616 Y316.32 
X359.627 Y316.332 
X359.646 Y316.353 
X359.667 Y316.372 
X359.679 Y316.383 
X359.701 Y316.4 
X359.723 Y316.415 
X359.745 Y316.429 
X359.767 Y316.442 
X359.785 Y316.451 
X359.809 Y316.461 
X359.832 Y316.47 
X359.854 Y316.478 
X359.879 Y316.484 
X359.899 Y316.489 
X359.921 Y316.493 
X359.957 Y316.497 
X359.978 Y316.499 
X360 Y316.499 
X360.021 Y316.499 
X360.042 Y316.497 
X360.078 Y316.493 
X360.1 Y316.489 
X360.12 Y316.484 
X360.145 Y316.478 
X360.167 Y316.47 
X360.19 Y316.461 
X360.214 Y316.451 
X360.232 Y316.442 
X360.254 Y316.429 
X360.276 Y316.415 
X360.298 Y316.4 
X360.32 Y316.383 
X360.332 Y316.372 
X360.353 Y316.353 
X360.372 Y316.332 
X360.383 Y316.32 
X360.4 Y316.298 
X360.415 Y316.276 
X360.429 Y316.254 
X360.442 Y316.232 
X360.451 Y316.214 
X360.461 Y316.19 
X360.47 Y316.167 
X360.478 Y316.145 
X360.484 Y316.12 
X360.489 Y316.1 
X360.493 Y316.078 
X360.497 Y316.042 
X360.499 Y316.021 
X360.499 Y316 
X360.499 Y315.978 
X360.497 Y315.957 
X360.493 Y315.921 
X360.489 Y315.899 
X360.484 Y315.879 
X360.478 Y315.854 
X360.47 Y315.832 
X360.461 Y315.809 
X360.451 Y315.785 
X360.442 Y315.767 
X360.429 Y315.745 
X360.415 Y315.723 
X360.4 Y315.701 
X360.383 Y315.679 
X360.372 Y315.667 
X360.353 Y315.646 
X360.332 Y315.627 
X360.32 Y315.616 
X360.298 Y315.599 
X360.276 Y315.584 
X360.254 Y315.57 
X360.232 Y315.557 
X360.214 Y315.548 
X360.19 Y315.538 
X360.167 Y315.529 
X360.145 Y315.521 
X360.12 Y315.515 
X360.1 Y315.51 
X360.078 Y315.506 
X360.042 Y315.502 
X360.021 Y315.5 
X360 Y315.5 
X359.978 Y315.5 
X359.957 Y315.502 
X359.921 Y315.506 
X359.899 Y315.51 
X359.879 Y315.515 
X359.862 Y315.519 
G02 X360.126 Y316.484 I0.131 J0.482 
G01 Z-8.5 F100
G02 X359.862 Y315.519 I-0.131 J-0.482 F200
G01 X359.854 Y315.521 
X359.832 Y315.529 
X359.809 Y315.538 
X359.785 Y315.548 
X359.767 Y315.557 
X359.745 Y315.57 
X359.723 Y315.584 
X359.701 Y315.599 
X359.679 Y315.616 
X359.667 Y315.627 
X359.646 Y315.646 
X359.627 Y315.667 
X359.616 Y315.679 
X359.599 Y315.701 
X359.584 Y315.723 
X359.57 Y315.745 
X359.557 Y315.767 
X359.548 Y315.785 
X359.538 Y315.809 
X359.529 Y315.832 
X359.521 Y315.854 
X359.515 Y315.879 
X359.51 Y315.899 
X359.506 Y315.921 
X359.502 Y315.957 
X359.5 Y315.978 
X359.5 Y316 
X359.5 Y316.021 
X359.502 Y316.042 
X359.506 Y316.078 
X359.51 Y316.1 
X359.515 Y316.12 
X359.521 Y316.145 
X359.529 Y316.167 
X359.538 Y316.19 
X359.548 Y316.214 
X359.557 Y316.232 
X359.57 Y316.254 
X359.584 Y316.276 
X359.599 Y316.298 
X359.616 Y316.32 
X359.627 Y316.332 
X359.646 Y316.353 
X359.667 Y316.372 
X359.679 Y316.383 
X359.701 Y316.4 
X359.723 Y316.415 
X359.745 Y316.429 
X359.767 Y316.442 
X359.785 Y316.451 
X359.809 Y316.461 
X359.832 Y316.47 
X359.854 Y316.478 
X359.879 Y316.484 
X359.899 Y316.489 
X359.921 Y316.493 
X359.957 Y316.497 
X359.978 Y316.499 
X360 Y316.499 
X360.021 Y316.499 
X360.042 Y316.497 
X360.078 Y316.493 
X360.1 Y316.489 
X360.12 Y316.484 
X360.145 Y316.478 
X360.167 Y316.47 
X360.19 Y316.461 
X360.214 Y316.451 
X360.232 Y316.442 
X360.254 Y316.429 
X360.276 Y316.415 
X360.298 Y316.4 
X360.32 Y316.383 
X360.332 Y316.372 
X360.353 Y316.353 
X360.372 Y316.332 
X360.383 Y316.32 
X360.4 Y316.298 
X360.415 Y316.276 
X360.429 Y316.254 
X360.442 Y316.232 
X360.451 Y316.214 
X360.461 Y316.19 
X360.47 Y316.167 
X360.478 Y316.145 
X360.484 Y316.12 
X360.489 Y316.1 
X360.493 Y316.078 
X360.497 Y316.042 
X360.499 Y316.021 
X360.499 Y316 
X360.499 Y315.978 
X360.497 Y315.957 
X360.493 Y315.921 
X360.489 Y315.899 
X360.484 Y315.879 
X360.478 Y315.854 
X360.47 Y315.832 
X360.461 Y315.809 
X360.451 Y315.785 
X360.442 Y315.767 
X360.429 Y315.745 
X360.415 Y315.723 
X360.4 Y315.701 
X360.383 Y315.679 
X360.372 Y315.667 
X360.353 Y315.646 
X360.332 Y315.627 
X360.32 Y315.616 
X360.298 Y315.599 
X360.276 Y315.584 
X360.254 Y315.57 
X360.232 Y315.557 
X360.214 Y315.548 
X360.19 Y315.538 
X360.167 Y315.529 
X360.145 Y315.521 
X360.12 Y315.515 
X360.1 Y315.51 
X360.078 Y315.506 
X360.042 Y315.502 
X360.021 Y315.5 
X360 Y315.5 
X359.978 Y315.5 
X359.957 Y315.502 
X359.921 Y315.506 
X359.899 Y315.51 
X359.879 Y315.515 
X359.862 Y315.519 
G02 X360.126 Y316.484 I0.131 J0.482 
G01 Z-11.333 F100
G02 X359.862 Y315.519 I-0.131 J-0.482 F200
G01 X359.854 Y315.521 
X359.832 Y315.529 
X359.809 Y315.538 
X359.785 Y315.548 
X359.767 Y315.557 
X359.745 Y315.57 
X359.723 Y315.584 
X359.701 Y315.599 
X359.679 Y315.616 
X359.667 Y315.627 
X359.646 Y315.646 
X359.627 Y315.667 
X359.616 Y315.679 
X359.599 Y315.701 
X359.584 Y315.723 
X359.57 Y315.745 
X359.557 Y315.767 
X359.548 Y315.785 
X359.538 Y315.809 
X359.529 Y315.832 
X359.521 Y315.854 
X359.515 Y315.879 
X359.51 Y315.899 
X359.506 Y315.921 
X359.502 Y315.957 
X359.5 Y315.978 
X359.5 Y316 
X359.5 Y316.021 
X359.502 Y316.042 
X359.506 Y316.078 
X359.51 Y316.1 
X359.515 Y316.12 
X359.521 Y316.145 
X359.529 Y316.167 
X359.538 Y316.19 
X359.548 Y316.214 
X359.557 Y316.232 
X359.57 Y316.254 
X359.584 Y316.276 
X359.599 Y316.298 
X359.616 Y316.32 
X359.627 Y316.332 
X359.646 Y316.353 
X359.667 Y316.372 
X359.679 Y316.383 
X359.701 Y316.4 
X359.723 Y316.415 
X359.745 Y316.429 
X359.767 Y316.442 
X359.785 Y316.451 
X359.809 Y316.461 
X359.832 Y316.47 
X359.854 Y316.478 
X359.879 Y316.484 
X359.899 Y316.489 
X359.921 Y316.493 
X359.957 Y316.497 
X359.978 Y316.499 
X360 Y316.499 
X360.021 Y316.499 
X360.042 Y316.497 
X360.078 Y316.493 
X360.1 Y316.489 
X360.12 Y316.484 
X360.145 Y316.478 
X360.167 Y316.47 
X360.19 Y316.461 
X360.214 Y316.451 
X360.232 Y316.442 
X360.254 Y316.429 
X360.276 Y316.415 
X360.298 Y316.4 
X360.32 Y316.383 
X360.332 Y316.372 
X360.353 Y316.353 
X360.372 Y316.332 
X360.383 Y316.32 
X360.4 Y316.298 
X360.415 Y316.276 
X360.429 Y316.254 
X360.442 Y316.232 
X360.451 Y316.214 
X360.461 Y316.19 
X360.47 Y316.167 
X360.478 Y316.145 
X360.484 Y316.12 
X360.489 Y316.1 
X360.493 Y316.078 
X360.497 Y316.042 
X360.499 Y316.021 
X360.499 Y316 
X360.499 Y315.978 
X360.497 Y315.957 
X360.493 Y315.921 
X360.489 Y315.899 
X360.484 Y315.879 
X360.478 Y315.854 
X360.47 Y315.832 
X360.461 Y315.809 
X360.451 Y315.785 
X360.442 Y315.767 
X360.429 Y315.745 
X360.415 Y315.723 
X360.4 Y315.701 
X360.383 Y315.679 
X360.372 Y315.667 
X360.353 Y315.646 
X360.332 Y315.627 
X360.32 Y315.616 
X360.298 Y315.599 
X360.276 Y315.584 
X360.254 Y315.57 
X360.232 Y315.557 
X360.214 Y315.548 
X360.19 Y315.538 
X360.167 Y315.529 
X360.145 Y315.521 
X360.12 Y315.515 
X360.1 Y315.51 
X360.078 Y315.506 
X360.042 Y315.502 
X360.021 Y315.5 
X360 Y315.5 
X359.978 Y315.5 
X359.957 Y315.502 
X359.921 Y315.506 
X359.899 Y315.51 
X359.879 Y315.515 
X359.862 Y315.519 
G02 X360.126 Y316.484 I0.131 J0.482 
G01 Z-14.166 F100
G02 X359.862 Y315.519 I-0.131 J-0.482 F200
G01 X359.854 Y315.521 
X359.832 Y315.529 
X359.809 Y315.538 
X359.785 Y315.548 
X359.767 Y315.557 
X359.745 Y315.57 
X359.723 Y315.584 
X359.701 Y315.599 
X359.679 Y315.616 
X359.667 Y315.627 
X359.646 Y315.646 
X359.627 Y315.667 
X359.616 Y315.679 
X359.599 Y315.701 
X359.584 Y315.723 
X359.57 Y315.745 
X359.557 Y315.767 
X359.548 Y315.785 
X359.538 Y315.809 
X359.529 Y315.832 
X359.521 Y315.854 
X359.515 Y315.879 
X359.51 Y315.899 
X359.506 Y315.921 
X359.502 Y315.957 
X359.5 Y315.978 
X359.5 Y316 
X359.5 Y316.021 
X359.502 Y316.042 
X359.506 Y316.078 
X359.51 Y316.1 
X359.515 Y316.12 
X359.521 Y316.145 
X359.529 Y316.167 
X359.538 Y316.19 
X359.548 Y316.214 
X359.557 Y316.232 
X359.57 Y316.254 
X359.584 Y316.276 
X359.599 Y316.298 
X359.616 Y316.32 
X359.627 Y316.332 
X359.646 Y316.353 
X359.667 Y316.372 
X359.679 Y316.383 
X359.701 Y316.4 
X359.723 Y316.415 
X359.745 Y316.429 
X359.767 Y316.442 
X359.785 Y316.451 
X359.809 Y316.461 
X359.832 Y316.47 
X359.854 Y316.478 
X359.879 Y316.484 
X359.899 Y316.489 
X359.921 Y316.493 
X359.957 Y316.497 
X359.978 Y316.499 
X360 Y316.499 
X360.021 Y316.499 
X360.042 Y316.497 
X360.078 Y316.493 
X360.1 Y316.489 
X360.12 Y316.484 
X360.145 Y316.478 
X360.167 Y316.47 
X360.19 Y316.461 
X360.214 Y316.451 
X360.232 Y316.442 
X360.254 Y316.429 
X360.276 Y316.415 
X360.298 Y316.4 
X360.32 Y316.383 
X360.332 Y316.372 
X360.353 Y316.353 
X360.372 Y316.332 
X360.383 Y316.32 
X360.4 Y316.298 
X360.415 Y316.276 
X360.429 Y316.254 
X360.442 Y316.232 
X360.451 Y316.214 
X360.461 Y316.19 
X360.47 Y316.167 
X360.478 Y316.145 
X360.484 Y316.12 
X360.489 Y316.1 
X360.493 Y316.078 
X360.497 Y316.042 
X360.499 Y316.021 
X360.499 Y316 
X360.499 Y315.978 
X360.497 Y315.957 
X360.493 Y315.921 
X360.489 Y315.899 
X360.484 Y315.879 
X360.478 Y315.854 
X360.47 Y315.832 
X360.461 Y315.809 
X360.451 Y315.785 
X360.442 Y315.767 
X360.429 Y315.745 
X360.415 Y315.723 
X360.4 Y315.701 
X360.383 Y315.679 
X360.372 Y315.667 
X360.353 Y315.646 
X360.332 Y315.627 
X360.32 Y315.616 
X360.298 Y315.599 
X360.276 Y315.584 
X360.254 Y315.57 
X360.232 Y315.557 
X360.214 Y315.548 
X360.19 Y315.538 
X360.167 Y315.529 
X360.145 Y315.521 
X360.12 Y315.515 
X360.1 Y315.51 
X360.078 Y315.506 
X360.042 Y315.502 
X360.021 Y315.5 
X360 Y315.5 
X359.978 Y315.5 
X359.957 Y315.502 
X359.921 Y315.506 
X359.899 Y315.51 
X359.879 Y315.515 
X359.862 Y315.519 
G02 X360.126 Y316.484 I0.131 J0.482 
G01 Z-17 F100
G02 X359.862 Y315.519 I-0.131 J-0.482 F200
G01 X359.854 Y315.521 
X359.832 Y315.529 
X359.809 Y315.538 
X359.785 Y315.548 
X359.767 Y315.557 
X359.745 Y315.57 
X359.723 Y315.584 
X359.701 Y315.599 
X359.679 Y315.616 
X359.667 Y315.627 
X359.646 Y315.646 
X359.627 Y315.667 
X359.616 Y315.679 
X359.599 Y315.701 
X359.584 Y315.723 
X359.57 Y315.745 
X359.557 Y315.767 
X359.548 Y315.785 
X359.538 Y315.809 
X359.529 Y315.832 
X359.521 Y315.854 
X359.515 Y315.879 
X359.51 Y315.899 
X359.506 Y315.921 
X359.502 Y315.957 
X359.5 Y315.978 
X359.5 Y316 
X359.5 Y316.021 
X359.502 Y316.042 
X359.506 Y316.078 
X359.51 Y316.1 
X359.515 Y316.12 
X359.521 Y316.145 
X359.529 Y316.167 
X359.538 Y316.19 
X359.548 Y316.214 
X359.557 Y316.232 
X359.57 Y316.254 
X359.584 Y316.276 
X359.599 Y316.298 
X359.616 Y316.32 
X359.627 Y316.332 
X359.646 Y316.353 
X359.667 Y316.372 
X359.679 Y316.383 
X359.701 Y316.4 
X359.723 Y316.415 
X359.745 Y316.429 
X359.767 Y316.442 
X359.785 Y316.451 
X359.809 Y316.461 
X359.832 Y316.47 
X359.854 Y316.478 
X359.879 Y316.484 
X359.899 Y316.489 
X359.921 Y316.493 
X359.957 Y316.497 
X359.978 Y316.499 
X360 Y316.499 
X360.021 Y316.499 
X360.042 Y316.497 
X360.078 Y316.493 
X360.1 Y316.489 
X360.12 Y316.484 
X360.145 Y316.478 
X360.167 Y316.47 
X360.19 Y316.461 
X360.214 Y316.451 
X360.232 Y316.442 
X360.254 Y316.429 
X360.276 Y316.415 
X360.298 Y316.4 
X360.32 Y316.383 
X360.332 Y316.372 
X360.353 Y316.353 
X360.372 Y316.332 
X360.383 Y316.32 
X360.4 Y316.298 
X360.415 Y316.276 
X360.429 Y316.254 
X360.442 Y316.232 
X360.451 Y316.214 
X360.461 Y316.19 
X360.47 Y316.167 
X360.478 Y316.145 
X360.484 Y316.12 
X360.489 Y316.1 
X360.493 Y316.078 
X360.497 Y316.042 
X360.499 Y316.021 
X360.499 Y316 
X360.499 Y315.978 
X360.497 Y315.957 
X360.493 Y315.921 
X360.489 Y315.899 
X360.484 Y315.879 
X360.478 Y315.854 
X360.47 Y315.832 
X360.461 Y315.809 
X360.451 Y315.785 
X360.442 Y315.767 
X360.429 Y315.745 
X360.415 Y315.723 
X360.4 Y315.701 
X360.383 Y315.679 
X360.372 Y315.667 
X360.353 Y315.646 
X360.332 Y315.627 
X360.32 Y315.616 
X360.298 Y315.599 
X360.276 Y315.584 
X360.254 Y315.57 
X360.232 Y315.557 
X360.214 Y315.548 
X360.19 Y315.538 
X360.167 Y315.529 
X360.145 Y315.521 
X360.12 Y315.515 
X360.1 Y315.51 
X360.078 Y315.506 
X360.042 Y315.502 
X360.021 Y315.5 
X360 Y315.5 
X359.978 Y315.5 
X359.957 Y315.502 
X359.921 Y315.506 
X359.899 Y315.51 
X359.879 Y315.515 
X359.862 Y315.519 
G02 X360.126 Y316.484 I0.131 J0.482 
G00 Z5
G90
(Sketch 12)
X354.5 Y246 S7000 M03
Z2
G01 Z-2.833 F100
G02 X353.5 Y246 I-0.5 J0 F300
G01 X353.5 Y254.5 
X366.5 Y254.5 
X366.5 Y237.5 
X353.5 Y237.5 
X353.5 Y246 
G02 X354.5 Y246 I0.5 J0 
G01 Z-5.666 F100
G02 X353.5 Y246 I-0.5 J0 F300
G01 X353.5 Y254.5 
X366.5 Y254.5 
X366.5 Y237.5 
X353.5 Y237.5 
X353.5 Y246 
G02 X354.5 Y246 I0.5 J0 
G01 Z-8.5 F100
G02 X353.5 Y246 I-0.5 J0 F300
G01 X353.5 Y254.5 
X366.5 Y254.5 
X366.5 Y237.5 
X353.5 Y237.5 
X353.5 Y246 
G02 X354.5 Y246 I0.5 J0 
G01 Z-11.333 F100
G02 X353.5 Y246 I-0.5 J0 F300
G01 X353.5 Y254.5 
X366.5 Y254.5 
X366.5 Y237.5 
X353.5 Y237.5 
X353.5 Y246 
G02 X354.5 Y246 I0.5 J0 
G01 Z-14.166 F100
G02 X353.5 Y246 I-0.5 J0 F300
G01 X353.5 Y254.5 
X366.5 Y254.5 
X366.5 Y237.5 
X353.5 Y237.5 
X353.5 Y246 
G02 X354.5 Y246 I0.5 J0 
G01 Z-17 F100
G02 X353.5 Y246 I-0.5 J0 F300
G01 X353.5 Y254.5 
X366.5 Y254.5 
X366.5 Y237.5 
X353.5 Y237.5 
X353.5 Y246 
G02 X354.5 Y246 I0.5 J0 
G00 Z5
G90
(Sketch 14)
X360.126 Y176.484 S7000 M03
Z2
G01 Z-2.833 F100
G02 X359.862 Y175.519 I-0.131 J-0.482 F200
G01 X359.854 Y175.521 
X359.832 Y175.529 
X359.809 Y175.538 
X359.785 Y175.548 
X359.767 Y175.557 
X359.745 Y175.57 
X359.723 Y175.584 
X359.701 Y175.599 
X359.679 Y175.616 
X359.667 Y175.627 
X359.646 Y175.646 
X359.627 Y175.667 
X359.616 Y175.679 
X359.599 Y175.701 
X359.584 Y175.723 
X359.57 Y175.745 
X359.557 Y175.767 
X359.548 Y175.785 
X359.538 Y175.809 
X359.529 Y175.832 
X359.521 Y175.854 
X359.515 Y175.879 
X359.51 Y175.899 
X359.506 Y175.921 
X359.502 Y175.957 
X359.5 Y175.978 
X359.5 Y176 
X359.5 Y176.021 
X359.502 Y176.042 
X359.506 Y176.078 
X359.51 Y176.1 
X359.515 Y176.12 
X359.521 Y176.145 
X359.529 Y176.167 
X359.538 Y176.19 
X359.548 Y176.214 
X359.557 Y176.232 
X359.57 Y176.254 
X359.584 Y176.276 
X359.599 Y176.298 
X359.616 Y176.32 
X359.627 Y176.332 
X359.646 Y176.353 
X359.667 Y176.372 
X359.679 Y176.383 
X359.701 Y176.4 
X359.723 Y176.415 
X359.745 Y176.429 
X359.767 Y176.442 
X359.785 Y176.451 
X359.809 Y176.461 
X359.832 Y176.47 
X359.854 Y176.478 
X359.879 Y176.484 
X359.899 Y176.489 
X359.921 Y176.493 
X359.957 Y176.497 
X359.978 Y176.499 
X360 Y176.499 
X360.021 Y176.499 
X360.042 Y176.497 
X360.078 Y176.493 
X360.1 Y176.489 
X360.12 Y176.484 
X360.145 Y176.478 
X360.167 Y176.47 
X360.19 Y176.461 
X360.214 Y176.451 
X360.232 Y176.442 
X360.254 Y176.429 
X360.276 Y176.415 
X360.298 Y176.4 
X360.32 Y176.383 
X360.332 Y176.372 
X360.353 Y176.353 
X360.372 Y176.332 
X360.383 Y176.32 
X360.4 Y176.298 
X360.415 Y176.276 
X360.429 Y176.254 
X360.442 Y176.232 
X360.451 Y176.214 
X360.461 Y176.19 
X360.47 Y176.167 
X360.478 Y176.145 
X360.484 Y176.12 
X360.489 Y176.1 
X360.493 Y176.078 
X360.497 Y176.042 
X360.499 Y176.021 
X360.499 Y176 
X360.499 Y175.978 
X360.497 Y175.957 
X360.493 Y175.921 
X360.489 Y175.899 
X360.484 Y175.879 
X360.478 Y175.854 
X360.47 Y175.832 
X360.461 Y175.809 
X360.451 Y175.785 
X360.442 Y175.767 
X360.429 Y175.745 
X360.415 Y175.723 
X360.4 Y175.701 
X360.383 Y175.679 
X360.372 Y175.667 
X360.353 Y175.646 
X360.332 Y175.627 
X360.32 Y175.616 
X360.298 Y175.599 
X360.276 Y175.584 
X360.254 Y175.57 
X360.232 Y175.557 
X360.214 Y175.548 
X360.19 Y175.538 
X360.167 Y175.529 
X360.145 Y175.521 
X360.12 Y175.515 
X360.1 Y175.51 
X360.078 Y175.506 
X360.042 Y175.502 
X360.021 Y175.5 
X360 Y175.5 
X359.978 Y175.5 
X359.957 Y175.502 
X359.921 Y175.506 
X359.899 Y175.51 
X359.879 Y175.515 
X359.862 Y175.519 
G02 X360.126 Y176.484 I0.131 J0.482 
G01 Z-5.666 F100
G02 X359.862 Y175.519 I-0.131 J-0.482 F200
G01 X359.854 Y175.521 
X359.832 Y175.529 
X359.809 Y175.538 
X359.785 Y175.548 
X359.767 Y175.557 
X359.745 Y175.57 
X359.723 Y175.584 
X359.701 Y175.599 
X359.679 Y175.616 
X359.667 Y175.627 
X359.646 Y175.646 
X359.627 Y175.667 
X359.616 Y175.679 
X359.599 Y175.701 
X359.584 Y175.723 
X359.57 Y175.745 
X359.557 Y175.767 
X359.548 Y175.785 
X359.538 Y175.809 
X359.529 Y175.832 
X359.521 Y175.854 
X359.515 Y175.879 
X359.51 Y175.899 
X359.506 Y175.921 
X359.502 Y175.957 
X359.5 Y175.978 
X359.5 Y176 
X359.5 Y176.021 
X359.502 Y176.042 
X359.506 Y176.078 
X359.51 Y176.1 
X359.515 Y176.12 
X359.521 Y176.145 
X359.529 Y176.167 
X359.538 Y176.19 
X359.548 Y176.214 
X359.557 Y176.232 
X359.57 Y176.254 
X359.584 Y176.276 
X359.599 Y176.298 
X359.616 Y176.32 
X359.627 Y176.332 
X359.646 Y176.353 
X359.667 Y176.372 
X359.679 Y176.383 
X359.701 Y176.4 
X359.723 Y176.415 
X359.745 Y176.429 
X359.767 Y176.442 
X359.785 Y176.451 
X359.809 Y176.461 
X359.832 Y176.47 
X359.854 Y176.478 
X359.879 Y176.484 
X359.899 Y176.489 
X359.921 Y176.493 
X359.957 Y176.497 
X359.978 Y176.499 
X360 Y176.499 
X360.021 Y176.499 
X360.042 Y176.497 
X360.078 Y176.493 
X360.1 Y176.489 
X360.12 Y176.484 
X360.145 Y176.478 
X360.167 Y176.47 
X360.19 Y176.461 
X360.214 Y176.451 
X360.232 Y176.442 
X360.254 Y176.429 
X360.276 Y176.415 
X360.298 Y176.4 
X360.32 Y176.383 
X360.332 Y176.372 
X360.353 Y176.353 
X360.372 Y176.332 
X360.383 Y176.32 
X360.4 Y176.298 
X360.415 Y176.276 
X360.429 Y176.254 
X360.442 Y176.232 
X360.451 Y176.214 
X360.461 Y176.19 
X360.47 Y176.167 
X360.478 Y176.145 
X360.484 Y176.12 
X360.489 Y176.1 
X360.493 Y176.078 
X360.497 Y176.042 
X360.499 Y176.021 
X360.499 Y176 
X360.499 Y175.978 
X360.497 Y175.957 
X360.493 Y175.921 
X360.489 Y175.899 
X360.484 Y175.879 
X360.478 Y175.854 
X360.47 Y175.832 
X360.461 Y175.809 
X360.451 Y175.785 
X360.442 Y175.767 
X360.429 Y175.745 
X360.415 Y175.723 
X360.4 Y175.701 
X360.383 Y175.679 
X360.372 Y175.667 
X360.353 Y175.646 
X360.332 Y175.627 
X360.32 Y175.616 
X360.298 Y175.599 
X360.276 Y175.584 
X360.254 Y175.57 
X360.232 Y175.557 
X360.214 Y175.548 
X360.19 Y175.538 
X360.167 Y175.529 
X360.145 Y175.521 
X360.12 Y175.515 
X360.1 Y175.51 
X360.078 Y175.506 
X360.042 Y175.502 
X360.021 Y175.5 
X360 Y175.5 
X359.978 Y175.5 
X359.957 Y175.502 
X359.921 Y175.506 
X359.899 Y175.51 
X359.879 Y175.515 
X359.862 Y175.519 
G02 X360.126 Y176.484 I0.131 J0.482 
G01 Z-8.5 F100
G02 X359.862 Y175.519 I-0.131 J-0.482 F200
G01 X359.854 Y175.521 
X359.832 Y175.529 
X359.809 Y175.538 
X359.785 Y175.548 
X359.767 Y175.557 
X359.745 Y175.57 
X359.723 Y175.584 
X359.701 Y175.599 
X359.679 Y175.616 
X359.667 Y175.627 
X359.646 Y175.646 
X359.627 Y175.667 
X359.616 Y175.679 
X359.599 Y175.701 
X359.584 Y175.723 
X359.57 Y175.745 
X359.557 Y175.767 
X359.548 Y175.785 
X359.538 Y175.809 
X359.529 Y175.832 
X359.521 Y175.854 
X359.515 Y175.879 
X359.51 Y175.899 
X359.506 Y175.921 
X359.502 Y175.957 
X359.5 Y175.978 
X359.5 Y176 
X359.5 Y176.021 
X359.502 Y176.042 
X359.506 Y176.078 
X359.51 Y176.1 
X359.515 Y176.12 
X359.521 Y176.145 
X359.529 Y176.167 
X359.538 Y176.19 
X359.548 Y176.214 
X359.557 Y176.232 
X359.57 Y176.254 
X359.584 Y176.276 
X359.599 Y176.298 
X359.616 Y176.32 
X359.627 Y176.332 
X359.646 Y176.353 
X359.667 Y176.372 
X359.679 Y176.383 
X359.701 Y176.4 
X359.723 Y176.415 
X359.745 Y176.429 
X359.767 Y176.442 
X359.785 Y176.451 
X359.809 Y176.461 
X359.832 Y176.47 
X359.854 Y176.478 
X359.879 Y176.484 
X359.899 Y176.489 
X359.921 Y176.493 
X359.957 Y176.497 
X359.978 Y176.499 
X360 Y176.499 
X360.021 Y176.499 
X360.042 Y176.497 
X360.078 Y176.493 
X360.1 Y176.489 
X360.12 Y176.484 
X360.145 Y176.478 
X360.167 Y176.47 
X360.19 Y176.461 
X360.214 Y176.451 
X360.232 Y176.442 
X360.254 Y176.429 
X360.276 Y176.415 
X360.298 Y176.4 
X360.32 Y176.383 
X360.332 Y176.372 
X360.353 Y176.353 
X360.372 Y176.332 
X360.383 Y176.32 
X360.4 Y176.298 
X360.415 Y176.276 
X360.429 Y176.254 
X360.442 Y176.232 
X360.451 Y176.214 
X360.461 Y176.19 
X360.47 Y176.167 
X360.478 Y176.145 
X360.484 Y176.12 
X360.489 Y176.1 
X360.493 Y176.078 
X360.497 Y176.042 
X360.499 Y176.021 
X360.499 Y176 
X360.499 Y175.978 
X360.497 Y175.957 
X360.493 Y175.921 
X360.489 Y175.899 
X360.484 Y175.879 
X360.478 Y175.854 
X360.47 Y175.832 
X360.461 Y175.809 
X360.451 Y175.785 
X360.442 Y175.767 
X360.429 Y175.745 
X360.415 Y175.723 
X360.4 Y175.701 
X360.383 Y175.679 
X360.372 Y175.667 
X360.353 Y175.646 
X360.332 Y175.627 
X360.32 Y175.616 
X360.298 Y175.599 
X360.276 Y175.584 
X360.254 Y175.57 
X360.232 Y175.557 
X360.214 Y175.548 
X360.19 Y175.538 
X360.167 Y175.529 
X360.145 Y175.521 
X360.12 Y175.515 
X360.1 Y175.51 
X360.078 Y175.506 
X360.042 Y175.502 
X360.021 Y175.5 
X360 Y175.5 
X359.978 Y175.5 
X359.957 Y175.502 
X359.921 Y175.506 
X359.899 Y175.51 
X359.879 Y175.515 
X359.862 Y175.519 
G02 X360.126 Y176.484 I0.131 J0.482 
G01 Z-11.333 F100
G02 X359.862 Y175.519 I-0.131 J-0.482 F200
G01 X359.854 Y175.521 
X359.832 Y175.529 
X359.809 Y175.538 
X359.785 Y175.548 
X359.767 Y175.557 
X359.745 Y175.57 
X359.723 Y175.584 
X359.701 Y175.599 
X359.679 Y175.616 
X359.667 Y175.627 
X359.646 Y175.646 
X359.627 Y175.667 
X359.616 Y175.679 
X359.599 Y175.701 
X359.584 Y175.723 
X359.57 Y175.745 
X359.557 Y175.767 
X359.548 Y175.785 
X359.538 Y175.809 
X359.529 Y175.832 
X359.521 Y175.854 
X359.515 Y175.879 
X359.51 Y175.899 
X359.506 Y175.921 
X359.502 Y175.957 
X359.5 Y175.978 
X359.5 Y176 
X359.5 Y176.021 
X359.502 Y176.042 
X359.506 Y176.078 
X359.51 Y176.1 
X359.515 Y176.12 
X359.521 Y176.145 
X359.529 Y176.167 
X359.538 Y176.19 
X359.548 Y176.214 
X359.557 Y176.232 
X359.57 Y176.254 
X359.584 Y176.276 
X359.599 Y176.298 
X359.616 Y176.32 
X359.627 Y176.332 
X359.646 Y176.353 
X359.667 Y176.372 
X359.679 Y176.383 
X359.701 Y176.4 
X359.723 Y176.415 
X359.745 Y176.429 
X359.767 Y176.442 
X359.785 Y176.451 
X359.809 Y176.461 
X359.832 Y176.47 
X359.854 Y176.478 
X359.879 Y176.484 
X359.899 Y176.489 
X359.921 Y176.493 
X359.957 Y176.497 
X359.978 Y176.499 
X360 Y176.499 
X360.021 Y176.499 
X360.042 Y176.497 
X360.078 Y176.493 
X360.1 Y176.489 
X360.12 Y176.484 
X360.145 Y176.478 
X360.167 Y176.47 
X360.19 Y176.461 
X360.214 Y176.451 
X360.232 Y176.442 
X360.254 Y176.429 
X360.276 Y176.415 
X360.298 Y176.4 
X360.32 Y176.383 
X360.332 Y176.372 
X360.353 Y176.353 
X360.372 Y176.332 
X360.383 Y176.32 
X360.4 Y176.298 
X360.415 Y176.276 
X360.429 Y176.254 
X360.442 Y176.232 
X360.451 Y176.214 
X360.461 Y176.19 
X360.47 Y176.167 
X360.478 Y176.145 
X360.484 Y176.12 
X360.489 Y176.1 
X360.493 Y176.078 
X360.497 Y176.042 
X360.499 Y176.021 
X360.499 Y176 
X360.499 Y175.978 
X360.497 Y175.957 
X360.493 Y175.921 
X360.489 Y175.899 
X360.484 Y175.879 
X360.478 Y175.854 
X360.47 Y175.832 
X360.461 Y175.809 
X360.451 Y175.785 
X360.442 Y175.767 
X360.429 Y175.745 
X360.415 Y175.723 
X360.4 Y175.701 
X360.383 Y175.679 
X360.372 Y175.667 
X360.353 Y175.646 
X360.332 Y175.627 
X360.32 Y175.616 
X360.298 Y175.599 
X360.276 Y175.584 
X360.254 Y175.57 
X360.232 Y175.557 
X360.214 Y175.548 
X360.19 Y175.538 
X360.167 Y175.529 
X360.145 Y175.521 
X360.12 Y175.515 
X360.1 Y175.51 
X360.078 Y175.506 
X360.042 Y175.502 
X360.021 Y175.5 
X360 Y175.5 
X359.978 Y175.5 
X359.957 Y175.502 
X359.921 Y175.506 
X359.899 Y175.51 
X359.879 Y175.515 
X359.862 Y175.519 
G02 X360.126 Y176.484 I0.131 J0.482 
G01 Z-14.166 F100
G02 X359.862 Y175.519 I-0.131 J-0.482 F200
G01 X359.854 Y175.521 
X359.832 Y175.529 
X359.809 Y175.538 
X359.785 Y175.548 
X359.767 Y175.557 
X359.745 Y175.57 
X359.723 Y175.584 
X359.701 Y175.599 
X359.679 Y175.616 
X359.667 Y175.627 
X359.646 Y175.646 
X359.627 Y175.667 
X359.616 Y175.679 
X359.599 Y175.701 
X359.584 Y175.723 
X359.57 Y175.745 
X359.557 Y175.767 
X359.548 Y175.785 
X359.538 Y175.809 
X359.529 Y175.832 
X359.521 Y175.854 
X359.515 Y175.879 
X359.51 Y175.899 
X359.506 Y175.921 
X359.502 Y175.957 
X359.5 Y175.978 
X359.5 Y176 
X359.5 Y176.021 
X359.502 Y176.042 
X359.506 Y176.078 
X359.51 Y176.1 
X359.515 Y176.12 
X359.521 Y176.145 
X359.529 Y176.167 
X359.538 Y176.19 
X359.548 Y176.214 
X359.557 Y176.232 
X359.57 Y176.254 
X359.584 Y176.276 
X359.599 Y176.298 
X359.616 Y176.32 
X359.627 Y176.332 
X359.646 Y176.353 
X359.667 Y176.372 
X359.679 Y176.383 
X359.701 Y176.4 
X359.723 Y176.415 
X359.745 Y176.429 
X359.767 Y176.442 
X359.785 Y176.451 
X359.809 Y176.461 
X359.832 Y176.47 
X359.854 Y176.478 
X359.879 Y176.484 
X359.899 Y176.489 
X359.921 Y176.493 
X359.957 Y176.497 
X359.978 Y176.499 
X360 Y176.499 
X360.021 Y176.499 
X360.042 Y176.497 
X360.078 Y176.493 
X360.1 Y176.489 
X360.12 Y176.484 
X360.145 Y176.478 
X360.167 Y176.47 
X360.19 Y176.461 
X360.214 Y176.451 
X360.232 Y176.442 
X360.254 Y176.429 
X360.276 Y176.415 
X360.298 Y176.4 
X360.32 Y176.383 
X360.332 Y176.372 
X360.353 Y176.353 
X360.372 Y176.332 
X360.383 Y176.32 
X360.4 Y176.298 
X360.415 Y176.276 
X360.429 Y176.254 
X360.442 Y176.232 
X360.451 Y176.214 
X360.461 Y176.19 
X360.47 Y176.167 
X360.478 Y176.145 
X360.484 Y176.12 
X360.489 Y176.1 
X360.493 Y176.078 
X360.497 Y176.042 
X360.499 Y176.021 
X360.499 Y176 
X360.499 Y175.978 
X360.497 Y175.957 
X360.493 Y175.921 
X360.489 Y175.899 
X360.484 Y175.879 
X360.478 Y175.854 
X360.47 Y175.832 
X360.461 Y175.809 
X360.451 Y175.785 
X360.442 Y175.767 
X360.429 Y175.745 
X360.415 Y175.723 
X360.4 Y175.701 
X360.383 Y175.679 
X360.372 Y175.667 
X360.353 Y175.646 
X360.332 Y175.627 
X360.32 Y175.616 
X360.298 Y175.599 
X360.276 Y175.584 
X360.254 Y175.57 
X360.232 Y175.557 
X360.214 Y175.548 
X360.19 Y175.538 
X360.167 Y175.529 
X360.145 Y175.521 
X360.12 Y175.515 
X360.1 Y175.51 
X360.078 Y175.506 
X360.042 Y175.502 
X360.021 Y175.5 
X360 Y175.5 
X359.978 Y175.5 
X359.957 Y175.502 
X359.921 Y175.506 
X359.899 Y175.51 
X359.879 Y175.515 
X359.862 Y175.519 
G02 X360.126 Y176.484 I0.131 J0.482 
G01 Z-17 F100
G02 X359.862 Y175.519 I-0.131 J-0.482 F200
G01 X359.854 Y175.521 
X359.832 Y175.529 
X359.809 Y175.538 
X359.785 Y175.548 
X359.767 Y175.557 
X359.745 Y175.57 
X359.723 Y175.584 
X359.701 Y175.599 
X359.679 Y175.616 
X359.667 Y175.627 
X359.646 Y175.646 
X359.627 Y175.667 
X359.616 Y175.679 
X359.599 Y175.701 
X359.584 Y175.723 
X359.57 Y175.745 
X359.557 Y175.767 
X359.548 Y175.785 
X359.538 Y175.809 
X359.529 Y175.832 
X359.521 Y175.854 
X359.515 Y175.879 
X359.51 Y175.899 
X359.506 Y175.921 
X359.502 Y175.957 
X359.5 Y175.978 
X359.5 Y176 
X359.5 Y176.021 
X359.502 Y176.042 
X359.506 Y176.078 
X359.51 Y176.1 
X359.515 Y176.12 
X359.521 Y176.145 
X359.529 Y176.167 
X359.538 Y176.19 
X359.548 Y176.214 
X359.557 Y176.232 
X359.57 Y176.254 
X359.584 Y176.276 
X359.599 Y176.298 
X359.616 Y176.32 
X359.627 Y176.332 
X359.646 Y176.353 
X359.667 Y176.372 
X359.679 Y176.383 
X359.701 Y176.4 
X359.723 Y176.415 
X359.745 Y176.429 
X359.767 Y176.442 
X359.785 Y176.451 
X359.809 Y176.461 
X359.832 Y176.47 
X359.854 Y176.478 
X359.879 Y176.484 
X359.899 Y176.489 
X359.921 Y176.493 
X359.957 Y176.497 
X359.978 Y176.499 
X360 Y176.499 
X360.021 Y176.499 
X360.042 Y176.497 
X360.078 Y176.493 
X360.1 Y176.489 
X360.12 Y176.484 
X360.145 Y176.478 
X360.167 Y176.47 
X360.19 Y176.461 
X360.214 Y176.451 
X360.232 Y176.442 
X360.254 Y176.429 
X360.276 Y176.415 
X360.298 Y176.4 
X360.32 Y176.383 
X360.332 Y176.372 
X360.353 Y176.353 
X360.372 Y176.332 
X360.383 Y176.32 
X360.4 Y176.298 
X360.415 Y176.276 
X360.429 Y176.254 
X360.442 Y176.232 
X360.451 Y176.214 
X360.461 Y176.19 
X360.47 Y176.167 
X360.478 Y176.145 
X360.484 Y176.12 
X360.489 Y176.1 
X360.493 Y176.078 
X360.497 Y176.042 
X360.499 Y176.021 
X360.499 Y176 
X360.499 Y175.978 
X360.497 Y175.957 
X360.493 Y175.921 
X360.489 Y175.899 
X360.484 Y175.879 
X360.478 Y175.854 
X360.47 Y175.832 
X360.461 Y175.809 
X360.451 Y175.785 
X360.442 Y175.767 
X360.429 Y175.745 
X360.415 Y175.723 
X360.4 Y175.701 
X360.383 Y175.679 
X360.372 Y175.667 
X360.353 Y175.646 
X360.332 Y175.627 
X360.32 Y175.616 
X360.298 Y175.599 
X360.276 Y175.584 
X360.254 Y175.57 
X360.232 Y175.557 
X360.214 Y175.548 
X360.19 Y175.538 
X360.167 Y175.529 
X360.145 Y175.521 
X360.12 Y175.515 
X360.1 Y175.51 
X360.078 Y175.506 
X360.042 Y175.502 
X360.021 Y175.5 
X360 Y175.5 
X359.978 Y175.5 
X359.957 Y175.502 
X359.921 Y175.506 
X359.899 Y175.51 
X359.879 Y175.515 
X359.862 Y175.519 
G02 X360.126 Y176.484 I0.131 J0.482 
G00 Z5
G90
(Sketch 17)
X354.5 Y106 S7000 M03
Z2
G01 Z-2.833 F100
G02 X353.5 Y106 I-0.5 J0 F300
G01 X353.5 Y114.5 
X366.5 Y114.5 
X366.5 Y97.5 
X353.5 Y97.5 
X353.5 Y106 
G02 X354.5 Y106 I0.5 J0 
G01 Z-5.666 F100
G02 X353.5 Y106 I-0.5 J0 F300
G01 X353.5 Y114.5 
X366.5 Y114.5 
X366.5 Y97.5 
X353.5 Y97.5 
X353.5 Y106 
G02 X354.5 Y106 I0.5 J0 
G01 Z-8.5 F100
G02 X353.5 Y106 I-0.5 J0 F300
G01 X353.5 Y114.5 
X366.5 Y114.5 
X366.5 Y97.5 
X353.5 Y97.5 
X353.5 Y106 
G02 X354.5 Y106 I0.5 J0 
G01 Z-11.333 F100
G02 X353.5 Y106 I-0.5 J0 F300
G01 X353.5 Y114.5 
X366.5 Y114.5 
X366.5 Y97.5 
X353.5 Y97.5 
X353.5 Y106 
G02 X354.5 Y106 I0.5 J0 
G01 Z-14.166 F100
G02 X353.5 Y106 I-0.5 J0 F300
G01 X353.5 Y114.5 
X366.5 Y114.5 
X366.5 Y97.5 
X353.5 Y97.5 
X353.5 Y106 
G02 X354.5 Y106 I0.5 J0 
G01 Z-17 F100
G02 X353.5 Y106 I-0.5 J0 F300
G01 X353.5 Y114.5 
X366.5 Y114.5 
X366.5 Y97.5 
X353.5 Y97.5 
X353.5 Y106 
G02 X354.5 Y106 I0.5 J0 
G00 Z5
G90
(Sketch 16)
X24.5 Y106 S7000 M03
Z2
G01 Z-2.833 F100
G02 X23.5 Y106 I-0.5 J0 F300
G01 X23.5 Y114.5 
X36.5 Y114.5 
X36.5 Y97.5 
X23.5 Y97.5 
X23.5 Y106 
G02 X24.5 Y106 I0.5 J0 
G01 Z-5.666 F100
G02 X23.5 Y106 I-0.5 J0 F300
G01 X23.5 Y114.5 
X36.5 Y114.5 
X36.5 Y97.5 
X23.5 Y97.5 
X23.5 Y106 
G02 X24.5 Y106 I0.5 J0 
G01 Z-8.5 F100
G02 X23.5 Y106 I-0.5 J0 F300
G01 X23.5 Y114.5 
X36.5 Y114.5 
X36.5 Y97.5 
X23.5 Y97.5 
X23.5 Y106 
G02 X24.5 Y106 I0.5 J0 
G01 Z-11.333 F100
G02 X23.5 Y106 I-0.5 J0 F300
G01 X23.5 Y114.5 
X36.5 Y114.5 
X36.5 Y97.5 
X23.5 Y97.5 
X23.5 Y106 
G02 X24.5 Y106 I0.5 J0 
G01 Z-14.166 F100
G02 X23.5 Y106 I-0.5 J0 F300
G01 X23.5 Y114.5 
X36.5 Y114.5 
X36.5 Y97.5 
X23.5 Y97.5 
X23.5 Y106 
G02 X24.5 Y106 I0.5 J0 
G01 Z-17 F100
G02 X23.5 Y106 I-0.5 J0 F300
G01 X23.5 Y114.5 
X36.5 Y114.5 
X36.5 Y97.5 
X23.5 Y97.5 
X23.5 Y106 
G02 X24.5 Y106 I0.5 J0 
G00 Z5
G90
(Sketch 15)
X30.4 Y176.3 S7000 M03
Z2
G01 Z-2.833 F100
G02 X29.609 Y175.688 I-0.395 J-0.306 F200
G01 X29.599 Y175.701 
X29.583 Y175.723 
X29.57 Y175.744 
X29.559 Y175.764 
X29.549 Y175.784 
X29.538 Y175.809 
X29.528 Y175.834 
X29.522 Y175.853 
X29.515 Y175.877 
X29.51 Y175.902 
X29.505 Y175.927 
X29.502 Y175.951 
X29.501 Y175.975 
X29.5 Y176 
X29.501 Y176.024 
X29.502 Y176.048 
X29.505 Y176.072 
X29.51 Y176.097 
X29.515 Y176.122 
X29.522 Y176.146 
X29.528 Y176.165 
X29.538 Y176.19 
X29.549 Y176.215 
X29.559 Y176.235 
X29.57 Y176.255 
X29.583 Y176.276 
X29.599 Y176.298 
X29.614 Y176.318 
X29.628 Y176.333 
X29.647 Y176.353 
X29.665 Y176.37 
X29.68 Y176.384 
X29.702 Y176.401 
X29.722 Y176.415 
X29.743 Y176.428 
X29.767 Y176.442 
X29.787 Y176.451 
X29.808 Y176.461 
X29.83 Y176.47 
X29.854 Y176.478 
X29.88 Y176.485 
X29.9 Y176.489 
X29.92 Y176.493 
X29.956 Y176.497 
X29.978 Y176.499 
X30 Y176.499 
X30.021 Y176.499 
X30.043 Y176.497 
X30.079 Y176.493 
X30.099 Y176.489 
X30.119 Y176.485 
X30.145 Y176.478 
X30.169 Y176.47 
X30.191 Y176.461 
X30.212 Y176.451 
X30.232 Y176.442 
X30.256 Y176.428 
X30.277 Y176.415 
X30.297 Y176.401 
X30.319 Y176.384 
X30.334 Y176.37 
X30.352 Y176.353 
X30.371 Y176.333 
X30.385 Y176.318 
X30.4 Y176.298 
X30.416 Y176.276 
X30.429 Y176.255 
X30.44 Y176.235 
X30.45 Y176.215 
X30.461 Y176.19 
X30.471 Y176.165 
X30.477 Y176.146 
X30.484 Y176.122 
X30.489 Y176.097 
X30.494 Y176.072 
X30.497 Y176.048 
X30.498 Y176.024 
X30.499 Y176 
X30.498 Y175.975 
X30.497 Y175.951 
X30.494 Y175.927 
X30.489 Y175.902 
X30.484 Y175.877 
X30.477 Y175.853 
X30.471 Y175.834 
X30.461 Y175.809 
X30.45 Y175.784 
X30.44 Y175.764 
X30.429 Y175.744 
X30.416 Y175.723 
X30.4 Y175.701 
X30.385 Y175.681 
X30.371 Y175.666 
X30.352 Y175.646 
X30.334 Y175.629 
X30.319 Y175.615 
X30.297 Y175.598 
X30.277 Y175.584 
X30.256 Y175.571 
X30.232 Y175.557 
X30.212 Y175.548 
X30.191 Y175.538 
X30.169 Y175.529 
X30.145 Y175.521 
X30.119 Y175.514 
X30.099 Y175.51 
X30.079 Y175.506 
X30.043 Y175.502 
X30.021 Y175.5 
X30 Y175.5 
X29.978 Y175.5 
X29.956 Y175.502 
X29.92 Y175.506 
X29.9 Y175.51 
X29.88 Y175.514 
X29.854 Y175.521 
X29.83 Y175.529 
X29.808 Y175.538 
X29.787 Y175.548 
X29.767 Y175.557 
X29.743 Y175.571 
X29.722 Y175.584 
X29.702 Y175.598 
X29.68 Y175.615 
X29.665 Y175.629 
X29.647 Y175.646 
X29.628 Y175.666 
X29.614 Y175.681 
X29.609 Y175.688 
G02 X30.4 Y176.3 I0.395 J0.306 
G01 Z-5.666 F100
G02 X29.609 Y175.688 I-0.395 J-0.306 F200
G01 X29.599 Y175.701 
X29.583 Y175.723 
X29.57 Y175.744 
X29.559 Y175.764 
X29.549 Y175.784 
X29.538 Y175.809 
X29.528 Y175.834 
X29.522 Y175.853 
X29.515 Y175.877 
X29.51 Y175.902 
X29.505 Y175.927 
X29.502 Y175.951 
X29.501 Y175.975 
X29.5 Y176 
X29.501 Y176.024 
X29.502 Y176.048 
X29.505 Y176.072 
X29.51 Y176.097 
X29.515 Y176.122 
X29.522 Y176.146 
X29.528 Y176.165 
X29.538 Y176.19 
X29.549 Y176.215 
X29.559 Y176.235 
X29.57 Y176.255 
X29.583 Y176.276 
X29.599 Y176.298 
X29.614 Y176.318 
X29.628 Y176.333 
X29.647 Y176.353 
X29.665 Y176.37 
X29.68 Y176.384 
X29.702 Y176.401 
X29.722 Y176.415 
X29.743 Y176.428 
X29.767 Y176.442 
X29.787 Y176.451 
X29.808 Y176.461 
X29.83 Y176.47 
X29.854 Y176.478 
X29.88 Y176.485 
X29.9 Y176.489 
X29.92 Y176.493 
X29.956 Y176.497 
X29.978 Y176.499 
X30 Y176.499 
X30.021 Y176.499 
X30.043 Y176.497 
X30.079 Y176.493 
X30.099 Y176.489 
X30.119 Y176.485 
X30.145 Y176.478 
X30.169 Y176.47 
X30.191 Y176.461 
X30.212 Y176.451 
X30.232 Y176.442 
X30.256 Y176.428 
X30.277 Y176.415 
X30.297 Y176.401 
X30.319 Y176.384 
X30.334 Y176.37 
X30.352 Y176.353 
X30.371 Y176.333 
X30.385 Y176.318 
X30.4 Y176.298 
X30.416 Y176.276 
X30.429 Y176.255 
X30.44 Y176.235 
X30.45 Y176.215 
X30.461 Y176.19 
X30.471 Y176.165 
X30.477 Y176.146 
X30.484 Y176.122 
X30.489 Y176.097 
X30.494 Y176.072 
X30.497 Y176.048 
X30.498 Y176.024 
X30.499 Y176 
X30.498 Y175.975 
X30.497 Y175.951 
X30.494 Y175.927 
X30.489 Y175.902 
X30.484 Y175.877 
X30.477 Y175.853 
X30.471 Y175.834 
X30.461 Y175.809 
X30.45 Y175.784 
X30.44 Y175.764 
X30.429 Y175.744 
X30.416 Y175.723 
X30.4 Y175.701 
X30.385 Y175.681 
X30.371 Y175.666 
X30.352 Y175.646 
X30.334 Y175.629 
X30.319 Y175.615 
X30.297 Y175.598 
X30.277 Y175.584 
X30.256 Y175.571 
X30.232 Y175.557 
X30.212 Y175.548 
X30.191 Y175.538 
X30.169 Y175.529 
X30.145 Y175.521 
X30.119 Y175.514 
X30.099 Y175.51 
X30.079 Y175.506 
X30.043 Y175.502 
X30.021 Y175.5 
X30 Y175.5 
X29.978 Y175.5 
X29.956 Y175.502 
X29.92 Y175.506 
X29.9 Y175.51 
X29.88 Y175.514 
X29.854 Y175.521 
X29.83 Y175.529 
X29.808 Y175.538 
X29.787 Y175.548 
X29.767 Y175.557 
X29.743 Y175.571 
X29.722 Y175.584 
X29.702 Y175.598 
X29.68 Y175.615 
X29.665 Y175.629 
X29.647 Y175.646 
X29.628 Y175.666 
X29.614 Y175.681 
X29.609 Y175.688 
G02 X30.4 Y176.3 I0.395 J0.306 
G01 Z-8.5 F100
G02 X29.609 Y175.688 I-0.395 J-0.306 F200
G01 X29.599 Y175.701 
X29.583 Y175.723 
X29.57 Y175.744 
X29.559 Y175.764 
X29.549 Y175.784 
X29.538 Y175.809 
X29.528 Y175.834 
X29.522 Y175.853 
X29.515 Y175.877 
X29.51 Y175.902 
X29.505 Y175.927 
X29.502 Y175.951 
X29.501 Y175.975 
X29.5 Y176 
X29.501 Y176.024 
X29.502 Y176.048 
X29.505 Y176.072 
X29.51 Y176.097 
X29.515 Y176.122 
X29.522 Y176.146 
X29.528 Y176.165 
X29.538 Y176.19 
X29.549 Y176.215 
X29.559 Y176.235 
X29.57 Y176.255 
X29.583 Y176.276 
X29.599 Y176.298 
X29.614 Y176.318 
X29.628 Y176.333 
X29.647 Y176.353 
X29.665 Y176.37 
X29.68 Y176.384 
X29.702 Y176.401 
X29.722 Y176.415 
X29.743 Y176.428 
X29.767 Y176.442 
X29.787 Y176.451 
X29.808 Y176.461 
X29.83 Y176.47 
X29.854 Y176.478 
X29.88 Y176.485 
X29.9 Y176.489 
X29.92 Y176.493 
X29.956 Y176.497 
X29.978 Y176.499 
X30 Y176.499 
X30.021 Y176.499 
X30.043 Y176.497 
X30.079 Y176.493 
X30.099 Y176.489 
X30.119 Y176.485 
X30.145 Y176.478 
X30.169 Y176.47 
X30.191 Y176.461 
X30.212 Y176.451 
X30.232 Y176.442 
X30.256 Y176.428 
X30.277 Y176.415 
X30.297 Y176.401 
X30.319 Y176.384 
X30.334 Y176.37 
X30.352 Y176.353 
X30.371 Y176.333 
X30.385 Y176.318 
X30.4 Y176.298 
X30.416 Y176.276 
X30.429 Y176.255 
X30.44 Y176.235 
X30.45 Y176.215 
X30.461 Y176.19 
X30.471 Y176.165 
X30.477 Y176.146 
X30.484 Y176.122 
X30.489 Y176.097 
X30.494 Y176.072 
X30.497 Y176.048 
X30.498 Y176.024 
X30.499 Y176 
X30.498 Y175.975 
X30.497 Y175.951 
X30.494 Y175.927 
X30.489 Y175.902 
X30.484 Y175.877 
X30.477 Y175.853 
X30.471 Y175.834 
X30.461 Y175.809 
X30.45 Y175.784 
X30.44 Y175.764 
X30.429 Y175.744 
X30.416 Y175.723 
X30.4 Y175.701 
X30.385 Y175.681 
X30.371 Y175.666 
X30.352 Y175.646 
X30.334 Y175.629 
X30.319 Y175.615 
X30.297 Y175.598 
X30.277 Y175.584 
X30.256 Y175.571 
X30.232 Y175.557 
X30.212 Y175.548 
X30.191 Y175.538 
X30.169 Y175.529 
X30.145 Y175.521 
X30.119 Y175.514 
X30.099 Y175.51 
X30.079 Y175.506 
X30.043 Y175.502 
X30.021 Y175.5 
X30 Y175.5 
X29.978 Y175.5 
X29.956 Y175.502 
X29.92 Y175.506 
X29.9 Y175.51 
X29.88 Y175.514 
X29.854 Y175.521 
X29.83 Y175.529 
X29.808 Y175.538 
X29.787 Y175.548 
X29.767 Y175.557 
X29.743 Y175.571 
X29.722 Y175.584 
X29.702 Y175.598 
X29.68 Y175.615 
X29.665 Y175.629 
X29.647 Y175.646 
X29.628 Y175.666 
X29.614 Y175.681 
X29.609 Y175.688 
G02 X30.4 Y176.3 I0.395 J0.306 
G01 Z-11.333 F100
G02 X29.609 Y175.688 I-0.395 J-0.306 F200
G01 X29.599 Y175.701 
X29.583 Y175.723 
X29.57 Y175.744 
X29.559 Y175.764 
X29.549 Y175.784 
X29.538 Y175.809 
X29.528 Y175.834 
X29.522 Y175.853 
X29.515 Y175.877 
X29.51 Y175.902 
X29.505 Y175.927 
X29.502 Y175.951 
X29.501 Y175.975 
X29.5 Y176 
X29.501 Y176.024 
X29.502 Y176.048 
X29.505 Y176.072 
X29.51 Y176.097 
X29.515 Y176.122 
X29.522 Y176.146 
X29.528 Y176.165 
X29.538 Y176.19 
X29.549 Y176.215 
X29.559 Y176.235 
X29.57 Y176.255 
X29.583 Y176.276 
X29.599 Y176.298 
X29.614 Y176.318 
X29.628 Y176.333 
X29.647 Y176.353 
X29.665 Y176.37 
X29.68 Y176.384 
X29.702 Y176.401 
X29.722 Y176.415 
X29.743 Y176.428 
X29.767 Y176.442 
X29.787 Y176.451 
X29.808 Y176.461 
X29.83 Y176.47 
X29.854 Y176.478 
X29.88 Y176.485 
X29.9 Y176.489 
X29.92 Y176.493 
X29.956 Y176.497 
X29.978 Y176.499 
X30 Y176.499 
X30.021 Y176.499 
X30.043 Y176.497 
X30.079 Y176.493 
X30.099 Y176.489 
X30.119 Y176.485 
X30.145 Y176.478 
X30.169 Y176.47 
X30.191 Y176.461 
X30.212 Y176.451 
X30.232 Y176.442 
X30.256 Y176.428 
X30.277 Y176.415 
X30.297 Y176.401 
X30.319 Y176.384 
X30.334 Y176.37 
X30.352 Y176.353 
X30.371 Y176.333 
X30.385 Y176.318 
X30.4 Y176.298 
X30.416 Y176.276 
X30.429 Y176.255 
X30.44 Y176.235 
X30.45 Y176.215 
X30.461 Y176.19 
X30.471 Y176.165 
X30.477 Y176.146 
X30.484 Y176.122 
X30.489 Y176.097 
X30.494 Y176.072 
X30.497 Y176.048 
X30.498 Y176.024 
X30.499 Y176 
X30.498 Y175.975 
X30.497 Y175.951 
X30.494 Y175.927 
X30.489 Y175.902 
X30.484 Y175.877 
X30.477 Y175.853 
X30.471 Y175.834 
X30.461 Y175.809 
X30.45 Y175.784 
X30.44 Y175.764 
X30.429 Y175.744 
X30.416 Y175.723 
X30.4 Y175.701 
X30.385 Y175.681 
X30.371 Y175.666 
X30.352 Y175.646 
X30.334 Y175.629 
X30.319 Y175.615 
X30.297 Y175.598 
X30.277 Y175.584 
X30.256 Y175.571 
X30.232 Y175.557 
X30.212 Y175.548 
X30.191 Y175.538 
X30.169 Y175.529 
X30.145 Y175.521 
X30.119 Y175.514 
X30.099 Y175.51 
X30.079 Y175.506 
X30.043 Y175.502 
X30.021 Y175.5 
X30 Y175.5 
X29.978 Y175.5 
X29.956 Y175.502 
X29.92 Y175.506 
X29.9 Y175.51 
X29.88 Y175.514 
X29.854 Y175.521 
X29.83 Y175.529 
X29.808 Y175.538 
X29.787 Y175.548 
X29.767 Y175.557 
X29.743 Y175.571 
X29.722 Y175.584 
X29.702 Y175.598 
X29.68 Y175.615 
X29.665 Y175.629 
X29.647 Y175.646 
X29.628 Y175.666 
X29.614 Y175.681 
X29.609 Y175.688 
G02 X30.4 Y176.3 I0.395 J0.306 
G01 Z-14.166 F100
G02 X29.609 Y175.688 I-0.395 J-0.306 F200
G01 X29.599 Y175.701 
X29.583 Y175.723 
X29.57 Y175.744 
X29.559 Y175.764 
X29.549 Y175.784 
X29.538 Y175.809 
X29.528 Y175.834 
X29.522 Y175.853 
X29.515 Y175.877 
X29.51 Y175.902 
X29.505 Y175.927 
X29.502 Y175.951 
X29.501 Y175.975 
X29.5 Y176 
X29.501 Y176.024 
X29.502 Y176.048 
X29.505 Y176.072 
X29.51 Y176.097 
X29.515 Y176.122 
X29.522 Y176.146 
X29.528 Y176.165 
X29.538 Y176.19 
X29.549 Y176.215 
X29.559 Y176.235 
X29.57 Y176.255 
X29.583 Y176.276 
X29.599 Y176.298 
X29.614 Y176.318 
X29.628 Y176.333 
X29.647 Y176.353 
X29.665 Y176.37 
X29.68 Y176.384 
X29.702 Y176.401 
X29.722 Y176.415 
X29.743 Y176.428 
X29.767 Y176.442 
X29.787 Y176.451 
X29.808 Y176.461 
X29.83 Y176.47 
X29.854 Y176.478 
X29.88 Y176.485 
X29.9 Y176.489 
X29.92 Y176.493 
X29.956 Y176.497 
X29.978 Y176.499 
X30 Y176.499 
X30.021 Y176.499 
X30.043 Y176.497 
X30.079 Y176.493 
X30.099 Y176.489 
X30.119 Y176.485 
X30.145 Y176.478 
X30.169 Y176.47 
X30.191 Y176.461 
X30.212 Y176.451 
X30.232 Y176.442 
X30.256 Y176.428 
X30.277 Y176.415 
X30.297 Y176.401 
X30.319 Y176.384 
X30.334 Y176.37 
X30.352 Y176.353 
X30.371 Y176.333 
X30.385 Y176.318 
X30.4 Y176.298 
X30.416 Y176.276 
X30.429 Y176.255 
X30.44 Y176.235 
X30.45 Y176.215 
X30.461 Y176.19 
X30.471 Y176.165 
X30.477 Y176.146 
X30.484 Y176.122 
X30.489 Y176.097 
X30.494 Y176.072 
X30.497 Y176.048 
X30.498 Y176.024 
X30.499 Y176 
X30.498 Y175.975 
X30.497 Y175.951 
X30.494 Y175.927 
X30.489 Y175.902 
X30.484 Y175.877 
X30.477 Y175.853 
X30.471 Y175.834 
X30.461 Y175.809 
X30.45 Y175.784 
X30.44 Y175.764 
X30.429 Y175.744 
X30.416 Y175.723 
X30.4 Y175.701 
X30.385 Y175.681 
X30.371 Y175.666 
X30.352 Y175.646 
X30.334 Y175.629 
X30.319 Y175.615 
X30.297 Y175.598 
X30.277 Y175.584 
X30.256 Y175.571 
X30.232 Y175.557 
X30.212 Y175.548 
X30.191 Y175.538 
X30.169 Y175.529 
X30.145 Y175.521 
X30.119 Y175.514 
X30.099 Y175.51 
X30.079 Y175.506 
X30.043 Y175.502 
X30.021 Y175.5 
X30 Y175.5 
X29.978 Y175.5 
X29.956 Y175.502 
X29.92 Y175.506 
X29.9 Y175.51 
X29.88 Y175.514 
X29.854 Y175.521 
X29.83 Y175.529 
X29.808 Y175.538 
X29.787 Y175.548 
X29.767 Y175.557 
X29.743 Y175.571 
X29.722 Y175.584 
X29.702 Y175.598 
X29.68 Y175.615 
X29.665 Y175.629 
X29.647 Y175.646 
X29.628 Y175.666 
X29.614 Y175.681 
X29.609 Y175.688 
G02 X30.4 Y176.3 I0.395 J0.306 
G01 Z-17 F100
G02 X29.609 Y175.688 I-0.395 J-0.306 F200
G01 X29.599 Y175.701 
X29.583 Y175.723 
X29.57 Y175.744 
X29.559 Y175.764 
X29.549 Y175.784 
X29.538 Y175.809 
X29.528 Y175.834 
X29.522 Y175.853 
X29.515 Y175.877 
X29.51 Y175.902 
X29.505 Y175.927 
X29.502 Y175.951 
X29.501 Y175.975 
X29.5 Y176 
X29.501 Y176.024 
X29.502 Y176.048 
X29.505 Y176.072 
X29.51 Y176.097 
X29.515 Y176.122 
X29.522 Y176.146 
X29.528 Y176.165 
X29.538 Y176.19 
X29.549 Y176.215 
X29.559 Y176.235 
X29.57 Y176.255 
X29.583 Y176.276 
X29.599 Y176.298 
X29.614 Y176.318 
X29.628 Y176.333 
X29.647 Y176.353 
X29.665 Y176.37 
X29.68 Y176.384 
X29.702 Y176.401 
X29.722 Y176.415 
X29.743 Y176.428 
X29.767 Y176.442 
X29.787 Y176.451 
X29.808 Y176.461 
X29.83 Y176.47 
X29.854 Y176.478 
X29.88 Y176.485 
X29.9 Y176.489 
X29.92 Y176.493 
X29.956 Y176.497 
X29.978 Y176.499 
X30 Y176.499 
X30.021 Y176.499 
X30.043 Y176.497 
X30.079 Y176.493 
X30.099 Y176.489 
X30.119 Y176.485 
X30.145 Y176.478 
X30.169 Y176.47 
X30.191 Y176.461 
X30.212 Y176.451 
X30.232 Y176.442 
X30.256 Y176.428 
X30.277 Y176.415 
X30.297 Y176.401 
X30.319 Y176.384 
X30.334 Y176.37 
X30.352 Y176.353 
X30.371 Y176.333 
X30.385 Y176.318 
X30.4 Y176.298 
X30.416 Y176.276 
X30.429 Y176.255 
X30.44 Y176.235 
X30.45 Y176.215 
X30.461 Y176.19 
X30.471 Y176.165 
X30.477 Y176.146 
X30.484 Y176.122 
X30.489 Y176.097 
X30.494 Y176.072 
X30.497 Y176.048 
X30.498 Y176.024 
X30.499 Y176 
X30.498 Y175.975 
X30.497 Y175.951 
X30.494 Y175.927 
X30.489 Y175.902 
X30.484 Y175.877 
X30.477 Y175.853 
X30.471 Y175.834 
X30.461 Y175.809 
X30.45 Y175.784 
X30.44 Y175.764 
X30.429 Y175.744 
X30.416 Y175.723 
X30.4 Y175.701 
X30.385 Y175.681 
X30.371 Y175.666 
X30.352 Y175.646 
X30.334 Y175.629 
X30.319 Y175.615 
X30.297 Y175.598 
X30.277 Y175.584 
X30.256 Y175.571 
X30.232 Y175.557 
X30.212 Y175.548 
X30.191 Y175.538 
X30.169 Y175.529 
X30.145 Y175.521 
X30.119 Y175.514 
X30.099 Y175.51 
X30.079 Y175.506 
X30.043 Y175.502 
X30.021 Y175.5 
X30 Y175.5 
X29.978 Y175.5 
X29.956 Y175.502 
X29.92 Y175.506 
X29.9 Y175.51 
X29.88 Y175.514 
X29.854 Y175.521 
X29.83 Y175.529 
X29.808 Y175.538 
X29.787 Y175.548 
X29.767 Y175.557 
X29.743 Y175.571 
X29.722 Y175.584 
X29.702 Y175.598 
X29.68 Y175.615 
X29.665 Y175.629 
X29.647 Y175.646 
X29.628 Y175.666 
X29.614 Y175.681 
X29.609 Y175.688 
G02 X30.4 Y176.3 I0.395 J0.306 
G00 Z5
G90
(Sketch 13)
X24.5 Y246 S7000 M03
Z2
G01 Z-2.833 F100
G02 X23.5 Y246 I-0.5 J0 F300
G01 X23.5 Y254.5 
X36.5 Y254.5 
X36.5 Y237.5 
X23.5 Y237.5 
X23.5 Y246 
G02 X24.5 Y246 I0.5 J0 
G01 Z-5.666 F100
G02 X23.5 Y246 I-0.5 J0 F300
G01 X23.5 Y254.5 
X36.5 Y254.5 
X36.5 Y237.5 
X23.5 Y237.5 
X23.5 Y246 
G02 X24.5 Y246 I0.5 J0 
G01 Z-8.5 F100
G02 X23.5 Y246 I-0.5 J0 F300
G01 X23.5 Y254.5 
X36.5 Y254.5 
X36.5 Y237.5 
X23.5 Y237.5 
X23.5 Y246 
G02 X24.5 Y246 I0.5 J0 
G01 Z-11.333 F100
G02 X23.5 Y246 I-0.5 J0 F300
G01 X23.5 Y254.5 
X36.5 Y254.5 
X36.5 Y237.5 
X23.5 Y237.5 
X23.5 Y246 
G02 X24.5 Y246 I0.5 J0 
G01 Z-14.166 F100
G02 X23.5 Y246 I-0.5 J0 F300
G01 X23.5 Y254.5 
X36.5 Y254.5 
X36.5 Y237.5 
X23.5 Y237.5 
X23.5 Y246 
G02 X24.5 Y246 I0.5 J0 
G01 Z-17 F100
G02 X23.5 Y246 I-0.5 J0 F300
G01 X23.5 Y254.5 
X36.5 Y254.5 
X36.5 Y237.5 
X23.5 Y237.5 
X23.5 Y246 
G02 X24.5 Y246 I0.5 J0 
G00 Z5
G90
(Sketch 11)
X30.4 Y316.3 S7000 M03
Z2
G01 Z-2.833 F100
G02 X29.609 Y315.688 I-0.395 J-0.306 F200
G01 X29.599 Y315.701 
X29.583 Y315.723 
X29.57 Y315.744 
X29.559 Y315.764 
X29.549 Y315.784 
X29.538 Y315.809 
X29.528 Y315.834 
X29.522 Y315.853 
X29.515 Y315.877 
X29.51 Y315.902 
X29.505 Y315.927 
X29.502 Y315.951 
X29.501 Y315.975 
X29.5 Y316 
X29.501 Y316.024 
X29.502 Y316.048 
X29.505 Y316.072 
X29.51 Y316.097 
X29.515 Y316.122 
X29.522 Y316.146 
X29.528 Y316.165 
X29.538 Y316.19 
X29.549 Y316.215 
X29.559 Y316.235 
X29.57 Y316.255 
X29.583 Y316.276 
X29.599 Y316.298 
X29.614 Y316.318 
X29.628 Y316.333 
X29.647 Y316.353 
X29.665 Y316.37 
X29.68 Y316.384 
X29.702 Y316.401 
X29.722 Y316.415 
X29.743 Y316.428 
X29.767 Y316.442 
X29.787 Y316.451 
X29.808 Y316.461 
X29.83 Y316.47 
X29.854 Y316.478 
X29.88 Y316.485 
X29.9 Y316.489 
X29.92 Y316.493 
X29.956 Y316.497 
X29.978 Y316.499 
X30 Y316.499 
X30.021 Y316.499 
X30.043 Y316.497 
X30.079 Y316.493 
X30.099 Y316.489 
X30.119 Y316.485 
X30.145 Y316.478 
X30.169 Y316.47 
X30.191 Y316.461 
X30.212 Y316.451 
X30.232 Y316.442 
X30.256 Y316.428 
X30.277 Y316.415 
X30.297 Y316.401 
X30.319 Y316.384 
X30.334 Y316.37 
X30.352 Y316.353 
X30.371 Y316.333 
X30.385 Y316.318 
X30.4 Y316.298 
X30.416 Y316.276 
X30.429 Y316.255 
X30.44 Y316.235 
X30.45 Y316.215 
X30.461 Y316.19 
X30.471 Y316.165 
X30.477 Y316.146 
X30.484 Y316.122 
X30.489 Y316.097 
X30.494 Y316.072 
X30.497 Y316.048 
X30.498 Y316.024 
X30.499 Y316 
X30.498 Y315.975 
X30.497 Y315.951 
X30.494 Y315.927 
X30.489 Y315.902 
X30.484 Y315.877 
X30.477 Y315.853 
X30.471 Y315.834 
X30.461 Y315.809 
X30.45 Y315.784 
X30.44 Y315.764 
X30.429 Y315.744 
X30.416 Y315.723 
X30.4 Y315.701 
X30.385 Y315.681 
X30.371 Y315.666 
X30.352 Y315.646 
X30.334 Y315.629 
X30.319 Y315.615 
X30.297 Y315.598 
X30.277 Y315.584 
X30.256 Y315.571 
X30.232 Y315.557 
X30.212 Y315.548 
X30.191 Y315.538 
X30.169 Y315.529 
X30.145 Y315.521 
X30.119 Y315.514 
X30.099 Y315.51 
X30.079 Y315.506 
X30.043 Y315.502 
X30.021 Y315.5 
X30 Y315.5 
X29.978 Y315.5 
X29.956 Y315.502 
X29.92 Y315.506 
X29.9 Y315.51 
X29.88 Y315.514 
X29.854 Y315.521 
X29.83 Y315.529 
X29.808 Y315.538 
X29.787 Y315.548 
X29.767 Y315.557 
X29.743 Y315.571 
X29.722 Y315.584 
X29.702 Y315.598 
X29.68 Y315.615 
X29.665 Y315.629 
X29.647 Y315.646 
X29.628 Y315.666 
X29.614 Y315.681 
X29.609 Y315.688 
G02 X30.4 Y316.3 I0.395 J0.306 
G01 Z-5.666 F100
G02 X29.609 Y315.688 I-0.395 J-0.306 F200
G01 X29.599 Y315.701 
X29.583 Y315.723 
X29.57 Y315.744 
X29.559 Y315.764 
X29.549 Y315.784 
X29.538 Y315.809 
X29.528 Y315.834 
X29.522 Y315.853 
X29.515 Y315.877 
X29.51 Y315.902 
X29.505 Y315.927 
X29.502 Y315.951 
X29.501 Y315.975 
X29.5 Y316 
X29.501 Y316.024 
X29.502 Y316.048 
X29.505 Y316.072 
X29.51 Y316.097 
X29.515 Y316.122 
X29.522 Y316.146 
X29.528 Y316.165 
X29.538 Y316.19 
X29.549 Y316.215 
X29.559 Y316.235 
X29.57 Y316.255 
X29.583 Y316.276 
X29.599 Y316.298 
X29.614 Y316.318 
X29.628 Y316.333 
X29.647 Y316.353 
X29.665 Y316.37 
X29.68 Y316.384 
X29.702 Y316.401 
X29.722 Y316.415 
X29.743 Y316.428 
X29.767 Y316.442 
X29.787 Y316.451 
X29.808 Y316.461 
X29.83 Y316.47 
X29.854 Y316.478 
X29.88 Y316.485 
X29.9 Y316.489 
X29.92 Y316.493 
X29.956 Y316.497 
X29.978 Y316.499 
X30 Y316.499 
X30.021 Y316.499 
X30.043 Y316.497 
X30.079 Y316.493 
X30.099 Y316.489 
X30.119 Y316.485 
X30.145 Y316.478 
X30.169 Y316.47 
X30.191 Y316.461 
X30.212 Y316.451 
X30.232 Y316.442 
X30.256 Y316.428 
X30.277 Y316.415 
X30.297 Y316.401 
X30.319 Y316.384 
X30.334 Y316.37 
X30.352 Y316.353 
X30.371 Y316.333 
X30.385 Y316.318 
X30.4 Y316.298 
X30.416 Y316.276 
X30.429 Y316.255 
X30.44 Y316.235 
X30.45 Y316.215 
X30.461 Y316.19 
X30.471 Y316.165 
X30.477 Y316.146 
X30.484 Y316.122 
X30.489 Y316.097 
X30.494 Y316.072 
X30.497 Y316.048 
X30.498 Y316.024 
X30.499 Y316 
X30.498 Y315.975 
X30.497 Y315.951 
X30.494 Y315.927 
X30.489 Y315.902 
X30.484 Y315.877 
X30.477 Y315.853 
X30.471 Y315.834 
X30.461 Y315.809 
X30.45 Y315.784 
X30.44 Y315.764 
X30.429 Y315.744 
X30.416 Y315.723 
X30.4 Y315.701 
X30.385 Y315.681 
X30.371 Y315.666 
X30.352 Y315.646 
X30.334 Y315.629 
X30.319 Y315.615 
X30.297 Y315.598 
X30.277 Y315.584 
X30.256 Y315.571 
X30.232 Y315.557 
X30.212 Y315.548 
X30.191 Y315.538 
X30.169 Y315.529 
X30.145 Y315.521 
X30.119 Y315.514 
X30.099 Y315.51 
X30.079 Y315.506 
X30.043 Y315.502 
X30.021 Y315.5 
X30 Y315.5 
X29.978 Y315.5 
X29.956 Y315.502 
X29.92 Y315.506 
X29.9 Y315.51 
X29.88 Y315.514 
X29.854 Y315.521 
X29.83 Y315.529 
X29.808 Y315.538 
X29.787 Y315.548 
X29.767 Y315.557 
X29.743 Y315.571 
X29.722 Y315.584 
X29.702 Y315.598 
X29.68 Y315.615 
X29.665 Y315.629 
X29.647 Y315.646 
X29.628 Y315.666 
X29.614 Y315.681 
X29.609 Y315.688 
G02 X30.4 Y316.3 I0.395 J0.306 
G01 Z-8.5 F100
G02 X29.609 Y315.688 I-0.395 J-0.306 F200
G01 X29.599 Y315.701 
X29.583 Y315.723 
X29.57 Y315.744 
X29.559 Y315.764 
X29.549 Y315.784 
X29.538 Y315.809 
X29.528 Y315.834 
X29.522 Y315.853 
X29.515 Y315.877 
X29.51 Y315.902 
X29.505 Y315.927 
X29.502 Y315.951 
X29.501 Y315.975 
X29.5 Y316 
X29.501 Y316.024 
X29.502 Y316.048 
X29.505 Y316.072 
X29.51 Y316.097 
X29.515 Y316.122 
X29.522 Y316.146 
X29.528 Y316.165 
X29.538 Y316.19 
X29.549 Y316.215 
X29.559 Y316.235 
X29.57 Y316.255 
X29.583 Y316.276 
X29.599 Y316.298 
X29.614 Y316.318 
X29.628 Y316.333 
X29.647 Y316.353 
X29.665 Y316.37 
X29.68 Y316.384 
X29.702 Y316.401 
X29.722 Y316.415 
X29.743 Y316.428 
X29.767 Y316.442 
X29.787 Y316.451 
X29.808 Y316.461 
X29.83 Y316.47 
X29.854 Y316.478 
X29.88 Y316.485 
X29.9 Y316.489 
X29.92 Y316.493 
X29.956 Y316.497 
X29.978 Y316.499 
X30 Y316.499 
X30.021 Y316.499 
X30.043 Y316.497 
X30.079 Y316.493 
X30.099 Y316.489 
X30.119 Y316.485 
X30.145 Y316.478 
X30.169 Y316.47 
X30.191 Y316.461 
X30.212 Y316.451 
X30.232 Y316.442 
X30.256 Y316.428 
X30.277 Y316.415 
X30.297 Y316.401 
X30.319 Y316.384 
X30.334 Y316.37 
X30.352 Y316.353 
X30.371 Y316.333 
X30.385 Y316.318 
X30.4 Y316.298 
X30.416 Y316.276 
X30.429 Y316.255 
X30.44 Y316.235 
X30.45 Y316.215 
X30.461 Y316.19 
X30.471 Y316.165 
X30.477 Y316.146 
X30.484 Y316.122 
X30.489 Y316.097 
X30.494 Y316.072 
X30.497 Y316.048 
X30.498 Y316.024 
X30.499 Y316 
X30.498 Y315.975 
X30.497 Y315.951 
X30.494 Y315.927 
X30.489 Y315.902 
X30.484 Y315.877 
X30.477 Y315.853 
X30.471 Y315.834 
X30.461 Y315.809 
X30.45 Y315.784 
X30.44 Y315.764 
X30.429 Y315.744 
X30.416 Y315.723 
X30.4 Y315.701 
X30.385 Y315.681 
X30.371 Y315.666 
X30.352 Y315.646 
X30.334 Y315.629 
X30.319 Y315.615 
X30.297 Y315.598 
X30.277 Y315.584 
X30.256 Y315.571 
X30.232 Y315.557 
X30.212 Y315.548 
X30.191 Y315.538 
X30.169 Y315.529 
X30.145 Y315.521 
X30.119 Y315.514 
X30.099 Y315.51 
X30.079 Y315.506 
X30.043 Y315.502 
X30.021 Y315.5 
X30 Y315.5 
X29.978 Y315.5 
X29.956 Y315.502 
X29.92 Y315.506 
X29.9 Y315.51 
X29.88 Y315.514 
X29.854 Y315.521 
X29.83 Y315.529 
X29.808 Y315.538 
X29.787 Y315.548 
X29.767 Y315.557 
X29.743 Y315.571 
X29.722 Y315.584 
X29.702 Y315.598 
X29.68 Y315.615 
X29.665 Y315.629 
X29.647 Y315.646 
X29.628 Y315.666 
X29.614 Y315.681 
X29.609 Y315.688 
G02 X30.4 Y316.3 I0.395 J0.306 
G01 Z-11.333 F100
G02 X29.609 Y315.688 I-0.395 J-0.306 F200
G01 X29.599 Y315.701 
X29.583 Y315.723 
X29.57 Y315.744 
X29.559 Y315.764 
X29.549 Y315.784 
X29.538 Y315.809 
X29.528 Y315.834 
X29.522 Y315.853 
X29.515 Y315.877 
X29.51 Y315.902 
X29.505 Y315.927 
X29.502 Y315.951 
X29.501 Y315.975 
X29.5 Y316 
X29.501 Y316.024 
X29.502 Y316.048 
X29.505 Y316.072 
X29.51 Y316.097 
X29.515 Y316.122 
X29.522 Y316.146 
X29.528 Y316.165 
X29.538 Y316.19 
X29.549 Y316.215 
X29.559 Y316.235 
X29.57 Y316.255 
X29.583 Y316.276 
X29.599 Y316.298 
X29.614 Y316.318 
X29.628 Y316.333 
X29.647 Y316.353 
X29.665 Y316.37 
X29.68 Y316.384 
X29.702 Y316.401 
X29.722 Y316.415 
X29.743 Y316.428 
X29.767 Y316.442 
X29.787 Y316.451 
X29.808 Y316.461 
X29.83 Y316.47 
X29.854 Y316.478 
X29.88 Y316.485 
X29.9 Y316.489 
X29.92 Y316.493 
X29.956 Y316.497 
X29.978 Y316.499 
X30 Y316.499 
X30.021 Y316.499 
X30.043 Y316.497 
X30.079 Y316.493 
X30.099 Y316.489 
X30.119 Y316.485 
X30.145 Y316.478 
X30.169 Y316.47 
X30.191 Y316.461 
X30.212 Y316.451 
X30.232 Y316.442 
X30.256 Y316.428 
X30.277 Y316.415 
X30.297 Y316.401 
X30.319 Y316.384 
X30.334 Y316.37 
X30.352 Y316.353 
X30.371 Y316.333 
X30.385 Y316.318 
X30.4 Y316.298 
X30.416 Y316.276 
X30.429 Y316.255 
X30.44 Y316.235 
X30.45 Y316.215 
X30.461 Y316.19 
X30.471 Y316.165 
X30.477 Y316.146 
X30.484 Y316.122 
X30.489 Y316.097 
X30.494 Y316.072 
X30.497 Y316.048 
X30.498 Y316.024 
X30.499 Y316 
X30.498 Y315.975 
X30.497 Y315.951 
X30.494 Y315.927 
X30.489 Y315.902 
X30.484 Y315.877 
X30.477 Y315.853 
X30.471 Y315.834 
X30.461 Y315.809 
X30.45 Y315.784 
X30.44 Y315.764 
X30.429 Y315.744 
X30.416 Y315.723 
X30.4 Y315.701 
X30.385 Y315.681 
X30.371 Y315.666 
X30.352 Y315.646 
X30.334 Y315.629 
X30.319 Y315.615 
X30.297 Y315.598 
X30.277 Y315.584 
X30.256 Y315.571 
X30.232 Y315.557 
X30.212 Y315.548 
X30.191 Y315.538 
X30.169 Y315.529 
X30.145 Y315.521 
X30.119 Y315.514 
X30.099 Y315.51 
X30.079 Y315.506 
X30.043 Y315.502 
X30.021 Y315.5 
X30 Y315.5 
X29.978 Y315.5 
X29.956 Y315.502 
X29.92 Y315.506 
X29.9 Y315.51 
X29.88 Y315.514 
X29.854 Y315.521 
X29.83 Y315.529 
X29.808 Y315.538 
X29.787 Y315.548 
X29.767 Y315.557 
X29.743 Y315.571 
X29.722 Y315.584 
X29.702 Y315.598 
X29.68 Y315.615 
X29.665 Y315.629 
X29.647 Y315.646 
X29.628 Y315.666 
X29.614 Y315.681 
X29.609 Y315.688 
G02 X30.4 Y316.3 I0.395 J0.306 
G01 Z-14.166 F100
G02 X29.609 Y315.688 I-0.395 J-0.306 F200
G01 X29.599 Y315.701 
X29.583 Y315.723 
X29.57 Y315.744 
X29.559 Y315.764 
X29.549 Y315.784 
X29.538 Y315.809 
X29.528 Y315.834 
X29.522 Y315.853 
X29.515 Y315.877 
X29.51 Y315.902 
X29.505 Y315.927 
X29.502 Y315.951 
X29.501 Y315.975 
X29.5 Y316 
X29.501 Y316.024 
X29.502 Y316.048 
X29.505 Y316.072 
X29.51 Y316.097 
X29.515 Y316.122 
X29.522 Y316.146 
X29.528 Y316.165 
X29.538 Y316.19 
X29.549 Y316.215 
X29.559 Y316.235 
X29.57 Y316.255 
X29.583 Y316.276 
X29.599 Y316.298 
X29.614 Y316.318 
X29.628 Y316.333 
X29.647 Y316.353 
X29.665 Y316.37 
X29.68 Y316.384 
X29.702 Y316.401 
X29.722 Y316.415 
X29.743 Y316.428 
X29.767 Y316.442 
X29.787 Y316.451 
X29.808 Y316.461 
X29.83 Y316.47 
X29.854 Y316.478 
X29.88 Y316.485 
X29.9 Y316.489 
X29.92 Y316.493 
X29.956 Y316.497 
X29.978 Y316.499 
X30 Y316.499 
X30.021 Y316.499 
X30.043 Y316.497 
X30.079 Y316.493 
X30.099 Y316.489 
X30.119 Y316.485 
X30.145 Y316.478 
X30.169 Y316.47 
X30.191 Y316.461 
X30.212 Y316.451 
X30.232 Y316.442 
X30.256 Y316.428 
X30.277 Y316.415 
X30.297 Y316.401 
X30.319 Y316.384 
X30.334 Y316.37 
X30.352 Y316.353 
X30.371 Y316.333 
X30.385 Y316.318 
X30.4 Y316.298 
X30.416 Y316.276 
X30.429 Y316.255 
X30.44 Y316.235 
X30.45 Y316.215 
X30.461 Y316.19 
X30.471 Y316.165 
X30.477 Y316.146 
X30.484 Y316.122 
X30.489 Y316.097 
X30.494 Y316.072 
X30.497 Y316.048 
X30.498 Y316.024 
X30.499 Y316 
X30.498 Y315.975 
X30.497 Y315.951 
X30.494 Y315.927 
X30.489 Y315.902 
X30.484 Y315.877 
X30.477 Y315.853 
X30.471 Y315.834 
X30.461 Y315.809 
X30.45 Y315.784 
X30.44 Y315.764 
X30.429 Y315.744 
X30.416 Y315.723 
X30.4 Y315.701 
X30.385 Y315.681 
X30.371 Y315.666 
X30.352 Y315.646 
X30.334 Y315.629 
X30.319 Y315.615 
X30.297 Y315.598 
X30.277 Y315.584 
X30.256 Y315.571 
X30.232 Y315.557 
X30.212 Y315.548 
X30.191 Y315.538 
X30.169 Y315.529 
X30.145 Y315.521 
X30.119 Y315.514 
X30.099 Y315.51 
X30.079 Y315.506 
X30.043 Y315.502 
X30.021 Y315.5 
X30 Y315.5 
X29.978 Y315.5 
X29.956 Y315.502 
X29.92 Y315.506 
X29.9 Y315.51 
X29.88 Y315.514 
X29.854 Y315.521 
X29.83 Y315.529 
X29.808 Y315.538 
X29.787 Y315.548 
X29.767 Y315.557 
X29.743 Y315.571 
X29.722 Y315.584 
X29.702 Y315.598 
X29.68 Y315.615 
X29.665 Y315.629 
X29.647 Y315.646 
X29.628 Y315.666 
X29.614 Y315.681 
X29.609 Y315.688 
G02 X30.4 Y316.3 I0.395 J0.306 
G01 Z-17 F100
G02 X29.609 Y315.688 I-0.395 J-0.306 F200
G01 X29.599 Y315.701 
X29.583 Y315.723 
X29.57 Y315.744 
X29.559 Y315.764 
X29.549 Y315.784 
X29.538 Y315.809 
X29.528 Y315.834 
X29.522 Y315.853 
X29.515 Y315.877 
X29.51 Y315.902 
X29.505 Y315.927 
X29.502 Y315.951 
X29.501 Y315.975 
X29.5 Y316 
X29.501 Y316.024 
X29.502 Y316.048 
X29.505 Y316.072 
X29.51 Y316.097 
X29.515 Y316.122 
X29.522 Y316.146 
X29.528 Y316.165 
X29.538 Y316.19 
X29.549 Y316.215 
X29.559 Y316.235 
X29.57 Y316.255 
X29.583 Y316.276 
X29.599 Y316.298 
X29.614 Y316.318 
X29.628 Y316.333 
X29.647 Y316.353 
X29.665 Y316.37 
X29.68 Y316.384 
X29.702 Y316.401 
X29.722 Y316.415 
X29.743 Y316.428 
X29.767 Y316.442 
X29.787 Y316.451 
X29.808 Y316.461 
X29.83 Y316.47 
X29.854 Y316.478 
X29.88 Y316.485 
X29.9 Y316.489 
X29.92 Y316.493 
X29.956 Y316.497 
X29.978 Y316.499 
X30 Y316.499 
X30.021 Y316.499 
X30.043 Y316.497 
X30.079 Y316.493 
X30.099 Y316.489 
X30.119 Y316.485 
X30.145 Y316.478 
X30.169 Y316.47 
X30.191 Y316.461 
X30.212 Y316.451 
X30.232 Y316.442 
X30.256 Y316.428 
X30.277 Y316.415 
X30.297 Y316.401 
X30.319 Y316.384 
X30.334 Y316.37 
X30.352 Y316.353 
X30.371 Y316.333 
X30.385 Y316.318 
X30.4 Y316.298 
X30.416 Y316.276 
X30.429 Y316.255 
X30.44 Y316.235 
X30.45 Y316.215 
X30.461 Y316.19 
X30.471 Y316.165 
X30.477 Y316.146 
X30.484 Y316.122 
X30.489 Y316.097 
X30.494 Y316.072 
X30.497 Y316.048 
X30.498 Y316.024 
X30.499 Y316 
X30.498 Y315.975 
X30.497 Y315.951 
X30.494 Y315.927 
X30.489 Y315.902 
X30.484 Y315.877 
X30.477 Y315.853 
X30.471 Y315.834 
X30.461 Y315.809 
X30.45 Y315.784 
X30.44 Y315.764 
X30.429 Y315.744 
X30.416 Y315.723 
X30.4 Y315.701 
X30.385 Y315.681 
X30.371 Y315.666 
X30.352 Y315.646 
X30.334 Y315.629 
X30.319 Y315.615 
X30.297 Y315.598 
X30.277 Y315.584 
X30.256 Y315.571 
X30.232 Y315.557 
X30.212 Y315.548 
X30.191 Y315.538 
X30.169 Y315.529 
X30.145 Y315.521 
X30.119 Y315.514 
X30.099 Y315.51 
X30.079 Y315.506 
X30.043 Y315.502 
X30.021 Y315.5 
X30 Y315.5 
X29.978 Y315.5 
X29.956 Y315.502 
X29.92 Y315.506 
X29.9 Y315.51 
X29.88 Y315.514 
X29.854 Y315.521 
X29.83 Y315.529 
X29.808 Y315.538 
X29.787 Y315.548 
X29.767 Y315.557 
X29.743 Y315.571 
X29.722 Y315.584 
X29.702 Y315.598 
X29.68 Y315.615 
X29.665 Y315.629 
X29.647 Y315.646 
X29.628 Y315.666 
X29.614 Y315.681 
X29.609 Y315.688 
G02 X30.4 Y316.3 I0.395 J0.306 
G00 Z5
G90
(Sketch 8)
X24.5 Y386 S7000 M03
Z2
G01 Z-2.833 F100
G02 X23.5 Y386 I-0.5 J0 F300
G01 X23.5 Y394.5 
X36.5 Y394.5 
X36.5 Y377.5 
X23.5 Y377.5 
X23.5 Y386 
G02 X24.5 Y386 I0.5 J0 
G01 Z-5.666 F100
G02 X23.5 Y386 I-0.5 J0 F300
G01 X23.5 Y394.5 
X36.5 Y394.5 
X36.5 Y377.5 
X23.5 Y377.5 
X23.5 Y386 
G02 X24.5 Y386 I0.5 J0 
G01 Z-8.5 F100
G02 X23.5 Y386 I-0.5 J0 F300
G01 X23.5 Y394.5 
X36.5 Y394.5 
X36.5 Y377.5 
X23.5 Y377.5 
X23.5 Y386 
G02 X24.5 Y386 I0.5 J0 
G01 Z-11.333 F100
G02 X23.5 Y386 I-0.5 J0 F300
G01 X23.5 Y394.5 
X36.5 Y394.5 
X36.5 Y377.5 
X23.5 Y377.5 
X23.5 Y386 
G02 X24.5 Y386 I0.5 J0 
G01 Z-14.166 F100
G02 X23.5 Y386 I-0.5 J0 F300
G01 X23.5 Y394.5 
X36.5 Y394.5 
X36.5 Y377.5 
X23.5 Y377.5 
X23.5 Y386 
G02 X24.5 Y386 I0.5 J0 
G01 Z-17 F100
G02 X23.5 Y386 I-0.5 J0 F300
G01 X23.5 Y394.5 
X36.5 Y394.5 
X36.5 Y377.5 
X23.5 Y377.5 
X23.5 Y386 
G02 X24.5 Y386 I0.5 J0 
G00 Z5
G90
(Sketch 18)
X205.384 Y111.772 S7000 M03
Z2
G01 Z-2.833 F100
G02 X204.433 Y111.463 I-0.475 J-0.154 F400
G01 X178.439 Y191.463 
G03 X178.414 Y191.534 I-1.426 J-0.463 
G01 X128.756 Y344.366 
G03 X128.754 Y344.373 I-1.426 J-0.463 
G01 X128.6 Y344.839 
G03 X128.575 Y344.909 I-1.424 J-0.47 
G01 X128.398 Y345.367 
G03 X128.37 Y345.434 I-1.399 J-0.54 
G01 X128.171 Y345.883 
G03 X128.139 Y345.951 I-1.371 J-0.607 
G01 X127.918 Y346.389 
G03 X127.885 Y346.451 I-1.339 J-0.675 
G01 X127.644 Y346.878 
G03 X127.604 Y346.943 I-1.306 J-0.737 
G01 X127.341 Y347.358 
G03 X127.3 Y347.42 I-1.266 J-0.802 
G01 X127.017 Y347.821 
G03 X126.974 Y347.879 I-1.225 J-0.864 
G01 X126.672 Y348.266 
G03 X126.627 Y348.322 I-1.182 J-0.922 
G01 X126.307 Y348.694 
G03 X126.254 Y348.751 I-1.137 J-0.978 
G01 X125.915 Y349.106 
G03 X125.866 Y349.155 I-1.084 J-1.035 
G01 X125.511 Y349.494 
G03 X125.454 Y349.547 I-1.035 J-1.084 
G01 X125.082 Y349.867 
G03 X125.026 Y349.912 I-0.978 J-1.137 
G01 X124.639 Y350.214 
G03 X124.581 Y350.257 I-0.922 J-1.182 
G01 X124.18 Y350.54 
G03 X124.116 Y350.583 I-0.864 J-1.225 
G01 X123.701 Y350.845 
G03 X123.64 Y350.881 I-0.8 J-1.268 
G01 X123.213 Y351.123 
G03 X123.149 Y351.158 I-0.739 J-1.304 
G01 X122.711 Y351.379 
G03 X122.643 Y351.411 I-0.675 J-1.339 
G01 X122.194 Y351.61 
G03 X122.125 Y351.639 I-0.607 J-1.371 
G01 X121.667 Y351.815 
G03 X121.599 Y351.839 I-0.538 J-1.4 
G01 X121.133 Y351.993 
G03 X121.063 Y352.014 I-0.47 J-1.424 
G01 X120.59 Y352.145 
G03 X120.519 Y352.163 I-0.4 J-1.445 
G01 X120.04 Y352.271 
G03 X119.968 Y352.285 I-0.329 J-1.463 
G01 X119.485 Y352.369 
G03 X119.411 Y352.38 I-0.257 J-1.477 
G01 X118.923 Y352.44 
G03 X118.85 Y352.447 I-0.183 J-1.488 
G01 X118.361 Y352.483 
G03 X118.287 Y352.487 I-0.11 J-1.495 
G01 X117.796 Y352.499 
G03 X117.76 Y352.5 I-0.036 J-1.499 
G01 X75 Y352.5 
G03 X73.5 Y351 I0 J-1.5 
G01 X73.5 Y331 
G03 X75 Y329.5 I1.5 J0 
G01 X89.5 Y329.5 
X89.5 Y212.5 
X75 Y212.5 
G03 X73.5 Y211 I0 J-1.5 
G01 X73.5 Y191 
G03 X75 Y189.5 I1.5 J0 
G01 X89.5 Y189.5 
X89.5 Y72.5 
X75 Y72.5 
G03 X73.5 Y71 I0 J-1.5 
G01 X73.5 Y51 
G03 X75 Y49.5 I1.5 J0 
G01 X89.5 Y49.5 
X89.5 Y31 
G03 X91 Y29.5 I1.5 J0 
G01 X144.5 Y29.5 
X144.5 Y15 
G03 X146 Y13.5 I1.5 J0 
G01 X166 Y13.5 
G03 X167.5 Y15 I0 J1.5 
G01 X167.5 Y29.5 
X229 Y29.5 
G03 X230.426 Y31.463 I0 J1.5 
G01 X204.433 Y111.463 
G02 X205.384 Y111.772 I0.475 J0.154 
G01 Z-5.666 F100
G02 X204.433 Y111.463 I-0.475 J-0.154 F400
G01 X178.439 Y191.463 
G03 X178.414 Y191.534 I-1.426 J-0.463 
G01 X128.756 Y344.366 
G03 X128.754 Y344.373 I-1.426 J-0.463 
G01 X128.6 Y344.839 
G03 X128.575 Y344.909 I-1.424 J-0.47 
G01 X128.398 Y345.367 
G03 X128.37 Y345.434 I-1.399 J-0.54 
G01 X128.171 Y345.883 
G03 X128.139 Y345.951 I-1.371 J-0.607 
G01 X127.918 Y346.389 
G03 X127.885 Y346.451 I-1.339 J-0.675 
G01 X127.644 Y346.878 
G03 X127.604 Y346.943 I-1.306 J-0.737 
G01 X127.341 Y347.358 
G03 X127.3 Y347.42 I-1.266 J-0.802 
G01 X127.017 Y347.821 
G03 X126.974 Y347.879 I-1.225 J-0.864 
G01 X126.672 Y348.266 
G03 X126.627 Y348.322 I-1.182 J-0.922 
G01 X126.307 Y348.694 
G03 X126.254 Y348.751 I-1.137 J-0.978 
G01 X125.915 Y349.106 
G03 X125.866 Y349.155 I-1.084 J-1.035 
G01 X125.511 Y349.494 
G03 X125.454 Y349.547 I-1.035 J-1.084 
G01 X125.082 Y349.867 
G03 X125.026 Y349.912 I-0.978 J-1.137 
G01 X124.639 Y350.214 
G03 X124.581 Y350.257 I-0.922 J-1.182 
G01 X124.18 Y350.54 
G03 X124.116 Y350.583 I-0.864 J-1.225 
G01 X123.701 Y350.845 
G03 X123.64 Y350.881 I-0.8 J-1.268 
G01 X123.213 Y351.123 
G03 X123.149 Y351.158 I-0.739 J-1.304 
G01 X122.711 Y351.379 
G03 X122.643 Y351.411 I-0.675 J-1.339 
G01 X122.194 Y351.61 
G03 X122.125 Y351.639 I-0.607 J-1.371 
G01 X121.667 Y351.815 
G03 X121.599 Y351.839 I-0.538 J-1.4 
G01 X121.133 Y351.993 
G03 X121.063 Y352.014 I-0.47 J-1.424 
G01 X120.59 Y352.145 
G03 X120.519 Y352.163 I-0.4 J-1.445 
G01 X120.04 Y352.271 
G03 X119.968 Y352.285 I-0.329 J-1.463 
G01 X119.485 Y352.369 
G03 X119.411 Y352.38 I-0.257 J-1.477 
G01 X118.923 Y352.44 
G03 X118.85 Y352.447 I-0.183 J-1.488 
G01 X118.361 Y352.483 
G03 X118.287 Y352.487 I-0.11 J-1.495 
G01 X117.796 Y352.499 
G03 X117.76 Y352.5 I-0.036 J-1.499 
G01 X75 Y352.5 
G03 X73.5 Y351 I0 J-1.5 
G01 X73.5 Y331 
G03 X75 Y329.5 I1.5 J0 
G01 X89.5 Y329.5 
X89.5 Y212.5 
X75 Y212.5 
G03 X73.5 Y211 I0 J-1.5 
G01 X73.5 Y191 
G03 X75 Y189.5 I1.5 J0 
G01 X89.5 Y189.5 
X89.5 Y72.5 
X75 Y72.5 
G03 X73.5 Y71 I0 J-1.5 
G01 X73.5 Y51 
G03 X75 Y49.5 I1.5 J0 
G01 X89.5 Y49.5 
X89.5 Y31 
G03 X91 Y29.5 I1.5 J0 
G01 X144.5 Y29.5 
X144.5 Y15 
G03 X146 Y13.5 I1.5 J0 
G01 X166 Y13.5 
G03 X167.5 Y15 I0 J1.5 
G01 X167.5 Y29.5 
X229 Y29.5 
G03 X230.426 Y31.463 I0 J1.5 
G01 X204.433 Y111.463 
G02 X205.384 Y111.772 I0.475 J0.154 
G01 Z-8.5 F100
G02 X204.433 Y111.463 I-0.475 J-0.154 F400
G01 X178.439 Y191.463 
G03 X178.414 Y191.534 I-1.426 J-0.463 
G01 X128.756 Y344.366 
G03 X128.754 Y344.373 I-1.426 J-0.463 
G01 X128.6 Y344.839 
G03 X128.575 Y344.909 I-1.424 J-0.47 
G01 X128.398 Y345.367 
G03 X128.37 Y345.434 I-1.399 J-0.54 
G01 X128.171 Y345.883 
G03 X128.139 Y345.951 I-1.371 J-0.607 
G01 X127.918 Y346.389 
G03 X127.885 Y346.451 I-1.339 J-0.675 
G01 X127.644 Y346.878 
G03 X127.604 Y346.943 I-1.306 J-0.737 
G01 X127.341 Y347.358 
G03 X127.3 Y347.42 I-1.266 J-0.802 
G01 X127.017 Y347.821 
G03 X126.974 Y347.879 I-1.225 J-0.864 
G01 X126.672 Y348.266 
G03 X126.627 Y348.322 I-1.182 J-0.922 
G01 X126.307 Y348.694 
G03 X126.254 Y348.751 I-1.137 J-0.978 
G01 X125.915 Y349.106 
G03 X125.866 Y349.155 I-1.084 J-1.035 
G01 X125.511 Y349.494 
G03 X125.454 Y349.547 I-1.035 J-1.084 
G01 X125.082 Y349.867 
G03 X125.026 Y349.912 I-0.978 J-1.137 
G01 X124.639 Y350.214 
G03 X124.581 Y350.257 I-0.922 J-1.182 
G01 X124.18 Y350.54 
G03 X124.116 Y350.583 I-0.864 J-1.225 
G01 X123.701 Y350.845 
G03 X123.64 Y350.881 I-0.8 J-1.268 
G01 X123.213 Y351.123 
G03 X123.149 Y351.158 I-0.739 J-1.304 
G01 X122.711 Y351.379 
G03 X122.643 Y351.411 I-0.675 J-1.339 
G01 X122.194 Y351.61 
G03 X122.125 Y351.639 I-0.607 J-1.371 
G01 X121.667 Y351.815 
G03 X121.599 Y351.839 I-0.538 J-1.4 
G01 X121.133 Y351.993 
G03 X121.063 Y352.014 I-0.47 J-1.424 
G01 X120.59 Y352.145 
G03 X120.519 Y352.163 I-0.4 J-1.445 
G01 X120.04 Y352.271 
G03 X119.968 Y352.285 I-0.329 J-1.463 
G01 X119.485 Y352.369 
G03 X119.411 Y352.38 I-0.257 J-1.477 
G01 X118.923 Y352.44 
G03 X118.85 Y352.447 I-0.183 J-1.488 
G01 X118.361 Y352.483 
G03 X118.287 Y352.487 I-0.11 J-1.495 
G01 X117.796 Y352.499 
G03 X117.76 Y352.5 I-0.036 J-1.499 
G01 X75 Y352.5 
G03 X73.5 Y351 I0 J-1.5 
G01 X73.5 Y331 
G03 X75 Y329.5 I1.5 J0 
G01 X89.5 Y329.5 
X89.5 Y212.5 
X75 Y212.5 
G03 X73.5 Y211 I0 J-1.5 
G01 X73.5 Y191 
G03 X75 Y189.5 I1.5 J0 
G01 X89.5 Y189.5 
X89.5 Y72.5 
X75 Y72.5 
G03 X73.5 Y71 I0 J-1.5 
G01 X73.5 Y51 
G03 X75 Y49.5 I1.5 J0 
G01 X89.5 Y49.5 
X89.5 Y31 
G03 X91 Y29.5 I1.5 J0 
G01 X144.5 Y29.5 
X144.5 Y15 
G03 X146 Y13.5 I1.5 J0 
G01 X166 Y13.5 
G03 X167.5 Y15 I0 J1.5 
G01 X167.5 Y29.5 
X229 Y29.5 
G03 X230.426 Y31.463 I0 J1.5 
G01 X204.433 Y111.463 
G02 X205.384 Y111.772 I0.475 J0.154 
G01 Z-11.333 F100
G02 X204.433 Y111.463 I-0.475 J-0.154 F400
G01 X178.439 Y191.463 
G03 X178.414 Y191.534 I-1.426 J-0.463 
G01 X128.756 Y344.366 
G03 X128.754 Y344.373 I-1.426 J-0.463 
G01 X128.6 Y344.839 
G03 X128.575 Y344.909 I-1.424 J-0.47 
G01 X128.398 Y345.367 
G03 X128.37 Y345.434 I-1.399 J-0.54 
G01 X128.171 Y345.883 
G03 X128.139 Y345.951 I-1.371 J-0.607 
G01 X127.918 Y346.389 
G03 X127.885 Y346.451 I-1.339 J-0.675 
G01 X127.644 Y346.878 
G03 X127.604 Y346.943 I-1.306 J-0.737 
G01 X127.341 Y347.358 
G03 X127.3 Y347.42 I-1.266 J-0.802 
G01 X127.017 Y347.821 
G03 X126.974 Y347.879 I-1.225 J-0.864 
G01 X126.672 Y348.266 
G03 X126.627 Y348.322 I-1.182 J-0.922 
G01 X126.307 Y348.694 
G03 X126.254 Y348.751 I-1.137 J-0.978 
G01 X125.915 Y349.106 
G03 X125.866 Y349.155 I-1.084 J-1.035 
G01 X125.511 Y349.494 
G03 X125.454 Y349.547 I-1.035 J-1.084 
G01 X125.082 Y349.867 
G03 X125.026 Y349.912 I-0.978 J-1.137 
G01 X124.639 Y350.214 
G03 X124.581 Y350.257 I-0.922 J-1.182 
G01 X124.18 Y350.54 
G03 X124.116 Y350.583 I-0.864 J-1.225 
G01 X123.701 Y350.845 
G03 X123.64 Y350.881 I-0.8 J-1.268 
G01 X123.213 Y351.123 
G03 X123.149 Y351.158 I-0.739 J-1.304 
G01 X122.711 Y351.379 
G03 X122.643 Y351.411 I-0.675 J-1.339 
G01 X122.194 Y351.61 
G03 X122.125 Y351.639 I-0.607 J-1.371 
G01 X121.667 Y351.815 
G03 X121.599 Y351.839 I-0.538 J-1.4 
G01 X121.133 Y351.993 
G03 X121.063 Y352.014 I-0.47 J-1.424 
G01 X120.59 Y352.145 
G03 X120.519 Y352.163 I-0.4 J-1.445 
G01 X120.04 Y352.271 
G03 X119.968 Y352.285 I-0.329 J-1.463 
G01 X119.485 Y352.369 
G03 X119.411 Y352.38 I-0.257 J-1.477 
G01 X118.923 Y352.44 
G03 X118.85 Y352.447 I-0.183 J-1.488 
G01 X118.361 Y352.483 
G03 X118.287 Y352.487 I-0.11 J-1.495 
G01 X117.796 Y352.499 
G03 X117.76 Y352.5 I-0.036 J-1.499 
G01 X75 Y352.5 
G03 X73.5 Y351 I0 J-1.5 
G01 X73.5 Y331 
G03 X75 Y329.5 I1.5 J0 
G01 X89.5 Y329.5 
X89.5 Y212.5 
X75 Y212.5 
G03 X73.5 Y211 I0 J-1.5 
G01 X73.5 Y191 
G03 X75 Y189.5 I1.5 J0 
G01 X89.5 Y189.5 
X89.5 Y72.5 
X75 Y72.5 
G03 X73.5 Y71 I0 J-1.5 
G01 X73.5 Y51 
G03 X75 Y49.5 I1.5 J0 
G01 X89.5 Y49.5 
X89.5 Y31 
G03 X91 Y29.5 I1.5 J0 
G01 X144.5 Y29.5 
X144.5 Y15 
G03 X146 Y13.5 I1.5 J0 
G01 X166 Y13.5 
G03 X167.5 Y15 I0 J1.5 
G01 X167.5 Y29.5 
X229 Y29.5 
G03 X230.426 Y31.463 I0 J1.5 
G01 X204.433 Y111.463 
G02 X205.384 Y111.772 I0.475 J0.154 
G01 Z-14.166 F100
G02 X204.433 Y111.463 I-0.475 J-0.154 F400
G01 X178.439 Y191.463 
G03 X178.414 Y191.534 I-1.426 J-0.463 
G01 X128.756 Y344.366 
G03 X128.754 Y344.373 I-1.426 J-0.463 
G01 X128.6 Y344.839 
G03 X128.575 Y344.909 I-1.424 J-0.47 
G01 X128.398 Y345.367 
G03 X128.37 Y345.434 I-1.399 J-0.54 
G01 X128.171 Y345.883 
G03 X128.139 Y345.951 I-1.371 J-0.607 
G01 X127.918 Y346.389 
G03 X127.885 Y346.451 I-1.339 J-0.675 
G01 X127.644 Y346.878 
G03 X127.604 Y346.943 I-1.306 J-0.737 
G01 X127.341 Y347.358 
G03 X127.3 Y347.42 I-1.266 J-0.802 
G01 X127.017 Y347.821 
G03 X126.974 Y347.879 I-1.225 J-0.864 
G01 X126.672 Y348.266 
G03 X126.627 Y348.322 I-1.182 J-0.922 
G01 X126.307 Y348.694 
G03 X126.254 Y348.751 I-1.137 J-0.978 
G01 X125.915 Y349.106 
G03 X125.866 Y349.155 I-1.084 J-1.035 
G01 X125.511 Y349.494 
G03 X125.454 Y349.547 I-1.035 J-1.084 
G01 X125.082 Y349.867 
G03 X125.026 Y349.912 I-0.978 J-1.137 
G01 X124.639 Y350.214 
G03 X124.581 Y350.257 I-0.922 J-1.182 
G01 X124.18 Y350.54 
G03 X124.116 Y350.583 I-0.864 J-1.225 
G01 X123.701 Y350.845 
G03 X123.64 Y350.881 I-0.8 J-1.268 
G01 X123.213 Y351.123 
G03 X123.149 Y351.158 I-0.739 J-1.304 
G01 X122.711 Y351.379 
G03 X122.643 Y351.411 I-0.675 J-1.339 
G01 X122.194 Y351.61 
G03 X122.125 Y351.639 I-0.607 J-1.371 
G01 X121.667 Y351.815 
G03 X121.599 Y351.839 I-0.538 J-1.4 
G01 X121.133 Y351.993 
G03 X121.063 Y352.014 I-0.47 J-1.424 
G01 X120.59 Y352.145 
G03 X120.519 Y352.163 I-0.4 J-1.445 
G01 X120.04 Y352.271 
G03 X119.968 Y352.285 I-0.329 J-1.463 
G01 X119.485 Y352.369 
G03 X119.411 Y352.38 I-0.257 J-1.477 
G01 X118.923 Y352.44 
G03 X118.85 Y352.447 I-0.183 J-1.488 
G01 X118.361 Y352.483 
G03 X118.287 Y352.487 I-0.11 J-1.495 
G01 X117.796 Y352.499 
G03 X117.76 Y352.5 I-0.036 J-1.499 
G01 X75 Y352.5 
G03 X73.5 Y351 I0 J-1.5 
G01 X73.5 Y331 
G03 X75 Y329.5 I1.5 J0 
G01 X89.5 Y329.5 
X89.5 Y212.5 
X75 Y212.5 
G03 X73.5 Y211 I0 J-1.5 
G01 X73.5 Y191 
G03 X75 Y189.5 I1.5 J0 
G01 X89.5 Y189.5 
X89.5 Y72.5 
X75 Y72.5 
G03 X73.5 Y71 I0 J-1.5 
G01 X73.5 Y51 
G03 X75 Y49.5 I1.5 J0 
G01 X89.5 Y49.5 
X89.5 Y31 
G03 X91 Y29.5 I1.5 J0 
G01 X144.5 Y29.5 
X144.5 Y15 
G03 X146 Y13.5 I1.5 J0 
G01 X166 Y13.5 
G03 X167.5 Y15 I0 J1.5 
G01 X167.5 Y29.5 
X229 Y29.5 
G03 X230.426 Y31.463 I0 J1.5 
G01 X204.433 Y111.463 
G02 X205.384 Y111.772 I0.475 J0.154 
G01 Z-17 F100
G02 X204.433 Y111.463 I-0.475 J-0.154 F400
G01 X178.439 Y191.463 
G03 X178.414 Y191.534 I-1.426 J-0.463 
G01 X128.756 Y344.366 
G03 X128.754 Y344.373 I-1.426 J-0.463 
G01 X128.6 Y344.839 
G03 X128.575 Y344.909 I-1.424 J-0.47 
G01 X128.398 Y345.367 
G03 X128.37 Y345.434 I-1.399 J-0.54 
G01 X128.171 Y345.883 
G03 X128.139 Y345.951 I-1.371 J-0.607 
G01 X127.918 Y346.389 
G03 X127.885 Y346.451 I-1.339 J-0.675 
G01 X127.644 Y346.878 
G03 X127.604 Y346.943 I-1.306 J-0.737 
G01 X127.341 Y347.358 
G03 X127.3 Y347.42 I-1.266 J-0.802 
G01 X127.017 Y347.821 
G03 X126.974 Y347.879 I-1.225 J-0.864 
G01 X126.672 Y348.266 
G03 X126.627 Y348.322 I-1.182 J-0.922 
G01 X126.307 Y348.694 
G03 X126.254 Y348.751 I-1.137 J-0.978 
G01 X125.915 Y349.106 
G03 X125.866 Y349.155 I-1.084 J-1.035 
G01 X125.511 Y349.494 
G03 X125.454 Y349.547 I-1.035 J-1.084 
G01 X125.082 Y349.867 
G03 X125.026 Y349.912 I-0.978 J-1.137 
G01 X124.639 Y350.214 
G03 X124.581 Y350.257 I-0.922 J-1.182 
G01 X124.18 Y350.54 
G03 X124.116 Y350.583 I-0.864 J-1.225 
G01 X123.701 Y350.845 
G03 X123.64 Y350.881 I-0.8 J-1.268 
G01 X123.213 Y351.123 
G03 X123.149 Y351.158 I-0.739 J-1.304 
G01 X122.711 Y351.379 
G03 X122.643 Y351.411 I-0.675 J-1.339 
G01 X122.194 Y351.61 
G03 X122.125 Y351.639 I-0.607 J-1.371 
G01 X121.667 Y351.815 
G03 X121.599 Y351.839 I-0.538 J-1.4 
G01 X121.133 Y351.993 
G03 X121.063 Y352.014 I-0.47 J-1.424 
G01 X120.59 Y352.145 
G03 X120.519 Y352.163 I-0.4 J-1.445 
G01 X120.04 Y352.271 
G03 X119.968 Y352.285 I-0.329 J-1.463 
G01 X119.485 Y352.369 
G03 X119.411 Y352.38 I-0.257 J-1.477 
G01 X118.923 Y352.44 
G03 X118.85 Y352.447 I-0.183 J-1.488 
G01 X118.361 Y352.483 
G03 X118.287 Y352.487 I-0.11 J-1.495 
G01 X117.796 Y352.499 
G03 X117.76 Y352.5 I-0.036 J-1.499 
G01 X75 Y352.5 
G03 X73.5 Y351 I0 J-1.5 
G01 X73.5 Y331 
G03 X75 Y329.5 I1.5 J0 
G01 X89.5 Y329.5 
X89.5 Y212.5 
X75 Y212.5 
G03 X73.5 Y211 I0 J-1.5 
G01 X73.5 Y191 
G03 X75 Y189.5 I1.5 J0 
G01 X89.5 Y189.5 
X89.5 Y72.5 
X75 Y72.5 
G03 X73.5 Y71 I0 J-1.5 
G01 X73.5 Y51 
G03 X75 Y49.5 I1.5 J0 
G01 X89.5 Y49.5 
X89.5 Y31 
G03 X91 Y29.5 I1.5 J0 
G01 X144.5 Y29.5 
X144.5 Y15 
G03 X146 Y13.5 I1.5 J0 
G01 X166 Y13.5 
G03 X167.5 Y15 I0 J1.5 
G01 X167.5 Y29.5 
X229 Y29.5 
G03 X230.426 Y31.463 I0 J1.5 
G01 X204.433 Y111.463 
G02 X205.384 Y111.772 I0.475 J0.154 
G00 Z5
G90
(Sketch 19)
X184.615 Y254.227 S7000 M03
Z2
G01 Z-2.833 F100
G02 X185.566 Y254.536 I0.475 J0.154 F400
G01 X211.56 Y174.536 
G03 X211.585 Y174.465 I1.426 J0.463 
G01 X261.243 Y21.633 
G03 X261.245 Y21.626 I1.426 J0.463 
G01 X261.399 Y21.16 
G03 X261.424 Y21.09 I1.424 J0.47 
G01 X261.601 Y20.632 
G03 X261.629 Y20.565 I1.399 J0.54 
G01 X261.828 Y20.116 
G03 X261.86 Y20.048 I1.371 J0.607 
G01 X262.081 Y19.61 
G03 X262.114 Y19.548 I1.339 J0.675 
G01 X262.355 Y19.121 
G03 X262.395 Y19.056 I1.306 J0.737 
G01 X262.658 Y18.641 
G03 X262.699 Y18.579 I1.266 J0.802 
G01 X262.982 Y18.178 
G03 X263.025 Y18.12 I1.225 J0.864 
G01 X263.327 Y17.733 
G03 X263.372 Y17.677 I1.182 J0.922 
G01 X263.692 Y17.305 
G03 X263.745 Y17.248 I1.137 J0.978 
G01 X264.084 Y16.893 
G03 X264.133 Y16.844 I1.084 J1.035 
G01 X264.488 Y16.505 
G03 X264.545 Y16.452 I1.035 J1.084 
G01 X264.917 Y16.132 
G03 X264.973 Y16.087 I0.978 J1.137 
G01 X265.36 Y15.785 
G03 X265.418 Y15.742 I0.922 J1.182 
G01 X265.819 Y15.459 
G03 X265.883 Y15.416 I0.864 J1.225 
G01 X266.298 Y15.154 
G03 X266.359 Y15.118 I0.8 J1.268 
G01 X266.786 Y14.876 
G03 X266.85 Y14.841 I0.739 J1.304 
G01 X267.288 Y14.62 
G03 X267.356 Y14.588 I0.675 J1.339 
G01 X267.805 Y14.389 
G03 X267.874 Y14.36 I0.607 J1.371 
G01 X268.332 Y14.184 
G03 X268.4 Y14.16 I0.538 J1.4 
G01 X268.866 Y14.006 
G03 X268.936 Y13.985 I0.47 J1.424 
G01 X269.409 Y13.854 
G03 X269.48 Y13.836 I0.4 J1.445 
G01 X269.959 Y13.728 
G03 X270.031 Y13.714 I0.329 J1.463 
G01 X270.514 Y13.63 
G03 X270.588 Y13.619 I0.257 J1.477 
G01 X271.076 Y13.559 
G03 X271.149 Y13.552 I0.183 J1.488 
G01 X271.638 Y13.516 
G03 X271.712 Y13.512 I0.11 J1.495 
G01 X272.203 Y13.5 
G03 X272.24 Y13.5 I0.036 J1.499 
G01 X315 Y13.5 
G03 X316.5 Y15 I0 J1.5 
G01 X316.5 Y35 
G03 X315 Y36.5 I-1.5 J0 
G01 X300.5 Y36.5 
X300.5 Y153.5 
X315 Y153.5 
G03 X316.5 Y155 I0 J1.5 
G01 X316.5 Y175 
G03 X315 Y176.5 I-1.5 J0 
G01 X300.5 Y176.5 
X300.5 Y293.5 
X315 Y293.5 
G03 X316.5 Y295 I0 J1.5 
G01 X316.5 Y315 
G03 X315 Y316.5 I-1.5 J0 
G01 X300.5 Y316.5 
X300.5 Y335 
G03 X299 Y336.5 I-1.5 J0 
G01 X245.5 Y336.5 
X245.5 Y351 
G03 X244 Y352.5 I-1.5 J0 
G01 X224 Y352.5 
G03 X222.5 Y351 I0 J-1.5 
G01 X222.5 Y336.5 
X161 Y336.5 
G03 X159.573 Y334.536 I0 J-1.5 
G01 X185.566 Y254.536 
G02 X184.615 Y254.227 I-0.475 J-0.154 
G01 Z-5.666 F100
G02 X185.566 Y254.536 I0.475 J0.154 F400
G01 X211.56 Y174.536 
G03 X211.585 Y174.465 I1.426 J0.463 
G01 X261.243 Y21.633 
G03 X261.245 Y21.626 I1.426 J0.463 
G01 X261.399 Y21.16 
G03 X261.424 Y21.09 I1.424 J0.47 
G01 X261.601 Y20.632 
G03 X261.629 Y20.565 I1.399 J0.54 
G01 X261.828 Y20.116 
G03 X261.86 Y20.048 I1.371 J0.607 
G01 X262.081 Y19.61 
G03 X262.114 Y19.548 I1.339 J0.675 
G01 X262.355 Y19.121 
G03 X262.395 Y19.056 I1.306 J0.737 
G01 X262.658 Y18.641 
G03 X262.699 Y18.579 I1.266 J0.802 
G01 X262.982 Y18.178 
G03 X263.025 Y18.12 I1.225 J0.864 
G01 X263.327 Y17.733 
G03 X263.372 Y17.677 I1.182 J0.922 
G01 X263.692 Y17.305 
G03 X263.745 Y17.248 I1.137 J0.978 
G01 X264.084 Y16.893 
G03 X264.133 Y16.844 I1.084 J1.035 
G01 X264.488 Y16.505 
G03 X264.545 Y16.452 I1.035 J1.084 
G01 X264.917 Y16.132 
G03 X264.973 Y16.087 I0.978 J1.137 
G01 X265.36 Y15.785 
G03 X265.418 Y15.742 I0.922 J1.182 
G01 X265.819 Y15.459 
G03 X265.883 Y15.416 I0.864 J1.225 
G01 X266.298 Y15.154 
G03 X266.359 Y15.118 I0.8 J1.268 
G01 X266.786 Y14.876 
G03 X266.85 Y14.841 I0.739 J1.304 
G01 X267.288 Y14.62 
G03 X267.356 Y14.588 I0.675 J1.339 
G01 X267.805 Y14.389 
G03 X267.874 Y14.36 I0.607 J1.371 
G01 X268.332 Y14.184 
G03 X268.4 Y14.16 I0.538 J1.4 
G01 X268.866 Y14.006 
G03 X268.936 Y13.985 I0.47 J1.424 
G01 X269.409 Y13.854 
G03 X269.48 Y13.836 I0.4 J1.445 
G01 X269.959 Y13.728 
G03 X270.031 Y13.714 I0.329 J1.463 
G01 X270.514 Y13.63 
G03 X270.588 Y13.619 I0.257 J1.477 
G01 X271.076 Y13.559 
G03 X271.149 Y13.552 I0.183 J1.488 
G01 X271.638 Y13.516 
G03 X271.712 Y13.512 I0.11 J1.495 
G01 X272.203 Y13.5 
G03 X272.24 Y13.5 I0.036 J1.499 
G01 X315 Y13.5 
G03 X316.5 Y15 I0 J1.5 
G01 X316.5 Y35 
G03 X315 Y36.5 I-1.5 J0 
G01 X300.5 Y36.5 
X300.5 Y153.5 
X315 Y153.5 
G03 X316.5 Y155 I0 J1.5 
G01 X316.5 Y175 
G03 X315 Y176.5 I-1.5 J0 
G01 X300.5 Y176.5 
X300.5 Y293.5 
X315 Y293.5 
G03 X316.5 Y295 I0 J1.5 
G01 X316.5 Y315 
G03 X315 Y316.5 I-1.5 J0 
G01 X300.5 Y316.5 
X300.5 Y335 
G03 X299 Y336.5 I-1.5 J0 
G01 X245.5 Y336.5 
X245.5 Y351 
G03 X244 Y352.5 I-1.5 J0 
G01 X224 Y352.5 
G03 X222.5 Y351 I0 J-1.5 
G01 X222.5 Y336.5 
X161 Y336.5 
G03 X159.573 Y334.536 I0 J-1.5 
G01 X185.566 Y254.536 
G02 X184.615 Y254.227 I-0.475 J-0.154 
G01 Z-8.5 F100
G02 X185.566 Y254.536 I0.475 J0.154 F400
G01 X211.56 Y174.536 
G03 X211.585 Y174.465 I1.426 J0.463 
G01 X261.243 Y21.633 
G03 X261.245 Y21.626 I1.426 J0.463 
G01 X261.399 Y21.16 
G03 X261.424 Y21.09 I1.424 J0.47 
G01 X261.601 Y20.632 
G03 X261.629 Y20.565 I1.399 J0.54 
G01 X261.828 Y20.116 
G03 X261.86 Y20.048 I1.371 J0.607 
G01 X262.081 Y19.61 
G03 X262.114 Y19.548 I1.339 J0.675 
G01 X262.355 Y19.121 
G03 X262.395 Y19.056 I1.306 J0.737 
G01 X262.658 Y18.641 
G03 X262.699 Y18.579 I1.266 J0.802 
G01 X262.982 Y18.178 
G03 X263.025 Y18.12 I1.225 J0.864 
G01 X263.327 Y17.733 
G03 X263.372 Y17.677 I1.182 J0.922 
G01 X263.692 Y17.305 
G03 X263.745 Y17.248 I1.137 J0.978 
G01 X264.084 Y16.893 
G03 X264.133 Y16.844 I1.084 J1.035 
G01 X264.488 Y16.505 
G03 X264.545 Y16.452 I1.035 J1.084 
G01 X264.917 Y16.132 
G03 X264.973 Y16.087 I0.978 J1.137 
G01 X265.36 Y15.785 
G03 X265.418 Y15.742 I0.922 J1.182 
G01 X265.819 Y15.459 
G03 X265.883 Y15.416 I0.864 J1.225 
G01 X266.298 Y15.154 
G03 X266.359 Y15.118 I0.8 J1.268 
G01 X266.786 Y14.876 
G03 X266.85 Y14.841 I0.739 J1.304 
G01 X267.288 Y14.62 
G03 X267.356 Y14.588 I0.675 J1.339 
G01 X267.805 Y14.389 
G03 X267.874 Y14.36 I0.607 J1.371 
G01 X268.332 Y14.184 
G03 X268.4 Y14.16 I0.538 J1.4 
G01 X268.866 Y14.006 
G03 X268.936 Y13.985 I0.47 J1.424 
G01 X269.409 Y13.854 
G03 X269.48 Y13.836 I0.4 J1.445 
G01 X269.959 Y13.728 
G03 X270.031 Y13.714 I0.329 J1.463 
G01 X270.514 Y13.63 
G03 X270.588 Y13.619 I0.257 J1.477 
G01 X271.076 Y13.559 
G03 X271.149 Y13.552 I0.183 J1.488 
G01 X271.638 Y13.516 
G03 X271.712 Y13.512 I0.11 J1.495 
G01 X272.203 Y13.5 
G03 X272.24 Y13.5 I0.036 J1.499 
G01 X315 Y13.5 
G03 X316.5 Y15 I0 J1.5 
G01 X316.5 Y35 
G03 X315 Y36.5 I-1.5 J0 
G01 X300.5 Y36.5 
X300.5 Y153.5 
X315 Y153.5 
G03 X316.5 Y155 I0 J1.5 
G01 X316.5 Y175 
G03 X315 Y176.5 I-1.5 J0 
G01 X300.5 Y176.5 
X300.5 Y293.5 
X315 Y293.5 
G03 X316.5 Y295 I0 J1.5 
G01 X316.5 Y315 
G03 X315 Y316.5 I-1.5 J0 
G01 X300.5 Y316.5 
X300.5 Y335 
G03 X299 Y336.5 I-1.5 J0 
G01 X245.5 Y336.5 
X245.5 Y351 
G03 X244 Y352.5 I-1.5 J0 
G01 X224 Y352.5 
G03 X222.5 Y351 I0 J-1.5 
G01 X222.5 Y336.5 
X161 Y336.5 
G03 X159.573 Y334.536 I0 J-1.5 
G01 X185.566 Y254.536 
G02 X184.615 Y254.227 I-0.475 J-0.154 
G01 Z-11.333 F100
G02 X185.566 Y254.536 I0.475 J0.154 F400
G01 X211.56 Y174.536 
G03 X211.585 Y174.465 I1.426 J0.463 
G01 X261.243 Y21.633 
G03 X261.245 Y21.626 I1.426 J0.463 
G01 X261.399 Y21.16 
G03 X261.424 Y21.09 I1.424 J0.47 
G01 X261.601 Y20.632 
G03 X261.629 Y20.565 I1.399 J0.54 
G01 X261.828 Y20.116 
G03 X261.86 Y20.048 I1.371 J0.607 
G01 X262.081 Y19.61 
G03 X262.114 Y19.548 I1.339 J0.675 
G01 X262.355 Y19.121 
G03 X262.395 Y19.056 I1.306 J0.737 
G01 X262.658 Y18.641 
G03 X262.699 Y18.579 I1.266 J0.802 
G01 X262.982 Y18.178 
G03 X263.025 Y18.12 I1.225 J0.864 
G01 X263.327 Y17.733 
G03 X263.372 Y17.677 I1.182 J0.922 
G01 X263.692 Y17.305 
G03 X263.745 Y17.248 I1.137 J0.978 
G01 X264.084 Y16.893 
G03 X264.133 Y16.844 I1.084 J1.035 
G01 X264.488 Y16.505 
G03 X264.545 Y16.452 I1.035 J1.084 
G01 X264.917 Y16.132 
G03 X264.973 Y16.087 I0.978 J1.137 
G01 X265.36 Y15.785 
G03 X265.418 Y15.742 I0.922 J1.182 
G01 X265.819 Y15.459 
G03 X265.883 Y15.416 I0.864 J1.225 
G01 X266.298 Y15.154 
G03 X266.359 Y15.118 I0.8 J1.268 
G01 X266.786 Y14.876 
G03 X266.85 Y14.841 I0.739 J1.304 
G01 X267.288 Y14.62 
G03 X267.356 Y14.588 I0.675 J1.339 
G01 X267.805 Y14.389 
G03 X267.874 Y14.36 I0.607 J1.371 
G01 X268.332 Y14.184 
G03 X268.4 Y14.16 I0.538 J1.4 
G01 X268.866 Y14.006 
G03 X268.936 Y13.985 I0.47 J1.424 
G01 X269.409 Y13.854 
G03 X269.48 Y13.836 I0.4 J1.445 
G01 X269.959 Y13.728 
G03 X270.031 Y13.714 I0.329 J1.463 
G01 X270.514 Y13.63 
G03 X270.588 Y13.619 I0.257 J1.477 
G01 X271.076 Y13.559 
G03 X271.149 Y13.552 I0.183 J1.488 
G01 X271.638 Y13.516 
G03 X271.712 Y13.512 I0.11 J1.495 
G01 X272.203 Y13.5 
G03 X272.24 Y13.5 I0.036 J1.499 
G01 X315 Y13.5 
G03 X316.5 Y15 I0 J1.5 
G01 X316.5 Y35 
G03 X315 Y36.5 I-1.5 J0 
G01 X300.5 Y36.5 
X300.5 Y153.5 
X315 Y153.5 
G03 X316.5 Y155 I0 J1.5 
G01 X316.5 Y175 
G03 X315 Y176.5 I-1.5 J0 
G01 X300.5 Y176.5 
X300.5 Y293.5 
X315 Y293.5 
G03 X316.5 Y295 I0 J1.5 
G01 X316.5 Y315 
G03 X315 Y316.5 I-1.5 J0 
G01 X300.5 Y316.5 
X300.5 Y335 
G03 X299 Y336.5 I-1.5 J0 
G01 X245.5 Y336.5 
X245.5 Y351 
G03 X244 Y352.5 I-1.5 J0 
G01 X224 Y352.5 
G03 X222.5 Y351 I0 J-1.5 
G01 X222.5 Y336.5 
X161 Y336.5 
G03 X159.573 Y334.536 I0 J-1.5 
G01 X185.566 Y254.536 
G02 X184.615 Y254.227 I-0.475 J-0.154 
G01 Z-14.166 F100
G02 X185.566 Y254.536 I0.475 J0.154 F400
G01 X211.56 Y174.536 
G03 X211.585 Y174.465 I1.426 J0.463 
G01 X261.243 Y21.633 
G03 X261.245 Y21.626 I1.426 J0.463 
G01 X261.399 Y21.16 
G03 X261.424 Y21.09 I1.424 J0.47 
G01 X261.601 Y20.632 
G03 X261.629 Y20.565 I1.399 J0.54 
G01 X261.828 Y20.116 
G03 X261.86 Y20.048 I1.371 J0.607 
G01 X262.081 Y19.61 
G03 X262.114 Y19.548 I1.339 J0.675 
G01 X262.355 Y19.121 
G03 X262.395 Y19.056 I1.306 J0.737 
G01 X262.658 Y18.641 
G03 X262.699 Y18.579 I1.266 J0.802 
G01 X262.982 Y18.178 
G03 X263.025 Y18.12 I1.225 J0.864 
G01 X263.327 Y17.733 
G03 X263.372 Y17.677 I1.182 J0.922 
G01 X263.692 Y17.305 
G03 X263.745 Y17.248 I1.137 J0.978 
G01 X264.084 Y16.893 
G03 X264.133 Y16.844 I1.084 J1.035 
G01 X264.488 Y16.505 
G03 X264.545 Y16.452 I1.035 J1.084 
G01 X264.917 Y16.132 
G03 X264.973 Y16.087 I0.978 J1.137 
G01 X265.36 Y15.785 
G03 X265.418 Y15.742 I0.922 J1.182 
G01 X265.819 Y15.459 
G03 X265.883 Y15.416 I0.864 J1.225 
G01 X266.298 Y15.154 
G03 X266.359 Y15.118 I0.8 J1.268 
G01 X266.786 Y14.876 
G03 X266.85 Y14.841 I0.739 J1.304 
G01 X267.288 Y14.62 
G03 X267.356 Y14.588 I0.675 J1.339 
G01 X267.805 Y14.389 
G03 X267.874 Y14.36 I0.607 J1.371 
G01 X268.332 Y14.184 
G03 X268.4 Y14.16 I0.538 J1.4 
G01 X268.866 Y14.006 
G03 X268.936 Y13.985 I0.47 J1.424 
G01 X269.409 Y13.854 
G03 X269.48 Y13.836 I0.4 J1.445 
G01 X269.959 Y13.728 
G03 X270.031 Y13.714 I0.329 J1.463 
G01 X270.514 Y13.63 
G03 X270.588 Y13.619 I0.257 J1.477 
G01 X271.076 Y13.559 
G03 X271.149 Y13.552 I0.183 J1.488 
G01 X271.638 Y13.516 
G03 X271.712 Y13.512 I0.11 J1.495 
G01 X272.203 Y13.5 
G03 X272.24 Y13.5 I0.036 J1.499 
G01 X315 Y13.5 
G03 X316.5 Y15 I0 J1.5 
G01 X316.5 Y35 
G03 X315 Y36.5 I-1.5 J0 
G01 X300.5 Y36.5 
X300.5 Y153.5 
X315 Y153.5 
G03 X316.5 Y155 I0 J1.5 
G01 X316.5 Y175 
G03 X315 Y176.5 I-1.5 J0 
G01 X300.5 Y176.5 
X300.5 Y293.5 
X315 Y293.5 
G03 X316.5 Y295 I0 J1.5 
G01 X316.5 Y315 
G03 X315 Y316.5 I-1.5 J0 
G01 X300.5 Y316.5 
X300.5 Y335 
G03 X299 Y336.5 I-1.5 J0 
G01 X245.5 Y336.5 
X245.5 Y351 
G03 X244 Y352.5 I-1.5 J0 
G01 X224 Y352.5 
