(Created with emc2b post processor 2016/07/25 16:34)
(tool change to 3 mm Slot Cutter)
T1 M06 G43
G17 G90 G21
G00 X45 Y65 S7000 M03
Z5
G83 Q6 G98 X45 Y65 Z-18 R2 F100
X65 Y65 
X190 Y65 
X210 Y65 
X335 Y65 
X355 Y65 
G80
(foot_outter_cut)
G00 X200 Y21.5 S7000 M03
Z2
G01 Z-3 
G02 X200 Y23.5 I0 J1 F150
G01 X344.757 Y23.5 
G03 X345 Y23.48 I0.242 J1.48 
G01 X345.533 Y23.48 
X346.592 Y23.346 
X347.625 Y23.081 
X348.618 Y22.688 
X349.552 Y22.174 
X350.416 Y21.546 
X351.194 Y20.816 
X351.873 Y19.994 
X352.446 Y19.093 
X352.9 Y18.127 
X353.23 Y17.113 
X353.429 Y16.065 
X353.581 Y13.652 
G03 X353.605 Y13.465 I1.497 J0.094 
G01 X353.84 Y12.232 
G03 X353.887 Y12.049 I1.473 J0.28 
G01 X354.275 Y10.855 
G03 X354.344 Y10.679 I1.426 J0.463 
G01 X354.879 Y9.543 
G03 X354.97 Y9.378 I1.357 J0.638 
G01 X355.643 Y8.318 
G03 X355.753 Y8.166 I1.266 J0.803 
G01 X356.553 Y7.198 
G03 X356.683 Y7.06 I1.156 J0.955 
G01 X357.599 Y6.201 
G03 X357.744 Y6.081 I1.026 J1.093 
G01 X358.76 Y5.343 
G03 X358.919 Y5.242 I0.881 J1.213 
G01 X360.019 Y4.637 
G03 X360.189 Y4.556 I0.722 J1.314 
G01 X361.357 Y4.094 
G03 X361.536 Y4.036 I0.552 J1.394 
G01 X362.752 Y3.724 
G03 X362.938 Y3.688 I0.373 J1.452 
G01 X364.184 Y3.531 
G03 X364.372 Y3.519 I0.187 J1.488 
G01 X364.757 Y3.519 
G03 X365 Y3.5 I0.242 J1.48 
G01 X385 Y3.5 
G03 X385.094 Y3.502 I0 J1.5 
G01 X386.347 Y3.581 
G03 X386.533 Y3.605 I-0.094 J1.497 
G01 X387.767 Y3.84 
G03 X387.95 Y3.887 I-0.28 J1.473 
G01 X389.144 Y4.275 
G03 X389.319 Y4.344 I-0.463 J1.426 
G01 X390.456 Y4.879 
G03 X390.621 Y4.97 I-0.638 J1.357 
G01 X391.681 Y5.643 
G03 X391.834 Y5.754 I-0.803 J1.266 
G01 X392.801 Y6.554 
G03 X392.938 Y6.683 I-0.956 J1.155 
G01 X393.798 Y7.598 
G03 X393.918 Y7.744 I-1.093 J1.027 
G01 X394.656 Y8.76 
G03 X394.757 Y8.919 I-1.213 J0.881 
G01 X395.362 Y10.019 
G03 X395.442 Y10.189 I-1.314 J0.722 
G01 X395.905 Y11.356 
G03 X395.963 Y11.537 I-1.394 J0.552 
G01 X396.275 Y12.753 
G03 X396.311 Y12.938 I-1.452 J0.372 
G01 X396.468 Y14.184 
G03 X396.48 Y14.372 I-1.488 J0.187 
G01 X396.48 Y14.755 
G03 X396.5 Y15 I-1.48 J0.244 
G01 X396.5 Y65 
G03 X395 Y66.5 I-1.5 J0 
G01 X356.5 Y66.5 
X356.5 Y81 
G03 X355 Y82.5 I-1.5 J0 
G01 X335 Y82.5 
G03 X333.5 Y81 I0 J-1.5 
G01 X333.5 Y66.5 
X211.5 Y66.5 
X211.5 Y81 
G03 X210 Y82.5 I-1.5 J0 
G01 X190 Y82.5 
G03 X188.5 Y81 I0 J-1.5 
G01 X188.5 Y66.5 
X66.5 Y66.5 
X66.5 Y81 
G03 X65 Y82.5 I-1.5 J0 
G01 X45 Y82.5 
G03 X43.5 Y81 I0 J-1.5 
G01 X43.5 Y66.5 
X5 Y66.5 
G03 X3.5 Y65 I0 J-1.5 
G01 X3.5 Y15 
G03 X3.502 Y14.905 I1.5 J0 
G01 X3.581 Y13.652 
G03 X3.605 Y13.465 I1.497 J0.094 
G01 X3.84 Y12.232 
G03 X3.887 Y12.049 I1.473 J0.281 
G01 X4.275 Y10.855 
G03 X4.344 Y10.68 I1.426 J0.463 
G01 X4.879 Y9.543 
G03 X4.97 Y9.378 I1.357 J0.638 
G01 X5.643 Y8.318 
G03 X5.754 Y8.166 I1.266 J0.803 
G01 X6.554 Y7.198 
G03 X6.683 Y7.061 I1.155 J0.956 
G01 X7.598 Y6.201 
G03 X7.744 Y6.081 I1.026 J1.093 
G01 X8.76 Y5.343 
G03 X8.919 Y5.242 I0.881 J1.213 
G01 X10.019 Y4.637 
G03 X10.19 Y4.557 I0.722 J1.314 
G01 X11.357 Y4.094 
G03 X11.536 Y4.036 I0.552 J1.394 
G01 X12.753 Y3.724 
G03 X12.938 Y3.688 I0.373 J1.452 
G01 X14.184 Y3.531 
G03 X14.372 Y3.519 I0.187 J1.488 
G01 X14.757 Y3.519 
G03 X15 Y3.5 I0.242 J1.48 
G01 X35 Y3.5 
G03 X35.242 Y3.519 I0 J1.5 
G01 X35.627 Y3.519 
G03 X35.815 Y3.531 I0 J1.5 
G01 X37.061 Y3.688 
G03 X37.246 Y3.724 I-0.187 J1.488 
G01 X38.463 Y4.036 
G03 X38.642 Y4.094 I-0.373 J1.452 
G01 X39.809 Y4.557 
G03 X39.98 Y4.637 I-0.552 J1.394 
G01 X41.08 Y5.242 
G03 X41.239 Y5.343 I-0.722 J1.314 
G01 X42.255 Y6.081 
G03 X42.401 Y6.201 I-0.881 J1.213 
G01 X43.316 Y7.061 
G03 X43.445 Y7.198 I-1.026 J1.093 
G01 X44.245 Y8.166 
G03 X44.356 Y8.318 I-1.155 J0.956 
G01 X45.029 Y9.378 
G03 X45.12 Y9.543 I-1.266 J0.803 
G01 X45.655 Y10.68 
G03 X45.724 Y10.855 I-1.357 J0.638 
G01 X46.112 Y12.049 
G03 X46.159 Y12.231 I-1.426 J0.463 
G01 X46.394 Y13.465 
G03 X46.418 Y13.652 I-1.473 J0.281 
G01 X46.481 Y14.665 
G03 X46.519 Y15 I-1.462 J0.334 
G01 X46.519 Y15.533 
X46.653 Y16.592 
X46.918 Y17.625 
X47.311 Y18.617 
X47.825 Y19.552 
X48.452 Y20.416 
X49.183 Y21.194 
X50.005 Y21.874 
X50.906 Y22.446 
X51.871 Y22.9 
X52.886 Y23.23 
X53.935 Y23.43 
X55.047 Y23.5 
X200 Y23.5 
G02 X200 Y21.5 I0 J-1 
G01 Z-6 F100
G02 X200 Y23.5 I0 J1 F150
G01 X344.757 Y23.5 
G03 X345 Y23.48 I0.242 J1.48 
G01 X345.533 Y23.48 
X346.592 Y23.346 
X347.625 Y23.081 
X348.618 Y22.688 
X349.552 Y22.174 
X350.416 Y21.546 
X351.194 Y20.816 
X351.873 Y19.994 
X352.446 Y19.093 
X352.9 Y18.127 
X353.23 Y17.113 
X353.429 Y16.065 
X353.581 Y13.652 
G03 X353.605 Y13.465 I1.497 J0.094 
G01 X353.84 Y12.232 
G03 X353.887 Y12.049 I1.473 J0.28 
G01 X354.275 Y10.855 
G03 X354.344 Y10.679 I1.426 J0.463 
G01 X354.879 Y9.543 
G03 X354.97 Y9.378 I1.357 J0.638 
G01 X355.643 Y8.318 
G03 X355.753 Y8.166 I1.266 J0.803 
G01 X356.553 Y7.198 
G03 X356.683 Y7.06 I1.156 J0.955 
G01 X357.599 Y6.201 
G03 X357.744 Y6.081 I1.026 J1.093 
G01 X358.76 Y5.343 
G03 X358.919 Y5.242 I0.881 J1.213 
G01 X360.019 Y4.637 
G03 X360.189 Y4.556 I0.722 J1.314 
G01 X361.357 Y4.094 
G03 X361.536 Y4.036 I0.552 J1.394 
G01 X362.752 Y3.724 
G03 X362.938 Y3.688 I0.373 J1.452 
G01 X364.184 Y3.531 
G03 X364.372 Y3.519 I0.187 J1.488 
G01 X364.757 Y3.519 
G03 X365 Y3.5 I0.242 J1.48 
G01 X385 Y3.5 
G03 X385.094 Y3.502 I0 J1.5 
G01 X386.347 Y3.581 
G03 X386.533 Y3.605 I-0.094 J1.497 
G01 X387.767 Y3.84 
G03 X387.95 Y3.887 I-0.28 J1.473 
G01 X389.144 Y4.275 
G03 X389.319 Y4.344 I-0.463 J1.426 
G01 X390.456 Y4.879 
G03 X390.621 Y4.97 I-0.638 J1.357 
G01 X391.681 Y5.643 
G03 X391.834 Y5.754 I-0.803 J1.266 
G01 X392.801 Y6.554 
G03 X392.938 Y6.683 I-0.956 J1.155 
G01 X393.798 Y7.598 
G03 X393.918 Y7.744 I-1.093 J1.027 
G01 X394.656 Y8.76 
G03 X394.757 Y8.919 I-1.213 J0.881 
G01 X395.362 Y10.019 
G03 X395.442 Y10.189 I-1.314 J0.722 
G01 X395.905 Y11.356 
G03 X395.963 Y11.537 I-1.394 J0.552 
G01 X396.275 Y12.753 
G03 X396.311 Y12.938 I-1.452 J0.372 
G01 X396.468 Y14.184 
G03 X396.48 Y14.372 I-1.488 J0.187 
G01 X396.48 Y14.755 
G03 X396.5 Y15 I-1.48 J0.244 
G01 X396.5 Y65 
G03 X395 Y66.5 I-1.5 J0 
G01 X356.5 Y66.5 
X356.5 Y81 
G03 X355 Y82.5 I-1.5 J0 
G01 X335 Y82.5 
G03 X333.5 Y81 I0 J-1.5 
G01 X333.5 Y66.5 
X211.5 Y66.5 
X211.5 Y81 
G03 X210 Y82.5 I-1.5 J0 
G01 X190 Y82.5 
G03 X188.5 Y81 I0 J-1.5 
G01 X188.5 Y66.5 
X66.5 Y66.5 
X66.5 Y81 
G03 X65 Y82.5 I-1.5 J0 
G01 X45 Y82.5 
G03 X43.5 Y81 I0 J-1.5 
G01 X43.5 Y66.5 
X5 Y66.5 
G03 X3.5 Y65 I0 J-1.5 
G01 X3.5 Y15 
G03 X3.502 Y14.905 I1.5 J0 
G01 X3.581 Y13.652 
G03 X3.605 Y13.465 I1.497 J0.094 
G01 X3.84 Y12.232 
G03 X3.887 Y12.049 I1.473 J0.281 
G01 X4.275 Y10.855 
G03 X4.344 Y10.68 I1.426 J0.463 
G01 X4.879 Y9.543 
G03 X4.97 Y9.378 I1.357 J0.638 
G01 X5.643 Y8.318 
G03 X5.754 Y8.166 I1.266 J0.803 
G01 X6.554 Y7.198 
G03 X6.683 Y7.061 I1.155 J0.956 
G01 X7.598 Y6.201 
G03 X7.744 Y6.081 I1.026 J1.093 
G01 X8.76 Y5.343 
G03 X8.919 Y5.242 I0.881 J1.213 
G01 X10.019 Y4.637 
G03 X10.19 Y4.557 I0.722 J1.314 
G01 X11.357 Y4.094 
G03 X11.536 Y4.036 I0.552 J1.394 
G01 X12.753 Y3.724 
G03 X12.938 Y3.688 I0.373 J1.452 
G01 X14.184 Y3.531 
G03 X14.372 Y3.519 I0.187 J1.488 
G01 X14.757 Y3.519 
G03 X15 Y3.5 I0.242 J1.48 
G01 X35 Y3.5 
G03 X35.242 Y3.519 I0 J1.5 
G01 X35.627 Y3.519 
G03 X35.815 Y3.531 I0 J1.5 
G01 X37.061 Y3.688 
G03 X37.246 Y3.724 I-0.187 J1.488 
G01 X38.463 Y4.036 
G03 X38.642 Y4.094 I-0.373 J1.452 
G01 X39.809 Y4.557 
G03 X39.98 Y4.637 I-0.552 J1.394 
G01 X41.08 Y5.242 
G03 X41.239 Y5.343 I-0.722 J1.314 
G01 X42.255 Y6.081 
G03 X42.401 Y6.201 I-0.881 J1.213 
G01 X43.316 Y7.061 
G03 X43.445 Y7.198 I-1.026 J1.093 
G01 X44.245 Y8.166 
G03 X44.356 Y8.318 I-1.155 J0.956 
G01 X45.029 Y9.378 
G03 X45.12 Y9.543 I-1.266 J0.803 
G01 X45.655 Y10.68 
G03 X45.724 Y10.855 I-1.357 J0.638 
G01 X46.112 Y12.049 
G03 X46.159 Y12.231 I-1.426 J0.463 
G01 X46.394 Y13.465 
G03 X46.418 Y13.652 I-1.473 J0.281 
G01 X46.481 Y14.665 
G03 X46.519 Y15 I-1.462 J0.334 
G01 X46.519 Y15.533 
X46.653 Y16.592 
X46.918 Y17.625 
X47.311 Y18.617 
X47.825 Y19.552 
X48.452 Y20.416 
X49.183 Y21.194 
X50.005 Y21.874 
X50.906 Y22.446 
X51.871 Y22.9 
X52.886 Y23.23 
X53.935 Y23.43 
X55.047 Y23.5 
X200 Y23.5 
G02 X200 Y21.5 I0 J-1 
G01 Z-9 F100
G02 X200 Y23.5 I0 J1 F150
G01 X344.757 Y23.5 
G03 X345 Y23.48 I0.242 J1.48 
G01 X345.533 Y23.48 
X346.592 Y23.346 
X347.625 Y23.081 
X348.618 Y22.688 
X349.552 Y22.174 
X350.416 Y21.546 
X351.194 Y20.816 
X351.873 Y19.994 
X352.446 Y19.093 
X352.9 Y18.127 
X353.23 Y17.113 
X353.429 Y16.065 
X353.581 Y13.652 
G03 X353.605 Y13.465 I1.497 J0.094 
G01 X353.84 Y12.232 
G03 X353.887 Y12.049 I1.473 J0.28 
G01 X354.275 Y10.855 
G03 X354.344 Y10.679 I1.426 J0.463 
G01 X354.879 Y9.543 
G03 X354.97 Y9.378 I1.357 J0.638 
G01 X355.643 Y8.318 
G03 X355.753 Y8.166 I1.266 J0.803 
G01 X356.553 Y7.198 
G03 X356.683 Y7.06 I1.156 J0.955 
G01 X357.599 Y6.201 
G03 X357.744 Y6.081 I1.026 J1.093 
G01 X358.76 Y5.343 
G03 X358.919 Y5.242 I0.881 J1.213 
G01 X360.019 Y4.637 
G03 X360.189 Y4.556 I0.722 J1.314 
G01 X361.357 Y4.094 
G03 X361.536 Y4.036 I0.552 J1.394 
G01 X362.752 Y3.724 
G03 X362.938 Y3.688 I0.373 J1.452 
G01 X364.184 Y3.531 
G03 X364.372 Y3.519 I0.187 J1.488 
G01 X364.757 Y3.519 
G03 X365 Y3.5 I0.242 J1.48 
G01 X385 Y3.5 
G03 X385.094 Y3.502 I0 J1.5 
G01 X386.347 Y3.581 
G03 X386.533 Y3.605 I-0.094 J1.497 
G01 X387.767 Y3.84 
G03 X387.95 Y3.887 I-0.28 J1.473 
G01 X389.144 Y4.275 
G03 X389.319 Y4.344 I-0.463 J1.426 
G01 X390.456 Y4.879 
G03 X390.621 Y4.97 I-0.638 J1.357 
G01 X391.681 Y5.643 
G03 X391.834 Y5.754 I-0.803 J1.266 
G01 X392.801 Y6.554 
G03 X392.938 Y6.683 I-0.956 J1.155 
G01 X393.798 Y7.598 
G03 X393.918 Y7.744 I-1.093 J1.027 
G01 X394.656 Y8.76 
G03 X394.757 Y8.919 I-1.213 J0.881 
G01 X395.362 Y10.019 
G03 X395.442 Y10.189 I-1.314 J0.722 
G01 X395.905 Y11.356 
G03 X395.963 Y11.537 I-1.394 J0.552 
G01 X396.275 Y12.753 
G03 X396.311 Y12.938 I-1.452 J0.372 
G01 X396.468 Y14.184 
G03 X396.48 Y14.372 I-1.488 J0.187 
G01 X396.48 Y14.755 
G03 X396.5 Y15 I-1.48 J0.244 
G01 X396.5 Y65 
G03 X395 Y66.5 I-1.5 J0 
G01 X356.5 Y66.5 
X356.5 Y81 
G03 X355 Y82.5 I-1.5 J0 
G01 X335 Y82.5 
G03 X333.5 Y81 I0 J-1.5 
G01 X333.5 Y66.5 
X211.5 Y66.5 
X211.5 Y81 
G03 X210 Y82.5 I-1.5 J0 
G01 X190 Y82.5 
G03 X188.5 Y81 I0 J-1.5 
G01 X188.5 Y66.5 
X66.5 Y66.5 
X66.5 Y81 
G03 X65 Y82.5 I-1.5 J0 
G01 X45 Y82.5 
G03 X43.5 Y81 I0 J-1.5 
G01 X43.5 Y66.5 
X5 Y66.5 
G03 X3.5 Y65 I0 J-1.5 
G01 X3.5 Y15 
G03 X3.502 Y14.905 I1.5 J0 
G01 X3.581 Y13.652 
G03 X3.605 Y13.465 I1.497 J0.094 
G01 X3.84 Y12.232 
G03 X3.887 Y12.049 I1.473 J0.281 
G01 X4.275 Y10.855 
G03 X4.344 Y10.68 I1.426 J0.463 
G01 X4.879 Y9.543 
G03 X4.97 Y9.378 I1.357 J0.638 
G01 X5.643 Y8.318 
G03 X5.754 Y8.166 I1.266 J0.803 
G01 X6.554 Y7.198 
G03 X6.683 Y7.061 I1.155 J0.956 
G01 X7.598 Y6.201 
G03 X7.744 Y6.081 I1.026 J1.093 
G01 X8.76 Y5.343 
G03 X8.919 Y5.242 I0.881 J1.213 
G01 X10.019 Y4.637 
G03 X10.19 Y4.557 I0.722 J1.314 
G01 X11.357 Y4.094 
G03 X11.536 Y4.036 I0.552 J1.394 
G01 X12.753 Y3.724 
G03 X12.938 Y3.688 I0.373 J1.452 
G01 X14.184 Y3.531 
G03 X14.372 Y3.519 I0.187 J1.488 
G01 X14.757 Y3.519 
G03 X15 Y3.5 I0.242 J1.48 
G01 X35 Y3.5 
G03 X35.242 Y3.519 I0 J1.5 
G01 X35.627 Y3.519 
G03 X35.815 Y3.531 I0 J1.5 
G01 X37.061 Y3.688 
G03 X37.246 Y3.724 I-0.187 J1.488 
G01 X38.463 Y4.036 
G03 X38.642 Y4.094 I-0.373 J1.452 
G01 X39.809 Y4.557 
G03 X39.98 Y4.637 I-0.552 J1.394 
G01 X41.08 Y5.242 
G03 X41.239 Y5.343 I-0.722 J1.314 
G01 X42.255 Y6.081 
G03 X42.401 Y6.201 I-0.881 J1.213 
G01 X43.316 Y7.061 
G03 X43.445 Y7.198 I-1.026 J1.093 
G01 X44.245 Y8.166 
G03 X44.356 Y8.318 I-1.155 J0.956 
G01 X45.029 Y9.378 
G03 X45.12 Y9.543 I-1.266 J0.803 
G01 X45.655 Y10.68 
G03 X45.724 Y10.855 I-1.357 J0.638 
G01 X46.112 Y12.049 
G03 X46.159 Y12.231 I-1.426 J0.463 
G01 X46.394 Y13.465 
G03 X46.418 Y13.652 I-1.473 J0.281 
G01 X46.481 Y14.665 
G03 X46.519 Y15 I-1.462 J0.334 
G01 X46.519 Y15.533 
X46.653 Y16.592 
X46.918 Y17.625 
X47.311 Y18.617 
X47.825 Y19.552 
X48.452 Y20.416 
X49.183 Y21.194 
X50.005 Y21.874 
X50.906 Y22.446 
X51.871 Y22.9 
X52.886 Y23.23 
X53.935 Y23.43 
X55.047 Y23.5 
X200 Y23.5 
G02 X200 Y21.5 I0 J-1 
G01 Z-12 F100
G02 X200 Y23.5 I0 J1 F150
G01 X344.757 Y23.5 
G03 X345 Y23.48 I0.242 J1.48 
G01 X345.533 Y23.48 
X346.592 Y23.346 
X347.625 Y23.081 
X348.618 Y22.688 
X349.552 Y22.174 
X350.416 Y21.546 
X351.194 Y20.816 
X351.873 Y19.994 
X352.446 Y19.093 
X352.9 Y18.127 
X353.23 Y17.113 
X353.429 Y16.065 
X353.581 Y13.652 
G03 X353.605 Y13.465 I1.497 J0.094 
G01 X353.84 Y12.232 
G03 X353.887 Y12.049 I1.473 J0.28 
G01 X354.275 Y10.855 
G03 X354.344 Y10.679 I1.426 J0.463 
G01 X354.879 Y9.543 
G03 X354.97 Y9.378 I1.357 J0.638 
G01 X355.643 Y8.318 
G03 X355.753 Y8.166 I1.266 J0.803 
G01 X356.553 Y7.198 
G03 X356.683 Y7.06 I1.156 J0.955 
G01 X357.599 Y6.201 
G03 X357.744 Y6.081 I1.026 J1.093 
G01 X358.76 Y5.343 
G03 X358.919 Y5.242 I0.881 J1.213 
G01 X360.019 Y4.637 
G03 X360.189 Y4.556 I0.722 J1.314 
G01 X361.357 Y4.094 
G03 X361.536 Y4.036 I0.552 J1.394 
G01 X362.752 Y3.724 
G03 X362.938 Y3.688 I0.373 J1.452 
G01 X364.184 Y3.531 
G03 X364.372 Y3.519 I0.187 J1.488 
G01 X364.757 Y3.519 
G03 X365 Y3.5 I0.242 J1.48 
G01 X385 Y3.5 
G03 X385.094 Y3.502 I0 J1.5 
G01 X386.347 Y3.581 
G03 X386.533 Y3.605 I-0.094 J1.497 
G01 X387.767 Y3.84 
G03 X387.95 Y3.887 I-0.28 J1.473 
G01 X389.144 Y4.275 
G03 X389.319 Y4.344 I-0.463 J1.426 
G01 X390.456 Y4.879 
G03 X390.621 Y4.97 I-0.638 J1.357 
G01 X391.681 Y5.643 
G03 X391.834 Y5.754 I-0.803 J1.266 
G01 X392.801 Y6.554 
G03 X392.938 Y6.683 I-0.956 J1.155 
G01 X393.798 Y7.598 
G03 X393.918 Y7.744 I-1.093 J1.027 
G01 X394.656 Y8.76 
G03 X394.757 Y8.919 I-1.213 J0.881 
G01 X395.362 Y10.019 
G03 X395.442 Y10.189 I-1.314 J0.722 
G01 X395.905 Y11.356 
G03 X395.963 Y11.537 I-1.394 J0.552 
G01 X396.275 Y12.753 
G03 X396.311 Y12.938 I-1.452 J0.372 
G01 X396.468 Y14.184 
G03 X396.48 Y14.372 I-1.488 J0.187 
G01 X396.48 Y14.755 
G03 X396.5 Y15 I-1.48 J0.244 
G01 X396.5 Y65 
G03 X395 Y66.5 I-1.5 J0 
G01 X356.5 Y66.5 
X356.5 Y81 
G03 X355 Y82.5 I-1.5 J0 
G01 X335 Y82.5 
G03 X333.5 Y81 I0 J-1.5 
G01 X333.5 Y66.5 
X211.5 Y66.5 
X211.5 Y81 
G03 X210 Y82.5 I-1.5 J0 
G01 X190 Y82.5 
G03 X188.5 Y81 I0 J-1.5 
G01 X188.5 Y66.5 
X66.5 Y66.5 
X66.5 Y81 
G03 X65 Y82.5 I-1.5 J0 
G01 X45 Y82.5 
G03 X43.5 Y81 I0 J-1.5 
G01 X43.5 Y66.5 
X5 Y66.5 
G03 X3.5 Y65 I0 J-1.5 
G01 X3.5 Y15 
G03 X3.502 Y14.905 I1.5 J0 
G01 X3.581 Y13.652 
G03 X3.605 Y13.465 I1.497 J0.094 
G01 X3.84 Y12.232 
G03 X3.887 Y12.049 I1.473 J0.281 
G01 X4.275 Y10.855 
G03 X4.344 Y10.68 I1.426 J0.463 
G01 X4.879 Y9.543 
G03 X4.97 Y9.378 I1.357 J0.638 
G01 X5.643 Y8.318 
G03 X5.754 Y8.166 I1.266 J0.803 
G01 X6.554 Y7.198 
G03 X6.683 Y7.061 I1.155 J0.956 
G01 X7.598 Y6.201 
G03 X7.744 Y6.081 I1.026 J1.093 
G01 X8.76 Y5.343 
G03 X8.919 Y5.242 I0.881 J1.213 
G01 X10.019 Y4.637 
G03 X10.19 Y4.557 I0.722 J1.314 
G01 X11.357 Y4.094 
G03 X11.536 Y4.036 I0.552 J1.394 
G01 X12.753 Y3.724 
G03 X12.938 Y3.688 I0.373 J1.452 
G01 X14.184 Y3.531 
G03 X14.372 Y3.519 I0.187 J1.488 
G01 X14.757 Y3.519 
G03 X15 Y3.5 I0.242 J1.48 
G01 X35 Y3.5 
G03 X35.242 Y3.519 I0 J1.5 
G01 X35.627 Y3.519 
G03 X35.815 Y3.531 I0 J1.5 
G01 X37.061 Y3.688 
G03 X37.246 Y3.724 I-0.187 J1.488 
G01 X38.463 Y4.036 
G03 X38.642 Y4.094 I-0.373 J1.452 
G01 X39.809 Y4.557 
G03 X39.98 Y4.637 I-0.552 J1.394 
G01 X41.08 Y5.242 
G03 X41.239 Y5.343 I-0.722 J1.314 
G01 X42.255 Y6.081 
G03 X42.401 Y6.201 I-0.881 J1.213 
G01 X43.316 Y7.061 
G03 X43.445 Y7.198 I-1.026 J1.093 
G01 X44.245 Y8.166 
G03 X44.356 Y8.318 I-1.155 J0.956 
G01 X45.029 Y9.378 
G03 X45.12 Y9.543 I-1.266 J0.803 
G01 X45.655 Y10.68 
G03 X45.724 Y10.855 I-1.357 J0.638 
G01 X46.112 Y12.049 
G03 X46.159 Y12.231 I-1.426 J0.463 
G01 X46.394 Y13.465 
G03 X46.418 Y13.652 I-1.473 J0.281 
G01 X46.481 Y14.665 
G03 X46.519 Y15 I-1.462 J0.334 
G01 X46.519 Y15.533 
X46.653 Y16.592 
X46.918 Y17.625 
X47.311 Y18.617 
X47.825 Y19.552 
X48.452 Y20.416 
X49.183 Y21.194 
X50.005 Y21.874 
X50.906 Y22.446 
X51.871 Y22.9 
X52.886 Y23.23 
X53.935 Y23.43 
X55.047 Y23.5 
X200 Y23.5 
G02 X200 Y21.5 I0 J-1 
G01 Z-15 F100
G02 X200 Y23.5 I0 J1 F150
G01 X344.757 Y23.5 
G03 X345 Y23.48 I0.242 J1.48 
G01 X345.533 Y23.48 
X346.592 Y23.346 
X347.625 Y23.081 
X348.618 Y22.688 
X349.552 Y22.174 
X350.416 Y21.546 
X351.194 Y20.816 
X351.873 Y19.994 
X352.446 Y19.093 
X352.9 Y18.127 
X353.23 Y17.113 
X353.429 Y16.065 
X353.581 Y13.652 
G03 X353.605 Y13.465 I1.497 J0.094 
G01 X353.84 Y12.232 
G03 X353.887 Y12.049 I1.473 J0.28 
G01 X354.275 Y10.855 
G03 X354.344 Y10.679 I1.426 J0.463 
G01 X354.879 Y9.543 
G03 X354.97 Y9.378 I1.357 J0.638 
G01 X355.643 Y8.318 
G03 X355.753 Y8.166 I1.266 J0.803 
G01 X356.553 Y7.198 
G03 X356.683 Y7.06 I1.156 J0.955 
G01 X357.599 Y6.201 
G03 X357.744 Y6.081 I1.026 J1.093 
G01 X358.76 Y5.343 
G03 X358.919 Y5.242 I0.881 J1.213 
G01 X360.019 Y4.637 
G03 X360.189 Y4.556 I0.722 J1.314 
G01 X361.357 Y4.094 
G03 X361.536 Y4.036 I0.552 J1.394 
G01 X362.752 Y3.724 
G03 X362.938 Y3.688 I0.373 J1.452 
G01 X364.184 Y3.531 
G03 X364.372 Y3.519 I0.187 J1.488 
G01 X364.757 Y3.519 
G03 X365 Y3.5 I0.242 J1.48 
G01 X385 Y3.5 
G03 X385.094 Y3.502 I0 J1.5 
G01 X386.347 Y3.581 
G03 X386.533 Y3.605 I-0.094 J1.497 
G01 X387.767 Y3.84 
G03 X387.95 Y3.887 I-0.28 J1.473 
G01 X389.144 Y4.275 
G03 X389.319 Y4.344 I-0.463 J1.426 
G01 X390.456 Y4.879 
G03 X390.621 Y4.97 I-0.638 J1.357 
G01 X391.681 Y5.643 
G03 X391.834 Y5.754 I-0.803 J1.266 
G01 X392.801 Y6.554 
G03 X392.938 Y6.683 I-0.956 J1.155 
G01 X393.798 Y7.598 
G03 X393.918 Y7.744 I-1.093 J1.027 
G01 X394.656 Y8.76 
G03 X394.757 Y8.919 I-1.213 J0.881 
G01 X395.362 Y10.019 
G03 X395.442 Y10.189 I-1.314 J0.722 
G01 X395.905 Y11.356 
G03 X395.963 Y11.537 I-1.394 J0.552 
G01 X396.275 Y12.753 
G03 X396.311 Y12.938 I-1.452 J0.372 
G01 X396.468 Y14.184 
G03 X396.48 Y14.372 I-1.488 J0.187 
G01 X396.48 Y14.755 
G03 X396.5 Y15 I-1.48 J0.244 
G01 X396.5 Y65 
G03 X395 Y66.5 I-1.5 J0 
G01 X356.5 Y66.5 
X356.5 Y81 
G03 X355 Y82.5 I-1.5 J0 
G01 X335 Y82.5 
G03 X333.5 Y81 I0 J-1.5 
G01 X333.5 Y66.5 
X211.5 Y66.5 
X211.5 Y81 
G03 X210 Y82.5 I-1.5 J0 
G01 X190 Y82.5 
G03 X188.5 Y81 I0 J-1.5 
G01 X188.5 Y66.5 
X66.5 Y66.5 
X66.5 Y81 
G03 X65 Y82.5 I-1.5 J0 
G01 X45 Y82.5 
G03 X43.5 Y81 I0 J-1.5 
G01 X43.5 Y66.5 
X5 Y66.5 
G03 X3.5 Y65 I0 J-1.5 
G01 X3.5 Y15 
G03 X3.502 Y14.905 I1.5 J0 
G01 X3.581 Y13.652 
G03 X3.605 Y13.465 I1.497 J0.094 
G01 X3.84 Y12.232 
G03 X3.887 Y12.049 I1.473 J0.281 
G01 X4.275 Y10.855 
G03 X4.344 Y10.68 I1.426 J0.463 
G01 X4.879 Y9.543 
G03 X4.97 Y9.378 I1.357 J0.638 
G01 X5.643 Y8.318 
G03 X5.754 Y8.166 I1.266 J0.803 
G01 X6.554 Y7.198 
G03 X6.683 Y7.061 I1.155 J0.956 
G01 X7.598 Y6.201 
G03 X7.744 Y6.081 I1.026 J1.093 
G01 X8.76 Y5.343 
G03 X8.919 Y5.242 I0.881 J1.213 
G01 X10.019 Y4.637 
G03 X10.19 Y4.557 I0.722 J1.314 
G01 X11.357 Y4.094 
G03 X11.536 Y4.036 I0.552 J1.394 
G01 X12.753 Y3.724 
G03 X12.938 Y3.688 I0.373 J1.452 
G01 X14.184 Y3.531 
G03 X14.372 Y3.519 I0.187 J1.488 
G01 X14.757 Y3.519 
G03 X15 Y3.5 I0.242 J1.48 
G01 X35 Y3.5 
G03 X35.242 Y3.519 I0 J1.5 
G01 X35.627 Y3.519 
G03 X35.815 Y3.531 I0 J1.5 
G01 X37.061 Y3.688 
G03 X37.246 Y3.724 I-0.187 J1.488 
G01 X38.463 Y4.036 
G03 X38.642 Y4.094 I-0.373 J1.452 
G01 X39.809 Y4.557 
G03 X39.98 Y4.637 I-0.552 J1.394 
G01 X41.08 Y5.242 
G03 X41.239 Y5.343 I-0.722 J1.314 
G01 X42.255 Y6.081 
G03 X42.401 Y6.201 I-0.881 J1.213 
G01 X43.316 Y7.061 
G03 X43.445 Y7.198 I-1.026 J1.093 
G01 X44.245 Y8.166 
G03 X44.356 Y8.318 I-1.155 J0.956 
G01 X45.029 Y9.378 
G03 X45.12 Y9.543 I-1.266 J0.803 
G01 X45.655 Y10.68 
G03 X45.724 Y10.855 I-1.357 J0.638 
G01 X46.112 Y12.049 
G03 X46.159 Y12.231 I-1.426 J0.463 
G01 X46.394 Y13.465 
G03 X46.418 Y13.652 I-1.473 J0.281 
G01 X46.481 Y14.665 
G03 X46.519 Y15 I-1.462 J0.334 
G01 X46.519 Y15.533 
X46.653 Y16.592 
X46.918 Y17.625 
X47.311 Y18.617 
X47.825 Y19.552 
X48.452 Y20.416 
X49.183 Y21.194 
X50.005 Y21.874 
X50.906 Y22.446 
X51.871 Y22.9 
X52.886 Y23.23 
X53.935 Y23.43 
X55.047 Y23.5 
X200 Y23.5 
G02 X200 Y21.5 I0 J-1 
G01 Z-18 F100
G02 X200 Y23.5 I0 J1 F150
G01 X344.757 Y23.5 
G03 X345 Y23.48 I0.242 J1.48 
G01 X345.533 Y23.48 
X346.592 Y23.346 
X347.625 Y23.081 
X348.618 Y22.688 
X349.552 Y22.174 
X350.416 Y21.546 
X351.194 Y20.816 
X351.873 Y19.994 
X352.446 Y19.093 
X352.9 Y18.127 
X353.23 Y17.113 
X353.429 Y16.065 
X353.581 Y13.652 
G03 X353.605 Y13.465 I1.497 J0.094 
G01 X353.84 Y12.232 
G03 X353.887 Y12.049 I1.473 J0.28 
G01 X354.275 Y10.855 
G03 X354.344 Y10.679 I1.426 J0.463 
G01 X354.879 Y9.543 
G03 X354.97 Y9.378 I1.357 J0.638 
G01 X355.643 Y8.318 
G03 X355.753 Y8.166 I1.266 J0.803 
G01 X356.553 Y7.198 
G03 X356.683 Y7.06 I1.156 J0.955 
G01 X357.599 Y6.201 
G03 X357.744 Y6.081 I1.026 J1.093 
G01 X358.76 Y5.343 
G03 X358.919 Y5.242 I0.881 J1.213 
G01 X360.019 Y4.637 
G03 X360.189 Y4.556 I0.722 J1.314 
G01 X361.357 Y4.094 
G03 X361.536 Y4.036 I0.552 J1.394 
G01 X362.752 Y3.724 
G03 X362.938 Y3.688 I0.373 J1.452 
G01 X364.184 Y3.531 
G03 X364.372 Y3.519 I0.187 J1.488 
G01 X364.757 Y3.519 
G03 X365 Y3.5 I0.242 J1.48 
G01 X385 Y3.5 
G03 X385.094 Y3.502 I0 J1.5 
G01 X386.347 Y3.581 
G03 X386.533 Y3.605 I-0.094 J1.497 
G01 X387.767 Y3.84 
G03 X387.95 Y3.887 I-0.28 J1.473 
G01 X389.144 Y4.275 
G03 X389.319 Y4.344 I-0.463 J1.426 
G01 X390.456 Y4.879 
G03 X390.621 Y4.97 I-0.638 J1.357 
G01 X391.681 Y5.643 
G03 X391.834 Y5.754 I-0.803 J1.266 
G01 X392.801 Y6.554 
G03 X392.938 Y6.683 I-0.956 J1.155 
G01 X393.798 Y7.598 
G03 X393.918 Y7.744 I-1.093 J1.027 
G01 X394.656 Y8.76 
G03 X394.757 Y8.919 I-1.213 J0.881 
G01 X395.362 Y10.019 
G03 X395.442 Y10.189 I-1.314 J0.722 
G01 X395.905 Y11.356 
G03 X395.963 Y11.537 I-1.394 J0.552 
G01 X396.275 Y12.753 
G03 X396.311 Y12.938 I-1.452 J0.372 
G01 X396.468 Y14.184 
G03 X396.48 Y14.372 I-1.488 J0.187 
G01 X396.48 Y14.755 
G03 X396.5 Y15 I-1.48 J0.244 
G01 X396.5 Y65 
G03 X395 Y66.5 I-1.5 J0 
G01 X356.5 Y66.5 
X356.5 Y81 
G03 X355 Y82.5 I-1.5 J0 
G01 X335 Y82.5 
G03 X333.5 Y81 I0 J-1.5 
G01 X333.5 Y66.5 
X211.5 Y66.5 
X211.5 Y81 
G03 X210 Y82.5 I-1.5 J0 
G01 X190 Y82.5 
G03 X188.5 Y81 I0 J-1.5 
G01 X188.5 Y66.5 
X66.5 Y66.5 
X66.5 Y81 
G03 X65 Y82.5 I-1.5 J0 
G01 X45 Y82.5 
G03 X43.5 Y81 I0 J-1.5 
G01 X43.5 Y66.5 
X5 Y66.5 
G03 X3.5 Y65 I0 J-1.5 
G01 X3.5 Y15 
G03 X3.502 Y14.905 I1.5 J0 
G01 X3.581 Y13.652 
G03 X3.605 Y13.465 I1.497 J0.094 
G01 X3.84 Y12.232 
G03 X3.887 Y12.049 I1.473 J0.281 
G01 X4.275 Y10.855 
G03 X4.344 Y10.68 I1.426 J0.463 
G01 X4.879 Y9.543 
G03 X4.97 Y9.378 I1.357 J0.638 
G01 X5.643 Y8.318 
G03 X5.754 Y8.166 I1.266 J0.803 
G01 X6.554 Y7.198 
G03 X6.683 Y7.061 I1.155 J0.956 
G01 X7.598 Y6.201 
G03 X7.744 Y6.081 I1.026 J1.093 
G01 X8.76 Y5.343 
G03 X8.919 Y5.242 I0.881 J1.213 
G01 X10.019 Y4.637 
G03 X10.19 Y4.557 I0.722 J1.314 
G01 X11.357 Y4.094 
G03 X11.536 Y4.036 I0.552 J1.394 
G01 X12.753 Y3.724 
G03 X12.938 Y3.688 I0.373 J1.452 
G01 X14.184 Y3.531 
G03 X14.372 Y3.519 I0.187 J1.488 
G01 X14.757 Y3.519 
G03 X15 Y3.5 I0.242 J1.48 
G01 X35 Y3.5 
G03 X35.242 Y3.519 I0 J1.5 
G01 X35.627 Y3.519 
G03 X35.815 Y3.531 I0 J1.5 
G01 X37.061 Y3.688 
G03 X37.246 Y3.724 I-0.187 J1.488 
G01 X38.463 Y4.036 
G03 X38.642 Y4.094 I-0.373 J1.452 
G01 X39.809 Y4.557 
G03 X39.98 Y4.637 I-0.552 J1.394 
G01 X41.08 Y5.242 
G03 X41.239 Y5.343 I-0.722 J1.314 
G01 X42.255 Y6.081 
G03 X42.401 Y6.201 I-0.881 J1.213 
G01 X43.316 Y7.061 
G03 X43.445 Y7.198 I-1.026 J1.093 
G01 X44.245 Y8.166 
G03 X44.356 Y8.318 I-1.155 J0.956 
G01 X45.029 Y9.378 
G03 X45.12 Y9.543 I-1.266 J0.803 
G01 X45.655 Y10.68 
G03 X45.724 Y10.855 I-1.357 J0.638 
G01 X46.112 Y12.049 
G03 X46.159 Y12.231 I-1.426 J0.463 
G01 X46.394 Y13.465 
G03 X46.418 Y13.652 I-1.473 J0.281 
G01 X46.481 Y14.665 
G03 X46.519 Y15 I-1.462 J0.334 
G01 X46.519 Y15.533 
X46.653 Y16.592 
X46.918 Y17.625 
X47.311 Y18.617 
X47.825 Y19.552 
X48.452 Y20.416 
X49.183 Y21.194 
X50.005 Y21.874 
X50.906 Y22.446 
X51.871 Y22.9 
X52.886 Y23.23 
X53.935 Y23.43 
X55.047 Y23.5 
X200 Y23.5 
G02 X200 Y21.5 I0 J-1 
G00 Z5
T0 M06 M02
