(Created with emc2b post processor 2016/06/20 23:51)
(tool change to 3 mm Slot Cutter)
T1 M06 G43
G17 G90 G21
G00 X137.807 Y104.143 S7000 M03
Z5
G83 Q3 G98 X137.807 Y104.143 Z17 R2 F100
X137.807 Y120.143 
X157.807 Y120.143 
X157.807 Y104.143 
X65.307 Y112.143 
X84.807 Y100.643 
X100.807 Y100.643 
X163.307 Y94.143 
X51.307 Y40.443 
X41.807 Y40.443 
G80
G00 X148.086 Y69.361 S7000 M03
Z2
G01 Z6 
X148.094 Y69.341 F200
X148.076 Y69.341 
X148.086 Y69.361 
X148.33 Y72.423 
G03 X149.61 Y68.341 I13.369 J1.95 
G01 X146.346 Y68.341 
G03 X148.33 Y72.423 I-15.816 J10.21 
G01 X148.366 Y77.127 
G03 X149.33 Y76.334 I9.366 J10.404 
X151.336 Y67.342 I12.564 J-1.916 
G01 X144.428 Y67.342 
G03 X148.366 Y77.127 I-14.889 J11.677 
G01 X147.792 Y78.908 
G02 X147.976 Y78.839 I-0.017 J-0.325 
G03 X150.276 Y76.863 I16.476 J16.852 
G02 X150.341 Y76.356 I-0.354 J-0.303 
G03 X153.401 Y66.343 I11.618 J-1.923 
G01 X142.219 Y66.343 
G03 X147.406 Y77.525 I-12.792 J12.727 
X147.521 Y78.626 I-10.6 J1.663 
G02 X147.792 Y78.908 I0.288 J-0.005 
G01 X147.769 Y79.917 
G02 X148.591 Y79.635 I0.01 J-1.307 
G03 X150.787 Y77.745 I13.771 J13.78 
G02 X151.32 Y76.149 I-0.804 J-1.155 
G03 X154.892 Y66.291 I10.655 J-1.715 
X156.057 Y65.343 I7.893 J8.51 
G01 X139.553 Y65.343 
G03 X146.414 Y77.648 I-10.177 J13.74 
X146.531 Y78.783 I-10.335 J1.638 
G02 X147.769 Y79.917 I1.276 J-0.15 
G01 X147.75 Y80.922 
G02 X149.219 Y80.419 I0.029 J-2.309 
G03 X151.426 Y78.517 I13.474 J13.404 
G02 X152.303 Y75.961 I-1.403 J-1.909 
G03 X155.539 Y67.055 I9.667 J-1.528 
X159.73 Y64.343 I10.464 J11.577 
G01 X135.856 Y64.343 
G03 X137.019 Y64.907 I-4.016 J9.762 
X145.422 Y77.771 I-7.663 J14.182 
X145.54 Y78.93 I-10.208 J1.624 
G02 X147.75 Y80.922 I2.266 J-0.292 
G01 X147.731 Y81.925 
G02 X149.855 Y81.196 I0.052 J-3.304 
G03 X152.063 Y79.289 I13.257 J13.118 
G02 X153.288 Y75.786 I-2.008 J-2.667 
G03 X156.185 Y67.819 I8.687 J-1.351 
X164.106 Y64.111 I10.03 J11.113 
G01 X164.106 Y63.343 
X131.507 Y63.343 
X131.507 Y64.123 
G03 X144.43 Y77.894 I-2.151 J14.968 
X144.548 Y79.066 I-9.879 J1.586 
G02 X147.731 Y81.925 I3.258 J-0.426 
G01 X147.71 Y82.927 
G02 X150.497 Y81.967 I0.076 J-4.303 
G03 X152.7 Y80.061 I13.271 J13.113 
G02 X154.395 Y76.611 I-2.622 J-3.43 
X154.273 Y75.612 I-4.553 J0.049 
G03 X155.355 Y70.314 I7.801 J-1.166 
X156.83 Y68.584 I6.581 J4.118 
X165.106 Y65.001 I9.417 J10.402 
G01 X165.106 Y62.343 
X130.507 Y62.343 
X130.507 Y65.011 
G03 X143.438 Y78.017 I-1.163 J14.088 
X143.555 Y79.197 I-9.164 J1.504 
G02 X147.71 Y82.927 I4.251 J-0.556 
G01 X147.691 Y83.929 
G02 X151.141 Y82.738 I0.095 J-5.315 
G03 X153.341 Y80.83 I12.911 J12.665 
G02 X154.28 Y79.888 I-3.583 J-4.511 
X155.258 Y75.439 I-4.155 J-3.245 
G03 X155.441 Y72.566 I7.181 J-0.984 
X157.477 Y69.348 I6.433 J1.817 
X166.106 Y65.955 I8.775 J9.648 
G01 X166.106 Y61.343 
X129.507 Y61.343 
X129.507 Y65.963 
G03 X142.446 Y78.139 I-0.166 J13.139 
X142.562 Y79.323 I-8.511 J1.431 
G02 X147.691 Y83.929 I5.244 J-0.681 
G01 X148.196 Y84.919 
G02 X151.175 Y83.95 I-0.415 J-6.341 
G01 X151.786 Y83.506 
G03 X153.986 Y81.596 I12.842 J12.57 
G01 X154.637 Y81.002 
G02 X156.339 Y77.508 I-4.497 J-4.352 
X156.363 Y75.948 I-5.94 J-0.871 
G03 X156.252 Y73.535 I6.736 J-1.518 
X158.123 Y70.112 I5.634 J0.857 
X167.106 Y66.985 I8.128 J8.885 
G01 X167.106 Y60.343 
X128.507 Y60.343 
X128.507 Y66.991 
G03 X141.454 Y78.26 I0.834 J12.113 
X141.568 Y79.443 I-8.214 J1.388 
G02 X146.627 Y84.817 I6.23 J-0.797 
X148.196 Y84.919 I1.177 J-5.994 
G01 X148.261 Y85.919 
X149.172 Y85.801 
X150.058 Y85.574 
X150.909 Y85.238 
X151.713 Y84.796 
X152.432 Y84.273 
G03 X154.631 Y82.362 I12.742 J12.442 
G01 X155.358 Y81.698 
X155.951 Y81.001 
X156.453 Y80.235 
X156.854 Y79.414 
X157.148 Y78.547 
X157.332 Y77.649 
X157.404 Y76.736 
X157.359 Y75.831 
G03 X157.188 Y74.286 I6.746 J-1.528 
X158.77 Y70.877 I4.694 J0.106 
X168.106 Y68.105 I7.497 J8.143 
G01 X168.106 Y59.343 
X127.507 Y59.343 
X127.507 Y68.109 
G03 X140.462 Y78.381 I1.826 J11.001 
X140.574 Y79.566 I-7.884 J1.343 
G01 X140.743 Y80.455 
X141.026 Y81.326 
X141.414 Y82.153 
X141.907 Y82.927 
X142.49 Y83.633 
X143.157 Y84.257 
X143.898 Y84.797 
X144.701 Y85.238 
X145.552 Y85.574 
X146.438 Y85.801 
X147.349 Y85.919 
X148.261 Y85.919 
X148.325 Y86.919 
X149.361 Y86.786 
X150.368 Y86.528 
X151.336 Y86.145 
X152.25 Y85.642 
X153.079 Y85.04 
G03 X155.276 Y83.128 I12.594 J12.254 
G01 X156.079 Y82.395 
X156.754 Y81.602 
X157.324 Y80.731 
X157.781 Y79.796 
X158.116 Y78.81 
X158.325 Y77.789 
X158.406 Y76.751 
X158.355 Y75.718 
G03 X158.185 Y74.364 I6.398 J-1.491 
X159.418 Y71.639 I3.699 J0.032 
X169.106 Y69.348 I6.87 J7.423 
G01 X169.106 Y58.343 
X126.507 Y58.343 
X126.507 Y69.351 
G03 X139.469 Y78.501 I2.816 J9.766 
X139.58 Y79.687 I-7.178 J1.27 
G01 X139.773 Y80.704 
X140.095 Y81.695 
X140.537 Y82.636 
X141.097 Y83.516 
X141.76 Y84.32 
X142.519 Y85.03 
X143.361 Y85.643 
X144.275 Y86.145 
X145.243 Y86.528 
X146.25 Y86.786 
X147.286 Y86.919 
X148.325 Y86.919 
X148.389 Y87.919 
X149.549 Y87.771 
X150.678 Y87.482 
X151.763 Y87.052 
X152.787 Y86.489 
X153.726 Y85.807 
G03 X155.922 Y83.894 I12.315 J11.92 
G01 X156.8 Y83.092 
X157.557 Y82.203 
X158.196 Y81.227 
X158.708 Y80.178 
X159.084 Y79.073 
X159.318 Y77.929 
X159.408 Y76.766 
X159.351 Y75.599 
G03 X159.183 Y74.435 I6.181 J-1.486 
X160.067 Y72.4 I2.701 J-0.035 
X170.106 Y70.773 I6.236 J6.697 
G01 X170.106 Y57.343 
X125.507 Y57.343 
X125.507 Y70.775 
X125.51 Y70.773 
G03 X138.476 Y78.62 I3.804 J8.349 
X138.585 Y79.806 I-6.417 J1.187 
G01 X138.803 Y80.953 
X139.164 Y82.064 
X139.66 Y83.119 
X140.287 Y84.105 
X141.03 Y85.006 
X141.881 Y85.803 
X142.825 Y86.489 
X143.849 Y87.052 
X144.934 Y87.482 
X146.063 Y87.771 
X147.223 Y87.919 
X148.389 Y87.919 
X148.453 Y88.919 
X149.737 Y88.756 
X150.988 Y88.435 
X152.19 Y87.959 
X153.324 Y87.336 
X154.37 Y86.576 
G03 X155.866 Y85.2 I17.581 J17.613 
X156.565 Y84.662 I7.6 J9.152 
G01 X157.521 Y83.789 
X158.36 Y82.804 
X159.068 Y81.722 
X159.635 Y80.56 
X160.051 Y79.336 
X160.311 Y78.069 
X160.41 Y76.78 
X160.347 Y75.488 
X160.207 Y74.694 
G03 X160.717 Y73.161 I1.672 J-0.295 
X171.107 Y72.51 I5.587 J5.939 
G01 X171.107 Y56.343 
X124.507 Y56.343 
X124.507 Y72.51 
G03 X137.485 Y78.754 I4.807 J6.616 
G01 X137.534 Y79.034 
X137.591 Y79.932 
X137.833 Y81.203 
X138.233 Y82.433 
X138.783 Y83.603 
X139.477 Y84.694 
X140.3 Y85.692 
X141.243 Y86.576 
X142.289 Y87.336 
X143.423 Y87.959 
X144.625 Y88.435 
X145.876 Y88.756 
X147.16 Y88.919 
X148.453 Y88.919 
G00 Z5
X93.107 Y106.943 S7000 M03
Z2
G01 Z6 F100
X93.107 Y94.343 F200
X92.507 Y94.343 
X92.507 Y106.943 
X93.107 Y106.943 
X94.107 Y107.943 
X94.107 Y93.343 
X91.507 Y93.343 
X91.507 Y107.943 
X94.107 Y107.943 
X95.107 Y108.943 
X95.107 Y92.343 
X90.507 Y92.343 
X90.507 Y108.943 
X95.107 Y108.943 
G00 Z5
X42.505 Y39.784 S7000 M03
Z2
G01 Z6 F100
X42.505 Y41.091 F200
G03 X44.804 Y40.943 I2.212 J16.434 
G01 X51.577 Y40.942 
G02 X51.611 Y39.953 I0.004 J-0.494 
G01 X51.387 Y39.943 
X44.807 Y39.943 
G03 X42.505 Y39.784 I0.025 J-17.117 
G01 X41.505 Y42.276 
G03 X44.805 Y41.943 I3.215 J15.346 
G01 X51.66 Y41.942 
G02 X53.075 Y40.26 I-0.094 J-1.515 
X51.738 Y38.958 I-1.478 J0.181 
G01 X51.41 Y38.943 
X44.807 Y38.943 
G03 X41.505 Y38.6 I0.005 J-16.119 
G01 X41.505 Y42.276 
X40.506 Y43.552 
G03 X44.806 Y42.943 I4.238 J14.445 
G01 X51.341 Y42.943 
G02 X53.72 Y41.748 I0.193 J-2.579 
X51.856 Y37.963 I-2.12 J-1.307 
G01 X51.434 Y37.943 
X44.807 Y37.943 
G03 X40.506 Y37.325 I-0.003 J-15.249 
G01 X40.506 Y43.552 
X39.507 Y35.938 
X39.507 Y44.943 
G03 X44.806 Y43.943 I5.256 J13.315 
G01 X51.349 Y43.943 
G02 X53.535 Y43.351 I0.179 J-3.67 
X52.476 Y37.06 I-1.935 J-2.908 
X51.459 Y36.943 I-0.962 J3.888 
G01 X44.807 Y36.943 
G03 X39.507 Y35.938 I0.001 J-14.487 
G01 X38.507 Y34.397 
X38.507 Y46.487 
G03 X44.806 Y44.943 I6.287 J12.03 
G01 X51.367 Y44.943 
G03 X51.909 Y44.924 I0.4 J3.681 
G02 X56.083 Y40.208 I-0.294 J-4.465 
G01 X56.086 Y40.12 
G02 X52.177 Y35.985 I-4.477 J0.317 
G01 X51.49 Y35.943 
X44.807 Y35.943 
G03 X38.507 Y34.397 I0.014 J-13.669 
G01 X37.507 Y32.628 
X37.507 Y48.256 
G03 X38.596 Y47.566 I14.007 J20.902 
X40.035 Y46.875 I7.276 J13.309 
X40.29 Y46.776 I2.348 J5.672 
X41.545 Y46.371 I5.4 J14.587 
X41.813 Y46.304 I1.47 J5.314 
X43.108 Y46.06 I3.571 J15.396 
X44.807 Y45.943 I2.066 J17.609 
G01 X51.405 Y45.943 
G03 X51.966 Y45.925 I0.389 J3.391 
G02 X57.083 Y40.244 I-0.346 J-5.456 
G01 X57.089 Y40.076 
G02 X52.3 Y34.991 I-5.481 J0.364 
G01 X51.521 Y34.943 
X44.807 Y34.943 
G03 X43.386 Y34.858 I0.797 J-25.249 
X43.047 Y34.815 I0.697 J-6.858 
X41.752 Y34.566 I2.678 J-17.421 
X41.484 Y34.496 I1.521 J-6.373 
X40.233 Y34.087 I4.642 J-16.319 
X39.975 Y33.983 I1.416 J-3.885 
X38.788 Y33.421 I6.608 J-15.491 
X38.541 Y33.285 I2.523 J-4.875 
G01 X37.507 Y32.628 
X36.507 Y30.467 
X36.507 Y50.418 
G03 X36.878 Y50.042 I3.001 J2.59 
G01 X37.846 Y49.242 
X38.017 Y49.117 
X39.077 Y48.444 
X39.265 Y48.341 
X40.402 Y47.806 
X40.6 Y47.728 
X41.794 Y47.34 
X42.001 Y47.287 
X43.235 Y47.052 
X43.447 Y47.025 
G03 X44.807 Y46.943 I1.853 J19.415 
G01 X51.444 Y46.943 
G03 X52.015 Y46.927 I0.367 J2.9 
G02 X58.098 Y40.52 I-0.405 J-6.476 
G03 X58.091 Y40.034 I2.669 J-0.281 
G02 X52.421 Y33.997 I-6.485 J0.41 
G01 X51.553 Y33.943 
X44.807 Y33.943 
G03 X43.447 Y33.86 I0.94 J-26.598 
G01 X43.235 Y33.833 
X42.001 Y33.598 
X41.794 Y33.545 
X40.6 Y33.157 
X40.402 Y33.079 
X39.265 Y32.544 
X39.077 Y32.441 
X38.017 Y31.768 
X37.846 Y31.643 
X36.878 Y30.843 
G03 X36.507 Y30.467 I2.63 J-2.966 
G00 Z5
(Sketch 114)
X154.301 Y69.267 S7000 M03
Z2
G01 Z17 F100
G02 X155.289 Y67.528 I0.494 J-0.869 F200
G01 X154.716 Y67.202 
X153.498 Y66.7 
X152.226 Y66.355 
X150.921 Y66.171 
X149.602 Y66.153 
X148.292 Y66.3 
X147.011 Y66.609 
X145.779 Y67.077 
X144.615 Y67.696 
X143.535 Y68.458 
X143.466 Y68.522 
G03 X143.345 Y68.62 I-1.006 J-1.112 
G01 X143.093 Y68.804 
X143.028 Y68.866 
G03 X142.904 Y68.972 I-1.031 J-1.088 
G01 X142.653 Y69.162 
X142.587 Y69.226 
G03 X142.467 Y69.332 I-1.048 J-1.072 
G01 X142.219 Y69.527 
X142.153 Y69.594 
G03 X142.038 Y69.698 I-1.064 J-1.056 
G01 X141.794 Y69.898 
X141.73 Y69.966 
G03 X141.614 Y70.075 I-1.084 J-1.036 
G01 X141.372 Y70.279 
X141.308 Y70.348 
G03 X141.198 Y70.455 I-1.1 J-1.019 
G01 X140.961 Y70.664 
X140.899 Y70.733 
G03 X140.787 Y70.846 I-1.119 J-0.998 
G01 X140.555 Y71.057 
X140.496 Y71.126 
G03 X140.382 Y71.244 I-1.138 J-0.976 
G01 X140.154 Y71.458 
X139.315 Y72.474 
X138.608 Y73.586 
X138.047 Y74.78 
X137.64 Y76.033 
X137.393 Y77.328 
X137.31 Y78.643 
X137.393 Y79.959 
X137.64 Y81.254 
X138.047 Y82.507 
X138.608 Y83.7 
X139.315 Y84.813 
X140.155 Y85.83 
X141.116 Y86.731 
X142.182 Y87.506 
X143.338 Y88.142 
X144.563 Y88.627 
X145.839 Y88.954 
X147.148 Y89.119 
X148.466 Y89.119 
X149.775 Y88.954 
X151.051 Y88.627 
X152.276 Y88.142 
X153.432 Y87.506 
X154.498 Y86.731 
X155.529 Y85.764 
G03 X155.543 Y85.751 I1.026 J1.093 
G01 X155.671 Y85.634 
G03 X155.689 Y85.618 I1.012 J1.107 
G01 X155.819 Y85.503 
G03 X155.842 Y85.483 I0.993 J1.123 
G01 X155.974 Y85.371 
G03 X155.993 Y85.355 I0.97 J1.143 
G01 X156.127 Y85.245 
G03 X156.151 Y85.226 I0.951 J1.159 
G01 X156.287 Y85.119 
G03 X156.307 Y85.104 I0.927 J1.178 
G01 X156.445 Y84.999 
G03 X156.464 Y84.984 I0.908 J1.193 
G01 X156.604 Y84.881 
G03 X156.625 Y84.866 I0.888 J1.208 
G01 X156.691 Y84.819 
X157.666 Y83.929 
X158.52 Y82.925 
X159.242 Y81.822 
X159.82 Y80.638 
X160.244 Y79.39 
X160.51 Y78.098 
X160.611 Y76.783 
X160.546 Y75.467 
X160.318 Y74.169 
X159.928 Y72.91 
X159.383 Y71.709 
X158.693 Y70.586 
X157.867 Y69.559 
X156.918 Y68.643 
X155.863 Y67.854 
X155.289 Y67.528 
G02 X154.301 Y69.267 I-0.494 J0.869 
G00 Z5
(tool change to 2.9 mm Slot Cutter)
T10 M06 G43
G90
(Sketch 119)
X163.069 Y65.082 S7000 M03
Z2
G01 Z17 F100
G02 X163.317 Y63.097 I0.124 J-0.992 F200
G01 X163.311 Y63.096 
X163.306 Y63.096 
X163.296 Y63.098 
X163.291 Y63.099 
X163.29 Y63.099 
X163.281 Y63.104 
X163.277 Y63.107 
X163.271 Y63.112 
X163.269 Y63.116 
X163.266 Y63.119 
X163.262 Y63.127 
X163.262 Y63.13 
X163.26 Y63.137 
X163.26 Y63.143 
X163.26 Y63.15 
X163.262 Y63.157 
X163.262 Y63.159 
X163.266 Y63.168 
X163.269 Y63.171 
X163.271 Y63.175 
X163.277 Y63.18 
X163.281 Y63.183 
X163.29 Y63.187 
X163.291 Y63.188 
X163.296 Y63.189 
X163.306 Y63.19 
X163.308 Y63.19 
X163.381 Y63.181 
G03 X163.776 Y63.185 I0.184 J1.438 
G01 X163.846 Y63.195 
X163.848 Y63.195 
X163.922 Y63.187 
G03 X164.317 Y63.198 I0.158 J1.441 
G01 X164.385 Y63.209 
X164.388 Y63.209 
X164.463 Y63.202 
G03 X164.859 Y63.221 I0.132 J1.443 
G01 X164.924 Y63.233 
X164.927 Y63.233 
X165.003 Y63.227 
G03 X165.39 Y63.251 I0.105 J1.446 
G01 X165.466 Y63.266 
X165.469 Y63.266 
X165.535 Y63.262 
G03 X165.929 Y63.292 I0.088 J1.447 
G01 X166.005 Y63.308 
X166.007 Y63.309 
X166.075 Y63.306 
G03 X166.472 Y63.344 I0.061 J1.448 
G01 X166.542 Y63.36 
X166.544 Y63.361 
X166.614 Y63.359 
G03 X167.001 Y63.402 I0.035 J1.449 
G01 X167.074 Y63.42 
X167.085 Y63.421 
X167.161 Y63.421 
G03 X167.539 Y63.472 I0 J1.45 
G01 X167.611 Y63.491 
X167.618 Y63.492 
X167.625 Y63.492 
X167.631 Y63.492 
X167.636 Y63.49 
X167.638 Y63.489 
X167.645 Y63.485 
X167.652 Y63.481 
X167.654 Y63.479 
X167.66 Y63.471 
X167.663 Y63.468 
X167.664 Y63.464 
X167.667 Y63.456 
X167.668 Y63.453 
X167.668 Y63.447 
X167.668 Y63.44 
X167.667 Y63.433 
X167.665 Y63.427 
X167.664 Y63.425 
X167.659 Y63.417 
X167.655 Y63.411 
X167.653 Y63.41 
X167.65 Y63.408 
X167.642 Y63.403 
X167.634 Y63.4 
X167.63 Y63.399 
X167.624 Y63.398 
X167.525 Y63.396 
G03 X167.202 Y63.354 I0.023 J-1.449 
G01 X167.098 Y63.329 
X167.085 Y63.327 
X166.986 Y63.327 
G03 X166.663 Y63.291 I0 J-1.45 
G01 X166.559 Y63.267 
X166.548 Y63.266 
X166.453 Y63.268 
G03 X166.122 Y63.237 I-0.03 J-1.449 
G01 X166.017 Y63.215 
X166.01 Y63.214 
X165.919 Y63.218 
G03 X165.578 Y63.192 I-0.061 J-1.448 
G01 X165.478 Y63.173 
X165.468 Y63.172 
X165.369 Y63.177 
G03 X165.037 Y63.157 I-0.077 J-1.447 
G01 X164.939 Y63.139 
X164.929 Y63.139 
X164.826 Y63.146 
G03 X164.501 Y63.132 I-0.1 J-1.446 
G01 X164.395 Y63.115 
X164.389 Y63.115 
X164.297 Y63.124 
G03 X163.956 Y63.116 I-0.138 J-1.443 
G01 X163.851 Y63.101 
X163.846 Y63.101 
X163.755 Y63.111 
G03 X163.413 Y63.109 I-0.161 J-1.44 
G01 X163.317 Y63.097 
G02 X163.069 Y65.082 I-0.124 J0.992 
G00 Z5
G90
(Sketch 120)
X137.613 Y60.958 S7000 M03
Z2
G01 Z17 F100
G02 X136.905 Y59.087 I-0.354 J-0.935 F200
G01 X136.899 Y59.09 
X136.892 Y59.095 
X136.889 Y59.098 
X136.839 Y59.157 
G03 X136.298 Y59.553 I-1.103 J-0.94 
G01 X136.292 Y59.556 
X136.286 Y59.56 
X136.282 Y59.564 
X136.237 Y59.62 
G03 X135.694 Y60.032 I-1.123 J-0.916 
G01 X135.691 Y60.034 
X135.688 Y60.036 
X135.681 Y60.043 
X135.629 Y60.107 
G03 X135.107 Y60.516 I-1.131 J-0.906 
G01 X135.1 Y60.52 
X135.097 Y60.523 
X135.091 Y60.529 
X135.044 Y60.591 
G03 X134.527 Y61.012 I-1.15 J-0.882 
G01 X134.515 Y61.02 
X134.514 Y61.021 
X134.509 Y61.026 
X134.461 Y61.091 
G03 X133.952 Y61.52 I-1.165 J-0.863 
G01 X133.943 Y61.526 
X133.938 Y61.531 
X133.936 Y61.533 
X133.892 Y61.594 
G03 X133.386 Y62.039 I-1.183 J-0.837 
G01 X133.381 Y62.042 
X133.374 Y62.048 
X133.37 Y62.053 
X133.325 Y62.118 
G03 X132.826 Y62.568 I-1.194 J-0.822 
G01 X132.824 Y62.569 
X132.82 Y62.573 
X132.817 Y62.577 
X132.775 Y62.641 
G03 X132.282 Y63.104 I-1.211 J-0.796 
G01 X132.277 Y63.107 
X132.271 Y63.112 
X132.269 Y63.116 
X132.266 Y63.119 
X132.262 Y63.127 
X132.262 Y63.13 
X132.26 Y63.137 
X132.26 Y63.143 
X132.26 Y63.15 
X132.262 Y63.157 
X132.262 Y63.159 
X132.266 Y63.168 
X132.269 Y63.171 
X132.271 Y63.175 
X132.277 Y63.18 
X132.281 Y63.183 
X132.29 Y63.187 
X132.291 Y63.188 
X132.296 Y63.189 
X132.306 Y63.19 
X132.308 Y63.19 
X132.318 Y63.189 
X132.323 Y63.188 
X132.324 Y63.187 
X132.333 Y63.183 
X132.337 Y63.18 
X132.342 Y63.175 
X132.347 Y63.17 
X132.369 Y63.133 
G03 X132.868 Y62.654 I1.225 J0.775 
G01 X132.882 Y62.644 
X132.886 Y62.641 
X132.892 Y62.633 
X132.917 Y62.595 
G03 X133.424 Y62.126 I1.209 J0.799 
G01 X133.435 Y62.118 
X133.443 Y62.112 
X133.444 Y62.111 
X133.468 Y62.076 
G03 X133.989 Y61.608 I1.2 J0.813 
G01 X134 Y61.601 
X134.006 Y61.596 
X134.008 Y61.594 
X134.035 Y61.557 
G03 X134.564 Y61.1 I1.183 J0.837 
G01 X134.572 Y61.095 
X134.576 Y61.092 
X134.581 Y61.087 
X134.61 Y61.048 
G03 X135.143 Y60.605 I1.166 J0.861 
G01 X135.153 Y60.599 
X135.157 Y60.596 
X135.162 Y60.591 
X135.191 Y60.553 
G03 X135.733 Y60.118 I1.152 J0.88 
G01 X135.743 Y60.112 
X135.748 Y60.109 
X135.754 Y60.103 
X135.784 Y60.065 
G03 X136.325 Y59.645 I1.134 J0.903 
G01 X136.343 Y59.635 
X136.346 Y59.633 
X136.35 Y59.629 
X136.381 Y59.591 
G03 X136.936 Y59.177 I1.119 J0.921 
G01 X136.947 Y59.171 
X136.952 Y59.168 
X136.957 Y59.163 
X136.96 Y59.159 
X136.964 Y59.153 
X136.968 Y59.146 
X136.969 Y59.139 
X136.97 Y59.128 
X136.97 Y59.126 
X136.969 Y59.122 
X136.967 Y59.115 
X136.964 Y59.107 
X136.961 Y59.102 
X136.958 Y59.099 
X136.954 Y59.095 
X136.947 Y59.09 
X136.943 Y59.088 
X136.939 Y59.086 
X136.934 Y59.085 
X136.926 Y59.084 
X136.92 Y59.084 
X136.914 Y59.084 
X136.908 Y59.086 
X136.905 Y59.087 
G02 X137.613 Y60.958 I0.354 J0.935 
G00 Z5
(tool change to 3 mm Slot Cutter)
T1 M06 G43
G90
(Sketch 78)
X147.807 Y116.643 S7000 M03
Z2
G01 Z17 F100
G02 X147.807 Y118.643 I0 J1 F200
G01 X156.307 Y118.643 
X156.307 Y105.643 
X139.307 Y105.643 
X139.307 Y118.643 
X147.807 Y118.643 
G02 X147.807 Y116.643 I0 J-1 
G00 Z5
G90
(Sketch 208)
X38.299 Y22.433 S7000 M03
Z2
G01 Z17 F100
G02 X36.315 Y22.683 I-0.992 J0.125 F200
G01 X36.46 Y23.836 
X36.726 Y24.869 
X37.119 Y25.861 
X37.633 Y26.796 
X38.26 Y27.66 
X38.99 Y28.438 
X39.812 Y29.117 
X40.714 Y29.689 
X41.679 Y30.144 
X42.694 Y30.474 
X43.742 Y30.673 
X44.854 Y30.743 
X51.607 Y30.743 
G03 X51.702 Y30.746 I0 J1.5 
G01 X52.73 Y30.811 
G03 X52.916 Y30.835 I-0.094 J1.497 
G01 X53.927 Y31.028 
G03 X54.109 Y31.075 I-0.281 J1.473 
G01 X55.089 Y31.393 
G03 X55.265 Y31.462 I-0.462 J1.426 
G01 X56.196 Y31.9 
G03 X56.361 Y31.991 I-0.638 J1.357 
G01 X57.231 Y32.543 
G03 X57.383 Y32.654 I-0.803 J1.266 
G01 X58.176 Y33.31 
G03 X58.314 Y33.439 I-0.956 J1.155 
G01 X59.019 Y34.19 
G03 X59.139 Y34.335 I-1.093 J1.026 
G01 X59.744 Y35.168 
G03 X59.844 Y35.326 I-1.213 J0.881 
G01 X60.341 Y36.229 
G03 X60.422 Y36.4 I-1.314 J0.723 
G01 X60.801 Y37.357 
G03 X60.859 Y37.536 I-1.394 J0.552 
G01 X61.115 Y38.533 
G03 X61.15 Y38.719 I-1.452 J0.373 
G01 X61.279 Y39.741 
G03 X61.291 Y39.928 I-1.488 J0.187 
G01 X61.291 Y40.225 
G03 X61.304 Y40.538 I-1.484 J0.218 
G01 X61.239 Y41.566 
G03 X61.215 Y41.753 I-1.497 J-0.094 
G01 X61.022 Y42.764 
G03 X60.976 Y42.945 I-1.473 J-0.281 
G01 X60.658 Y43.925 
G03 X60.588 Y44.101 I-1.426 J-0.462 
G01 X60.15 Y45.032 
G03 X60.06 Y45.197 I-1.357 J-0.638 
G01 X59.508 Y46.067 
G03 X59.397 Y46.22 I-1.266 J-0.803 
G01 X58.741 Y47.013 
G03 X58.612 Y47.15 I-1.155 J-0.956 
G01 X57.861 Y47.855 
G03 X57.715 Y47.975 I-1.026 J-1.093 
G01 X56.882 Y48.58 
G03 X56.724 Y48.681 I-0.881 J-1.213 
G01 X55.821 Y49.178 
G03 X55.65 Y49.258 I-0.723 J-1.314 
G01 X54.693 Y49.637 
G03 X54.514 Y49.695 I-0.552 J-1.394 
G01 X53.517 Y49.951 
G03 X53.332 Y49.987 I-0.373 J-1.452 
G01 X52.31 Y50.116 
G03 X52.122 Y50.127 I-0.187 J-1.488 
G01 X51.825 Y50.127 
G03 X51.607 Y50.143 I-0.218 J-1.484 
G01 X44.854 Y50.143 
X43.742 Y50.214 
X42.694 Y50.413 
X41.679 Y50.743 
X40.714 Y51.197 
X39.812 Y51.769 
X38.99 Y52.449 
X38.26 Y53.227 
X37.633 Y54.091 
X37.119 Y55.025 
X36.726 Y56.018 
X36.46 Y57.051 
X36.327 Y58.11 
X36.327 Y58.643 
G03 X36.307 Y58.886 I-1.5 J0 
G01 X36.307 Y60.226 
G03 X36.366 Y60.643 I-1.44 J0.417 
G01 X36.366 Y62.433 
X36.815 Y65.983 
X37.705 Y69.45 
X39.022 Y72.776 
X40.746 Y75.913 
X42.85 Y78.808 
X45.299 Y81.417 
X48.057 Y83.699 
X51.078 Y85.615 
X54.316 Y87.139 
X57.72 Y88.245 
X61.235 Y88.915 
X64.854 Y89.143 
X112.563 Y89.143 
G03 X112.807 Y89.123 I0.244 J1.48 
G01 X113.341 Y89.123 
X114.4 Y88.99 
X115.432 Y88.725 
X116.425 Y88.332 
X117.36 Y87.817 
X118.223 Y87.19 
X119.001 Y86.46 
X119.681 Y85.638 
X120.253 Y84.737 
X120.708 Y83.771 
X121.037 Y82.757 
X121.237 Y81.708 
X121.307 Y80.596 
X121.307 Y59.643 
G03 X121.317 Y59.471 I1.5 J0 
G01 X121.317 Y59.329 
G03 X121.329 Y59.141 I1.5 J0 
G01 X121.408 Y58.518 
G03 X121.443 Y58.334 I1.488 J0.188 
G01 X121.599 Y57.726 
G03 X121.657 Y57.547 I1.452 J0.372 
G01 X121.888 Y56.963 
G03 X121.968 Y56.792 I1.394 J0.551 
G01 X122.27 Y56.242 
G03 X122.371 Y56.083 I1.314 J0.721 
G01 X122.74 Y55.575 
G03 X122.86 Y55.43 I1.213 J0.881 
G01 X123.29 Y54.972 
G03 X123.428 Y54.842 I1.093 J1.026 
G01 X123.912 Y54.442 
G03 X124.063 Y54.333 I0.955 J1.156 
G01 X124.593 Y53.996 
G03 X124.76 Y53.904 I0.804 J1.265 
G01 X125.328 Y53.637 
G03 X125.503 Y53.568 I0.638 J1.357 
G01 X126.101 Y53.374 
G03 X126.282 Y53.327 I0.462 J1.426 
G01 X126.898 Y53.209 
G03 X127.087 Y53.185 I0.282 J1.473 
G01 X127.714 Y53.146 
G03 X127.807 Y53.143 I0.093 J1.497 
G01 X167.807 Y53.143 
G03 X167.98 Y53.153 I0 J1.5 
G01 X168.121 Y53.153 
G03 X168.31 Y53.165 I0 J1.5 
G01 X168.933 Y53.244 
G03 X169.117 Y53.279 I-0.188 J1.488 
G01 X169.725 Y53.435 
G03 X169.904 Y53.494 I-0.372 J1.452 
G01 X170.488 Y53.725 
G03 X170.658 Y53.805 I-0.551 J1.394 
G01 X171.208 Y54.107 
G03 X171.367 Y54.208 I-0.721 J1.314 
G01 X171.875 Y54.577 
G03 X172.021 Y54.697 I-0.881 J1.213 
G01 X172.479 Y55.127 
G03 X172.608 Y55.265 I-1.026 J1.093 
G01 X173.008 Y55.749 
G03 X173.118 Y55.9 I-1.156 J0.955 
G01 X173.455 Y56.43 
G03 X173.546 Y56.596 I-1.265 J0.804 
G01 X173.813 Y57.164 
G03 X173.883 Y57.34 I-1.357 J0.638 
G01 X174.077 Y57.938 
G03 X174.123 Y58.118 I-1.426 J0.462 
G01 X174.241 Y58.734 
G03 X174.265 Y58.923 I-1.473 J0.282 
G01 X174.304 Y59.55 
G03 X174.307 Y59.643 I-1.497 J0.093 
G01 X174.307 Y80.596 
X174.377 Y81.708 
X174.577 Y82.757 
X174.906 Y83.771 
X175.361 Y84.737 
X175.933 Y85.638 
X176.613 Y86.46 
X177.391 Y87.19 
X178.254 Y87.817 
X179.189 Y88.332 
X180.27 Y88.76 
G03 X180.331 Y88.786 I-0.552 J1.394 
G01 X181.421 Y89.275 
G03 X182.307 Y90.643 I-0.613 J1.368 
G01 X182.307 Y130.643 
G03 X180.807 Y132.143 I-1.5 J0 
G01 X19.807 Y132.143 
G03 X18.307 Y130.643 I0 J-1.5 
G01 X18.307 Y19.643 
G03 X19.807 Y18.143 I1.5 J0 
G01 X34.807 Y18.143 
G03 X36.307 Y19.643 I0 J1.5 
G01 X36.307 Y22.243 
G03 X34.807 Y20.743 I-1.5 J0 
G01 X34.827 Y20.743 
G02 X34.827 Y18.743 I0 J-1 
G00 Z5
(tool change to 2.9 mm Slot Cutter)
T10 M06 G43
G90
(Sketch 87)
X130.699 Y89.411 S7000 M03
Z2
G01 Z17 F100
G02 X132.654 Y89.832 I0.977 J0.21 F200
G03 X132.655 Y89.83 I3.25 J0.699 
G02 X132.561 Y89.824 I-0.047 J-0.002 
G03 X132.491 Y90.358 I-1.442 J0.082 
G01 X132.491 Y90.36 
G03 X132.429 Y90.898 I-1.458 J0.104 
X132.377 Y91.442 I-2.83 J0.003 
G01 X132.378 Y91.444 
G03 X132.337 Y91.967 I-1.46 J0.148 
G02 X132.343 Y92.253 I1.014 J0.121 
X132.302 Y92.525 I1.444 J0.356 
G03 X132.278 Y93.059 I-1.415 J0.203 
X132.264 Y93.599 I-1.45 J0.232 
X132.259 Y94.142 I-1.491 J0.257 
G01 X132.26 Y94.149 
G02 X132.308 Y94.19 I0.046 J-0.005 
X132.354 Y94.142 I-0.001 J-0.047 
G03 X132.359 Y93.601 I1.483 J-0.256 
X132.373 Y93.062 I1.44 J-0.232 
X132.396 Y92.525 I1.469 J-0.206 
X132.429 Y91.984 I1.519 J-0.178 
X132.471 Y91.444 I1.512 J-0.154 
X132.524 Y90.904 I2.82 J0.004 
X132.584 Y90.37 I1.508 J-0.1 
X132.654 Y89.832 I3.32 J0.161 
G02 X130.699 Y89.411 I-0.977 J-0.21 
G00 Z5
T0 M06 M02
