(Created with emc2b post processor 2016/07/25 21:37)
(tool change to 3 mm Slot Cutter)
T1 M06 G43
G17 G90 G21
G00 X45 Y415.5 S7000 M03
Z5
G83 Q3 G98 X45 Y415.5 Z-18 R2 F100
X65 Y399.5 
X65 Y415.5 
X45 Y399.5 
X190 Y415.5 
X210 Y415.5 
X210 Y399.5 
X190 Y399.5 
X335 Y415.5 
X355 Y415.5 
X355 Y399.5 
X335 Y399.5 
X27 Y363 
X43 Y363 
X43 Y343 
X27 Y343 
X357 Y363 
X373 Y363 
X373 Y343 
X357 Y343 
X355 Y288 
X355 Y272 
X45 Y288 
X45 Y272 
X45 Y12.5 
X65 Y12.5 
X65 Y-3.5 
X45 Y-3.5 
X190 Y12.5 
X210 Y12.5 
X210 Y-3.5 
X190 Y-3.5 
X335 Y12.5 
X355 Y12.5 
X355 Y-3.5 
X335 Y-3.5 
X247 Y396 
X247 Y396 
X153 Y396 
X137 Y396 
X215.5 Y389.5 
X94 Y335.8 
X103.5 Y335.8 
X50.5 Y258.5 
X349.5 Y258.5 
X19.5 Y258.5 
X380.5 Y258.5 
X19.5 Y227.5 
X50.5 Y227.5 
X349.5 Y227.5 
X380.5 Y227.5 
X137 Y16 
X153 Y16 
X247 Y16 
X263 Y16 
X263 Y396 
G80
G00 X145.3 Y402.3 S7000 M03
Z2
G01 Z-2.75 
X145.3 Y389.7 F150
X144.7 Y389.7 
X144.7 Y402.3 
X145.3 Y402.3 
X146.3 Y403.3 
X146.3 Y388.7 
X143.7 Y388.7 
X143.7 Y403.3 
X146.3 Y403.3 
X147.3 Y404.3 
X147.3 Y387.7 
X142.7 Y387.7 
X142.7 Y404.3 
X147.3 Y404.3 
G00 Z5
X145.3 Y402.3
Z-0.75
G01 Z-5.5 F100
X145.3 Y389.7 F150
X144.7 Y389.7 
X144.7 Y402.3 
X145.3 Y402.3 
X146.3 Y403.3 
X146.3 Y388.7 
X143.7 Y388.7 
X143.7 Y403.3 
X146.3 Y403.3 
X147.3 Y404.3 
X147.3 Y387.7 
X142.7 Y387.7 
X142.7 Y404.3 
X147.3 Y404.3 
G00 Z5
X255.3 Y402.3 S7000 M03
Z2
G01 Z-2.75 F100
X255.3 Y389.7 F150
X254.7 Y389.7 
X254.7 Y402.3 
X255.3 Y402.3 
X256.3 Y403.3 
X256.3 Y388.7 
X253.7 Y388.7 
X253.7 Y403.3 
X256.3 Y403.3 
X257.3 Y404.3 
X257.3 Y387.7 
X252.7 Y387.7 
X252.7 Y404.3 
X257.3 Y404.3 
G00 Z5
X255.3 Y402.3
Z-0.75
G01 Z-5.5 F100
X255.3 Y389.7 F150
X254.7 Y389.7 
X254.7 Y402.3 
X255.3 Y402.3 
X256.3 Y403.3 
X256.3 Y388.7 
X253.7 Y388.7 
X253.7 Y403.3 
X256.3 Y403.3 
X257.3 Y404.3 
X257.3 Y387.7 
X252.7 Y387.7 
X252.7 Y404.3 
X257.3 Y404.3 
G00 Z5
X200.279 Y364.718 S7000 M03
Z2
G01 Z-2.75 F100
X200.286 Y364.699 F150
X200.269 Y364.699 
X200.279 Y364.718 
X200.524 Y367.779 
G03 X201.802 Y363.7 I13.336 J1.938 
G01 X198.54 Y363.699 
G03 X200.524 Y367.779 I-15.932 J10.27 
G01 X200.558 Y372.483 
G03 X201.523 Y371.688 I9.534 J10.59 
X203.528 Y362.7 I12.566 J-1.914 
G01 X196.618 Y362.7 
G03 X196.725 Y362.832 I-1.536 J1.354 
X200.558 Y372.483 I-14.998 J11.543 
G01 X199.983 Y374.266 
G02 X200.17 Y374.196 I-0.015 J-0.324 
G03 X202.471 Y372.216 I16.346 J16.669 
G02 X202.535 Y371.713 I-0.351 J-0.3 
G03 X205.593 Y361.7 I11.62 J-1.924 
G01 X194.406 Y361.7 
G03 X199.599 Y372.881 I-12.757 J12.721 
X199.716 Y373.987 I-10.724 J1.693 
G02 X199.983 Y374.266 I0.285 J-0.005 
G01 X199.962 Y375.274 
G02 X200.785 Y374.992 I0.009 J-1.313 
G03 X202.98 Y373.099 I13.677 J13.64 
G02 X203.513 Y371.505 I-0.793 J-1.151 
G03 X207.085 Y361.645 I10.668 J-1.711 
X208.249 Y360.7 I7.978 J8.638 
G01 X191.734 Y360.7 
G03 X198.607 Y373.005 I-10.14 J13.736 
X198.725 Y374.142 I-10.681 J1.683 
G02 X199.962 Y375.274 I1.272 J-0.148 
G01 X199.944 Y376.279 
G02 X201.411 Y375.778 I0.024 J-2.325 
G03 X203.617 Y373.871 I13.713 J13.634 
G02 X204.496 Y371.317 I-1.391 J-1.907 
G03 X207.732 Y362.41 I9.679 J-1.524 
X211.921 Y359.7 I10.471 J11.594 
G01 X188.045 Y359.7 
G03 X197.615 Y373.129 I-6.486 J14.747 
X197.733 Y374.286 I-10.179 J1.622 
G02 X199.944 Y376.279 I2.266 J-0.291 
G01 X199.925 Y377.282 
G02 X202.046 Y376.555 I0.049 J-3.312 
G03 X204.255 Y374.643 I13.637 J13.523 
G02 X205.481 Y371.142 I-2 J-2.665 
G03 X208.378 Y363.174 I8.691 J-1.35 
X216.299 Y359.468 I10.028 J11.116 
G01 X216.299 Y358.7 
X183.7 Y358.7 
X183.7 Y359.48 
G03 X196.623 Y373.252 I-2.156 J14.972 
X196.741 Y374.423 I-9.892 J1.588 
G02 X199.925 Y377.282 I3.261 J-0.429 
G01 X199.903 Y378.284 
G02 X202.688 Y377.326 I0.074 J-4.311 
G03 X204.891 Y375.417 I13.295 J13.117 
G02 X206.466 Y370.97 I-2.611 J-3.427 
G03 X207.547 Y365.673 I7.804 J-1.166 
X209.023 Y363.939 I6.595 J4.119 
X217.299 Y360.358 I9.416 J10.407 
G01 X217.299 Y357.7 
X182.7 Y357.7 
X182.7 Y360.368 
G03 X195.631 Y373.375 I-1.167 J14.092 
X195.748 Y374.555 I-9.164 J1.504 
G02 X199.903 Y378.284 I4.253 J-0.559 
G01 X199.884 Y379.286 
G02 X203.333 Y378.096 I0.095 J-5.316 
G03 X205.532 Y376.186 I13.11 J12.873 
G02 X206.473 Y375.244 I-3.597 J-4.534 
X207.451 Y370.797 I-4.151 J-3.244 
G03 X207.634 Y367.924 I7.184 J-0.984 
X209.669 Y364.703 I6.472 J1.835 
X218.299 Y361.313 I8.774 J9.657 
G01 X218.299 Y356.7 
X181.7 Y356.7 
X181.7 Y361.32 
G03 X194.639 Y373.496 I-0.167 J13.14 
X194.755 Y374.681 I-8.543 J1.434 
G02 X199.884 Y379.286 I5.246 J-0.684 
G01 X200.389 Y380.276 
G02 X203.368 Y379.307 I-0.415 J-6.341 
G01 X203.978 Y378.864 
G03 X206.178 Y376.952 I12.915 J12.639 
G01 X206.83 Y376.358 
G02 X208.532 Y372.865 I-4.491 J-4.349 
X208.556 Y371.305 I-5.94 J-0.871 
G03 X208.445 Y368.894 I6.728 J-1.517 
X210.315 Y365.468 I5.651 J0.861 
X219.299 Y362.342 I8.131 J8.895 
G01 X219.299 Y355.7 
X180.7 Y355.7 
X180.7 Y362.347 
G03 X193.647 Y373.618 I0.831 J12.116 
X193.761 Y374.801 I-8.214 J1.388 
G02 X198.82 Y380.174 I6.231 J-0.798 
X200.389 Y380.276 I1.177 J-5.994 
G01 X200.454 Y381.276 
X201.365 Y381.158 
X202.251 Y380.931 
X203.102 Y380.595 
X203.906 Y380.153 
X204.624 Y379.631 
G03 X206.823 Y377.719 I12.694 J12.379 
G01 X207.551 Y377.055 
X208.144 Y376.358 
X208.646 Y375.592 
X209.047 Y374.771 
X209.341 Y373.904 
X209.525 Y373.006 
X209.597 Y372.093 
X209.552 Y371.188 
G03 X209.381 Y369.643 I6.746 J-1.528 
X210.962 Y366.232 I4.706 J0.109 
X220.299 Y363.462 I7.499 J8.157 
G01 X220.299 Y354.7 
X179.7 Y354.7 
X179.7 Y363.466 
G03 X192.655 Y373.738 I1.826 J11.001 
X192.767 Y374.924 I-7.881 J1.342 
G01 X192.936 Y375.812 
X193.219 Y376.683 
X193.607 Y377.51 
X194.1 Y378.284 
X194.683 Y378.99 
X195.35 Y379.614 
X196.091 Y380.154 
X196.894 Y380.595 
X197.745 Y380.931 
X198.631 Y381.158 
X199.542 Y381.276 
X200.454 Y381.276 
X200.518 Y382.276 
X201.554 Y382.143 
X202.561 Y381.885 
X203.529 Y381.502 
X204.443 Y380.999 
X205.271 Y380.398 
G03 X207.469 Y378.485 I12.435 J12.068 
G01 X208.272 Y377.752 
X208.947 Y376.959 
X209.517 Y376.088 
X209.974 Y375.153 
X210.309 Y374.167 
X210.518 Y373.146 
X210.599 Y372.108 
X210.548 Y371.075 
G03 X210.378 Y369.721 I6.398 J-1.491 
X211.61 Y366.995 I3.708 J0.034 
X221.299 Y364.705 I6.871 J7.43 
G01 X221.299 Y353.7 
X178.7 Y353.7 
X178.7 Y364.708 
G03 X191.662 Y373.857 I2.816 J9.766 
X191.773 Y375.045 I-7.224 J1.274 
G01 X191.966 Y376.061 
X192.288 Y377.052 
X192.73 Y377.993 
X193.29 Y378.873 
X193.953 Y379.677 
X194.712 Y380.387 
X195.554 Y381 
X196.468 Y381.502 
X197.436 Y381.885 
X198.443 Y382.143 
X199.479 Y382.276 
X200.518 Y382.276 
X200.582 Y383.276 
X201.742 Y383.128 
X202.871 Y382.839 
X203.956 Y382.409 
X204.98 Y381.846 
X205.919 Y381.164 
G03 X208.114 Y379.251 I12.27 J11.863 
G01 X208.993 Y378.449 
X209.75 Y377.56 
X210.389 Y376.584 
X210.901 Y375.535 
X211.277 Y374.43 
X211.511 Y373.286 
X211.601 Y372.123 
X211.544 Y370.956 
G03 X211.376 Y369.792 I6.181 J-1.486 
X212.26 Y367.757 I2.701 J-0.035 
X222.3 Y366.13 I6.237 J6.698 
G01 X222.3 Y352.7 
X177.7 Y352.7 
X177.7 Y366.132 
X177.703 Y366.13 
G03 X190.669 Y373.977 I3.804 J8.349 
X190.778 Y375.163 I-6.417 J1.187 
G01 X190.996 Y376.31 
X191.357 Y377.421 
X191.853 Y378.476 
X192.48 Y379.462 
X193.223 Y380.363 
X194.074 Y381.16 
X195.018 Y381.846 
X196.042 Y382.409 
X197.127 Y382.839 
X198.256 Y383.128 
X199.416 Y383.276 
X200.582 Y383.276 
X200.646 Y384.276 
X201.93 Y384.113 
X203.181 Y383.792 
X204.383 Y383.316 
X205.517 Y382.693 
X206.563 Y381.933 
G03 X208.059 Y380.557 I17.581 J17.613 
X208.758 Y380.019 I7.6 J9.152 
G01 X209.714 Y379.146 
X210.553 Y378.161 
X211.261 Y377.079 
X211.828 Y375.917 
X212.244 Y374.693 
X212.504 Y373.426 
X212.603 Y372.137 
X212.54 Y370.845 
X212.4 Y370.051 
G03 X212.91 Y368.518 I1.672 J-0.295 
X223.3 Y367.867 I5.587 J5.939 
G01 X223.3 Y351.7 
X176.7 Y351.7 
X176.7 Y367.867 
G03 X189.678 Y374.111 I4.807 J6.616 
G01 X189.727 Y374.391 
X189.784 Y375.289 
X190.026 Y376.56 
X190.426 Y377.79 
X190.976 Y378.96 
X191.67 Y380.051 
X192.493 Y381.049 
X193.436 Y381.933 
X194.482 Y382.693 
X195.616 Y383.316 
X196.818 Y383.792 
X198.069 Y384.113 
X199.353 Y384.276 
X200.646 Y384.276 
G00 Z5
X200.279 Y364.718
Z-0.75
G01 Z-5.5 F100
X200.286 Y364.699 F150
X200.269 Y364.699 
X200.279 Y364.718 
X200.524 Y367.779 
G03 X201.802 Y363.7 I13.336 J1.938 
G01 X198.54 Y363.699 
G03 X200.524 Y367.779 I-15.932 J10.27 
G01 X200.558 Y372.483 
G03 X201.523 Y371.688 I9.534 J10.59 
X203.528 Y362.7 I12.566 J-1.914 
G01 X196.618 Y362.7 
G03 X196.725 Y362.832 I-1.536 J1.354 
X200.558 Y372.483 I-14.998 J11.543 
G01 X199.983 Y374.266 
G02 X200.17 Y374.196 I-0.015 J-0.324 
G03 X202.471 Y372.216 I16.346 J16.669 
G02 X202.535 Y371.713 I-0.351 J-0.3 
G03 X205.593 Y361.7 I11.62 J-1.924 
G01 X194.406 Y361.7 
G03 X199.599 Y372.881 I-12.757 J12.721 
X199.716 Y373.987 I-10.724 J1.693 
G02 X199.983 Y374.266 I0.285 J-0.005 
G01 X199.962 Y375.274 
G02 X200.785 Y374.992 I0.009 J-1.313 
G03 X202.98 Y373.099 I13.677 J13.64 
G02 X203.513 Y371.505 I-0.793 J-1.151 
G03 X207.085 Y361.645 I10.668 J-1.711 
X208.249 Y360.7 I7.978 J8.638 
G01 X191.734 Y360.7 
G03 X198.607 Y373.005 I-10.14 J13.736 
X198.725 Y374.142 I-10.681 J1.683 
G02 X199.962 Y375.274 I1.272 J-0.148 
G01 X199.944 Y376.279 
G02 X201.411 Y375.778 I0.024 J-2.325 
G03 X203.617 Y373.871 I13.713 J13.634 
G02 X204.496 Y371.317 I-1.391 J-1.907 
G03 X207.732 Y362.41 I9.679 J-1.524 
X211.921 Y359.7 I10.471 J11.594 
G01 X188.045 Y359.7 
G03 X197.615 Y373.129 I-6.486 J14.747 
X197.733 Y374.286 I-10.179 J1.622 
G02 X199.944 Y376.279 I2.266 J-0.291 
G01 X199.925 Y377.282 
G02 X202.046 Y376.555 I0.049 J-3.312 
G03 X204.255 Y374.643 I13.637 J13.523 
G02 X205.481 Y371.142 I-2 J-2.665 
G03 X208.378 Y363.174 I8.691 J-1.35 
X216.299 Y359.468 I10.028 J11.116 
G01 X216.299 Y358.7 
X183.7 Y358.7 
X183.7 Y359.48 
G03 X196.623 Y373.252 I-2.156 J14.972 
X196.741 Y374.423 I-9.892 J1.588 
G02 X199.925 Y377.282 I3.261 J-0.429 
G01 X199.903 Y378.284 
G02 X202.688 Y377.326 I0.074 J-4.311 
G03 X204.891 Y375.417 I13.295 J13.117 
G02 X206.466 Y370.97 I-2.611 J-3.427 
G03 X207.547 Y365.673 I7.804 J-1.166 
X209.023 Y363.939 I6.595 J4.119 
X217.299 Y360.358 I9.416 J10.407 
G01 X217.299 Y357.7 
X182.7 Y357.7 
X182.7 Y360.368 
G03 X195.631 Y373.375 I-1.167 J14.092 
X195.748 Y374.555 I-9.164 J1.504 
G02 X199.903 Y378.284 I4.253 J-0.559 
G01 X199.884 Y379.286 
G02 X203.333 Y378.096 I0.095 J-5.316 
G03 X205.532 Y376.186 I13.11 J12.873 
G02 X206.473 Y375.244 I-3.597 J-4.534 
X207.451 Y370.797 I-4.151 J-3.244 
G03 X207.634 Y367.924 I7.184 J-0.984 
X209.669 Y364.703 I6.472 J1.835 
X218.299 Y361.313 I8.774 J9.657 
G01 X218.299 Y356.7 
X181.7 Y356.7 
X181.7 Y361.32 
G03 X194.639 Y373.496 I-0.167 J13.14 
X194.755 Y374.681 I-8.543 J1.434 
G02 X199.884 Y379.286 I5.246 J-0.684 
G01 X200.389 Y380.276 
G02 X203.368 Y379.307 I-0.415 J-6.341 
G01 X203.978 Y378.864 
G03 X206.178 Y376.952 I12.915 J12.639 
G01 X206.83 Y376.358 
G02 X208.532 Y372.865 I-4.491 J-4.349 
X208.556 Y371.305 I-5.94 J-0.871 
G03 X208.445 Y368.894 I6.728 J-1.517 
X210.315 Y365.468 I5.651 J0.861 
X219.299 Y362.342 I8.131 J8.895 
G01 X219.299 Y355.7 
X180.7 Y355.7 
X180.7 Y362.347 
G03 X193.647 Y373.618 I0.831 J12.116 
X193.761 Y374.801 I-8.214 J1.388 
G02 X198.82 Y380.174 I6.231 J-0.798 
X200.389 Y380.276 I1.177 J-5.994 
G01 X200.454 Y381.276 
X201.365 Y381.158 
X202.251 Y380.931 
X203.102 Y380.595 
X203.906 Y380.153 
X204.624 Y379.631 
G03 X206.823 Y377.719 I12.694 J12.379 
G01 X207.551 Y377.055 
X208.144 Y376.358 
X208.646 Y375.592 
X209.047 Y374.771 
X209.341 Y373.904 
X209.525 Y373.006 
X209.597 Y372.093 
X209.552 Y371.188 
G03 X209.381 Y369.643 I6.746 J-1.528 
X210.962 Y366.232 I4.706 J0.109 
X220.299 Y363.462 I7.499 J8.157 
G01 X220.299 Y354.7 
X179.7 Y354.7 
X179.7 Y363.466 
G03 X192.655 Y373.738 I1.826 J11.001 
X192.767 Y374.924 I-7.881 J1.342 
G01 X192.936 Y375.812 
X193.219 Y376.683 
X193.607 Y377.51 
X194.1 Y378.284 
X194.683 Y378.99 
X195.35 Y379.614 
X196.091 Y380.154 
X196.894 Y380.595 
X197.745 Y380.931 
X198.631 Y381.158 
X199.542 Y381.276 
X200.454 Y381.276 
X200.518 Y382.276 
X201.554 Y382.143 
X202.561 Y381.885 
X203.529 Y381.502 
X204.443 Y380.999 
X205.271 Y380.398 
G03 X207.469 Y378.485 I12.435 J12.068 
G01 X208.272 Y377.752 
X208.947 Y376.959 
X209.517 Y376.088 
X209.974 Y375.153 
X210.309 Y374.167 
X210.518 Y373.146 
X210.599 Y372.108 
X210.548 Y371.075 
G03 X210.378 Y369.721 I6.398 J-1.491 
X211.61 Y366.995 I3.708 J0.034 
X221.299 Y364.705 I6.871 J7.43 
G01 X221.299 Y353.7 
X178.7 Y353.7 
X178.7 Y364.708 
G03 X191.662 Y373.857 I2.816 J9.766 
X191.773 Y375.045 I-7.224 J1.274 
G01 X191.966 Y376.061 
X192.288 Y377.052 
X192.73 Y377.993 
X193.29 Y378.873 
X193.953 Y379.677 
X194.712 Y380.387 
X195.554 Y381 
X196.468 Y381.502 
X197.436 Y381.885 
X198.443 Y382.143 
X199.479 Y382.276 
X200.518 Y382.276 
X200.582 Y383.276 
X201.742 Y383.128 
X202.871 Y382.839 
X203.956 Y382.409 
X204.98 Y381.846 
X205.919 Y381.164 
G03 X208.114 Y379.251 I12.27 J11.863 
G01 X208.993 Y378.449 
X209.75 Y377.56 
X210.389 Y376.584 
X210.901 Y375.535 
X211.277 Y374.43 
X211.511 Y373.286 
X211.601 Y372.123 
X211.544 Y370.956 
G03 X211.376 Y369.792 I6.181 J-1.486 
X212.26 Y367.757 I2.701 J-0.035 
X222.3 Y366.13 I6.237 J6.698 
G01 X222.3 Y352.7 
X177.7 Y352.7 
X177.7 Y366.132 
X177.703 Y366.13 
G03 X190.669 Y373.977 I3.804 J8.349 
X190.778 Y375.163 I-6.417 J1.187 
G01 X190.996 Y376.31 
X191.357 Y377.421 
X191.853 Y378.476 
X192.48 Y379.462 
X193.223 Y380.363 
X194.074 Y381.16 
X195.018 Y381.846 
X196.042 Y382.409 
X197.127 Y382.839 
X198.256 Y383.128 
X199.416 Y383.276 
X200.582 Y383.276 
X200.646 Y384.276 
X201.93 Y384.113 
X203.181 Y383.792 
X204.383 Y383.316 
X205.517 Y382.693 
X206.563 Y381.933 
G03 X208.059 Y380.557 I17.581 J17.613 
X208.758 Y380.019 I7.6 J9.152 
G01 X209.714 Y379.146 
X210.553 Y378.161 
X211.261 Y377.079 
X211.828 Y375.917 
X212.244 Y374.693 
X212.504 Y373.426 
X212.603 Y372.137 
X212.54 Y370.845 
X212.4 Y370.051 
G03 X212.91 Y368.518 I1.672 J-0.295 
X223.3 Y367.867 I5.587 J5.939 
G01 X223.3 Y351.7 
X176.7 Y351.7 
X176.7 Y367.867 
G03 X189.678 Y374.111 I4.807 J6.616 
G01 X189.727 Y374.391 
X189.784 Y375.289 
X190.026 Y376.56 
X190.426 Y377.79 
X190.976 Y378.96 
X191.67 Y380.051 
X192.493 Y381.049 
X193.436 Y381.933 
X194.482 Y382.693 
X195.616 Y383.316 
X196.818 Y383.792 
X198.069 Y384.113 
X199.353 Y384.276 
X200.646 Y384.276 
G00 Z5
X94.698 Y335.136 S7000 M03
Z2
G01 Z-2.75 F100
X94.698 Y336.451 F150
G03 X96.998 Y336.3 I2.244 J16.597 
G01 X103.77 Y336.299 
G02 X103.804 Y335.31 I0.003 J-0.494 
G01 X103.58 Y335.3 
X97 Y335.3 
G03 X94.698 Y335.136 I0.105 J-17.715 
G01 X93.698 Y337.636 
G03 X96.999 Y337.3 I3.249 J15.54 
G01 X103.853 Y337.299 
G02 X105.267 Y335.618 I-0.093 J-1.513 
X103.931 Y334.315 I-1.478 J0.179 
G01 X103.603 Y334.3 
X97 Y334.3 
G03 X93.698 Y333.953 I0.083 J-16.674 
G01 X93.698 Y337.636 
X92.699 Y332.683 
X92.699 Y338.91 
G03 X97 Y338.3 I4.267 J14.618 
G01 X103.534 Y338.3 
G02 X105.913 Y337.105 I0.193 J-2.579 
X104.049 Y333.32 I-2.122 J-1.306 
G01 X103.627 Y333.3 
X97 Y333.3 
G03 X92.699 Y332.683 I0.07 J-15.789 
G01 X91.699 Y340.295 
G03 X97 Y339.3 I5.301 J13.623 
G01 X103.542 Y339.3 
G02 X105.728 Y338.708 I0.179 J-3.67 
X104.67 Y332.417 I-1.935 J-2.908 
X103.652 Y332.3 I-0.962 J3.889 
G01 X97 Y332.3 
G03 X91.699 Y331.306 I0.076 J-15.04 
G01 X91.699 Y340.295 
X90.7 Y329.755 
X90.7 Y341.844 
G03 X91.864 Y341.3 I7.354 J14.219 
X97 Y340.3 I5.162 J12.826 
G01 X103.56 Y340.3 
G03 X104.102 Y340.281 I0.4 J3.681 
G02 X108.276 Y335.565 I-0.294 J-4.465 
G01 X108.279 Y335.477 
G02 X104.371 Y331.342 I-4.475 J0.315 
G01 X103.683 Y331.3 
X97 Y331.3 
G03 X93.368 Y330.803 I0.075 J-14.068 
X92.049 Y330.37 I4.971 J-17.371 
X90.7 Y329.755 I5.741 J-14.381 
G01 X89.7 Y327.985 
X89.7 Y343.613 
G03 X90.791 Y342.923 I8.905 J12.873 
X91.03 Y342.794 I3.275 J5.783 
X92.225 Y342.233 I11.786 J23.552 
X92.484 Y342.133 I1.589 J3.73 
X93.738 Y341.728 I6.685 J18.556 
X94.006 Y341.661 I1.26 J4.471 
X95.3 Y341.417 I3.56 J15.329 
X97 Y341.3 I2.065 J17.599 
G01 X103.598 Y341.3 
G03 X104.159 Y341.282 I0.389 J3.391 
G02 X109.276 Y335.601 I-0.346 J-5.456 
G01 X109.282 Y335.433 
G02 X104.494 Y330.348 I-5.481 J0.364 
G01 X103.714 Y330.3 
X97 Y330.3 
G03 X95.578 Y330.215 I0.799 J-25.307 
X95.239 Y330.172 I0.697 J-6.858 
X93.944 Y329.923 I3.04 J-19.303 
X93.679 Y329.853 I1.085 J-4.647 
X92.425 Y329.444 I6.674 J-22.59 
X92.166 Y329.339 I1.219 J-3.381 
X90.978 Y328.777 I6.649 J-15.592 
X90.734 Y328.642 I2.529 J-4.86 
G01 X89.7 Y327.985 
X88.7 Y325.824 
X88.7 Y345.775 
G03 X89.071 Y345.399 I2.998 J2.587 
G01 X90.039 Y344.599 
X90.21 Y344.474 
X91.27 Y343.801 
X91.457 Y343.699 
X92.593 Y343.164 
X92.793 Y343.085 
X93.988 Y342.697 
X94.194 Y342.644 
X95.427 Y342.409 
X95.639 Y342.382 
G03 X97 Y342.3 I1.855 J19.457 
G01 X103.637 Y342.3 
G03 X104.208 Y342.284 I0.367 J2.9 
G02 X110.291 Y335.877 I-0.405 J-6.476 
G03 X110.284 Y335.391 I2.669 J-0.281 
G02 X104.614 Y329.354 I-6.485 J0.41 
G01 X103.746 Y329.3 
X97 Y329.3 
G03 X95.639 Y329.217 I0.943 J-26.67 
G01 X95.427 Y329.19 
X94.194 Y328.955 
X93.988 Y328.902 
X92.793 Y328.514 
X92.593 Y328.435 
X91.457 Y327.9 
X91.27 Y327.798 
X90.21 Y327.125 
X90.039 Y327 
X89.071 Y326.2 
G03 X88.7 Y325.824 I2.627 J-2.963 
G00 Z5
X94.698 Y335.136
Z-0.75
G01 Z-5.5 F100
X94.698 Y336.451 F150
G03 X96.998 Y336.3 I2.244 J16.597 
G01 X103.77 Y336.299 
G02 X103.804 Y335.31 I0.003 J-0.494 
G01 X103.58 Y335.3 
X97 Y335.3 
G03 X94.698 Y335.136 I0.105 J-17.715 
G01 X93.698 Y337.636 
G03 X96.999 Y337.3 I3.249 J15.54 
G01 X103.853 Y337.299 
G02 X105.267 Y335.618 I-0.093 J-1.513 
X103.931 Y334.315 I-1.478 J0.179 
G01 X103.603 Y334.3 
X97 Y334.3 
G03 X93.698 Y333.953 I0.083 J-16.674 
G01 X93.698 Y337.636 
X92.699 Y332.683 
X92.699 Y338.91 
G03 X97 Y338.3 I4.267 J14.618 
G01 X103.534 Y338.3 
G02 X105.913 Y337.105 I0.193 J-2.579 
X104.049 Y333.32 I-2.122 J-1.306 
G01 X103.627 Y333.3 
X97 Y333.3 
G03 X92.699 Y332.683 I0.07 J-15.789 
G01 X91.699 Y340.295 
G03 X97 Y339.3 I5.301 J13.623 
G01 X103.542 Y339.3 
G02 X105.728 Y338.708 I0.179 J-3.67 
X104.67 Y332.417 I-1.935 J-2.908 
X103.652 Y332.3 I-0.962 J3.889 
G01 X97 Y332.3 
G03 X91.699 Y331.306 I0.076 J-15.04 
G01 X91.699 Y340.295 
X90.7 Y329.755 
X90.7 Y341.844 
G03 X91.864 Y341.3 I7.354 J14.219 
X97 Y340.3 I5.162 J12.826 
G01 X103.56 Y340.3 
G03 X104.102 Y340.281 I0.4 J3.681 
G02 X108.276 Y335.565 I-0.294 J-4.465 
G01 X108.279 Y335.477 
G02 X104.371 Y331.342 I-4.475 J0.315 
G01 X103.683 Y331.3 
X97 Y331.3 
G03 X93.368 Y330.803 I0.075 J-14.068 
X92.049 Y330.37 I4.971 J-17.371 
X90.7 Y329.755 I5.741 J-14.381 
G01 X89.7 Y327.985 
X89.7 Y343.613 
G03 X90.791 Y342.923 I8.905 J12.873 
X91.03 Y342.794 I3.275 J5.783 
X92.225 Y342.233 I11.786 J23.552 
X92.484 Y342.133 I1.589 J3.73 
X93.738 Y341.728 I6.685 J18.556 
X94.006 Y341.661 I1.26 J4.471 
X95.3 Y341.417 I3.56 J15.329 
X97 Y341.3 I2.065 J17.599 
G01 X103.598 Y341.3 
G03 X104.159 Y341.282 I0.389 J3.391 
G02 X109.276 Y335.601 I-0.346 J-5.456 
G01 X109.282 Y335.433 
G02 X104.494 Y330.348 I-5.481 J0.364 
G01 X103.714 Y330.3 
X97 Y330.3 
G03 X95.578 Y330.215 I0.799 J-25.307 
X95.239 Y330.172 I0.697 J-6.858 
X93.944 Y329.923 I3.04 J-19.303 
X93.679 Y329.853 I1.085 J-4.647 
X92.425 Y329.444 I6.674 J-22.59 
X92.166 Y329.339 I1.219 J-3.381 
X90.978 Y328.777 I6.649 J-15.592 
X90.734 Y328.642 I2.529 J-4.86 
G01 X89.7 Y327.985 
X88.7 Y325.824 
X88.7 Y345.775 
G03 X89.071 Y345.399 I2.998 J2.587 
G01 X90.039 Y344.599 
X90.21 Y344.474 
X91.27 Y343.801 
X91.457 Y343.699 
X92.593 Y343.164 
X92.793 Y343.085 
X93.988 Y342.697 
X94.194 Y342.644 
X95.427 Y342.409 
X95.639 Y342.382 
G03 X97 Y342.3 I1.855 J19.457 
G01 X103.637 Y342.3 
G03 X104.208 Y342.284 I0.367 J2.9 
G02 X110.291 Y335.877 I-0.405 J-6.476 
G03 X110.284 Y335.391 I2.669 J-0.281 
G02 X104.614 Y329.354 I-6.485 J0.41 
G01 X103.746 Y329.3 
X97 Y329.3 
G03 X95.639 Y329.217 I0.943 J-26.67 
G01 X95.427 Y329.19 
X94.194 Y328.955 
X93.988 Y328.902 
X92.793 Y328.514 
X92.593 Y328.435 
X91.457 Y327.9 
X91.27 Y327.798 
X90.21 Y327.125 
X90.039 Y327 
X89.071 Y326.2 
G03 X88.7 Y325.824 I2.627 J-2.963 
G00 Z5
X200.293 Y38.299 S7000 M03
Z2
G01 Z-2.75 F100
G02 X200.266 Y37.931 I-1.742 J-0.057 F150
X199.724 Y38.007 I-0.265 J0.074 
G01 X199.71 Y38.299 
X200.293 Y38.299 
X201.3 Y39.299 
G02 X201.282 Y37.963 I-13.369 J-0.488 
X198.729 Y37.879 I-1.279 J0.039 
X198.699 Y39.299 I14.563 J1.018 
G01 X201.3 Y39.299 
X202.3 Y40.299 
X202.3 Y38.299 
G02 X202.201 Y37.413 I-3.589 J-0.047 
X197.734 Y37.756 I-2.201 J0.584 
G01 X197.699 Y38.471 
X197.699 Y40.299 
X202.3 Y40.299 
X203.3 Y41.299 
X203.3 Y38.274 
G02 X203.171 Y37.158 I-4.383 J-0.058 
X196.739 Y37.64 I-3.171 J0.84 
G01 X196.7 Y38.447 
X196.7 Y41.299 
X203.3 Y41.299 
X204.3 Y42.299 
X204.3 Y38.242 
X204.249 Y37.457 
G02 X195.744 Y37.53 I-4.248 J0.541 
G01 X195.7 Y38.423 
X195.7 Y42.299 
X204.3 Y42.299 
X205.3 Y43.299 
X205.3 Y38.21 
X205.243 Y37.331 
G02 X194.749 Y37.422 I-5.241 J0.668 
G01 X194.7 Y38.398 
X194.7 Y43.299 
X205.3 Y43.299 
X206.3 Y44.299 
X206.3 Y38.178 
X206.238 Y37.211 
G02 X205.085 Y34.301 I-6.228 J0.784 
X200.435 Y31.728 I-5.069 J3.674 
G03 X199.879 Y31.716 I-0.169 J-5.053 
G02 X195.154 Y33.987 I0.087 J6.233 
X193.723 Y37.935 I4.743 J3.952 
G03 X193.7 Y38.373 I-5.528 J-0.07 
G01 X193.7 Y44.299 
X206.3 Y44.299 
X207.31 Y45.299 
G03 X207.3 Y44.999 I3.954 J-0.281 
G01 X207.3 Y38.146 
X207.232 Y37.085 
X207.06 Y36.185 
X206.777 Y35.313 
X206.389 Y34.486 
X205.896 Y33.712 
X205.313 Y33.006 
X204.646 Y32.382 
X203.905 Y31.842 
X203.102 Y31.401 
X202.251 Y31.065 
X201.366 Y30.838 
X200.493 Y30.728 
G03 X199.873 Y30.715 I-0.212 J-4.678 
G01 X199.084 Y30.766 
X198.184 Y30.936 
X197.313 Y31.219 
X196.486 Y31.607 
X195.712 Y32.1 
X195.005 Y32.683 
X194.382 Y33.349 
X193.843 Y34.09 
X193.401 Y34.894 
X193.065 Y35.745 
X192.838 Y36.63 
X192.725 Y37.522 
G03 X192.7 Y38.344 I-7.029 J0.197 
G01 X192.7 Y45 
G03 X192.688 Y45.299 I-7.885 J-0.166 
G01 X207.31 Y45.299 
X208.409 Y46.299 
G03 X208.3 Y44.999 I7.065 J-1.246 
G01 X208.3 Y38.115 
X208.226 Y36.959 
X208.031 Y35.936 
X207.709 Y34.945 
X207.267 Y34.004 
X206.707 Y33.124 
X206.044 Y32.32 
X205.285 Y31.61 
X204.443 Y30.997 
X203.529 Y30.495 
X202.561 Y30.112 
X201.554 Y29.854 
X200.548 Y29.727 
G03 X199.87 Y29.714 I-0.256 J-4.3 
G01 X198.959 Y29.772 
X197.936 Y29.966 
X196.945 Y30.288 
X196.004 Y30.73 
X195.124 Y31.29 
X194.32 Y31.953 
X193.61 Y32.711 
X192.998 Y33.554 
X192.495 Y34.468 
X192.112 Y35.436 
X191.854 Y36.443 
X191.725 Y37.462 
G03 X191.7 Y38.313 I-5.964 J0.25 
G01 X191.7 Y45 
G03 X191.587 Y46.299 I-7.208 J0.027 
G01 X208.409 Y46.299 
X209.654 Y47.3 
G03 X209.3 Y45 I7.435 J-2.321 
G01 X209.3 Y38.084 
X209.22 Y36.834 
X209.002 Y35.688 
X208.641 Y34.577 
X208.145 Y33.522 
X207.518 Y32.536 
X206.775 Y31.635 
X205.924 Y30.838 
X204.98 Y30.152 
X203.956 Y29.589 
X202.871 Y29.159 
X201.742 Y28.87 
X200.599 Y28.726 
G03 X199.869 Y28.713 I-0.288 J-4.296 
G01 X198.834 Y28.778 
X197.688 Y28.996 
X196.577 Y29.357 
X195.522 Y29.853 
X194.536 Y30.48 
X193.635 Y31.223 
X192.838 Y32.074 
X192.152 Y33.018 
X191.589 Y34.042 
X191.159 Y35.127 
X190.87 Y36.256 
X190.725 Y37.405 
G03 X190.7 Y38.279 I-5.185 J0.289 
G01 X190.7 Y45 
G03 X190.343 Y47.3 I-7.866 J-0.043 
G01 X209.654 Y47.3 
X211.171 Y48.3 
G03 X210.3 Y45 I5.873 J-3.315 
G01 X210.3 Y38.053 
X210.215 Y36.709 
X209.973 Y35.439 
X209.573 Y34.209 
X209.023 Y33.039 
X208.329 Y31.948 
X207.506 Y30.95 
X206.563 Y30.066 
X205.517 Y29.306 
X204.383 Y28.683 
X203.181 Y28.207 
X201.93 Y27.886 
X200.646 Y27.724 
G03 X199.872 Y27.711 I-0.323 J-3.816 
G01 X198.709 Y27.784 
X197.439 Y28.026 
X196.209 Y28.426 
X195.039 Y28.976 
X193.948 Y29.67 
X192.95 Y30.493 
X192.066 Y31.436 
X191.306 Y32.482 
X190.683 Y33.616 
X190.207 Y34.818 
X189.886 Y36.069 
X189.724 Y37.353 
G03 X189.7 Y38.243 I-4.517 J0.323 
G01 X189.7 Y45 
G03 X188.828 Y48.3 I-6.738 J-0.015 
G01 X211.171 Y48.3 
G00 Z5
X200.293 Y38.299
Z-0.75
G01 Z-5.5 F100
G02 X200.266 Y37.931 I-1.742 J-0.057 F150
X199.724 Y38.007 I-0.265 J0.074 
G01 X199.71 Y38.299 
X200.293 Y38.299 
X201.3 Y39.299 
G02 X201.282 Y37.963 I-13.369 J-0.488 
X198.729 Y37.879 I-1.279 J0.039 
X198.699 Y39.299 I14.563 J1.018 
G01 X201.3 Y39.299 
X202.3 Y40.299 
X202.3 Y38.299 
G02 X202.201 Y37.413 I-3.589 J-0.047 
X197.734 Y37.756 I-2.201 J0.584 
G01 X197.699 Y38.471 
X197.699 Y40.299 
X202.3 Y40.299 
X203.3 Y41.299 
X203.3 Y38.274 
G02 X203.171 Y37.158 I-4.383 J-0.058 
X196.739 Y37.64 I-3.171 J0.84 
G01 X196.7 Y38.447 
X196.7 Y41.299 
X203.3 Y41.299 
X204.3 Y42.299 
X204.3 Y38.242 
X204.249 Y37.457 
G02 X195.744 Y37.53 I-4.248 J0.541 
G01 X195.7 Y38.423 
X195.7 Y42.299 
X204.3 Y42.299 
X205.3 Y43.299 
X205.3 Y38.21 
X205.243 Y37.331 
G02 X194.749 Y37.422 I-5.241 J0.668 
G01 X194.7 Y38.398 
X194.7 Y43.299 
X205.3 Y43.299 
X206.3 Y44.299 
X206.3 Y38.178 
X206.238 Y37.211 
G02 X205.085 Y34.301 I-6.228 J0.784 
X200.435 Y31.728 I-5.069 J3.674 
G03 X199.879 Y31.716 I-0.169 J-5.053 
G02 X195.154 Y33.987 I0.087 J6.233 
X193.723 Y37.935 I4.743 J3.952 
G03 X193.7 Y38.373 I-5.528 J-0.07 
G01 X193.7 Y44.299 
X206.3 Y44.299 
X207.31 Y45.299 
G03 X207.3 Y44.999 I3.954 J-0.281 
G01 X207.3 Y38.146 
X207.232 Y37.085 
X207.06 Y36.185 
X206.777 Y35.313 
X206.389 Y34.486 
X205.896 Y33.712 
X205.313 Y33.006 
X204.646 Y32.382 
X203.905 Y31.842 
X203.102 Y31.401 
X202.251 Y31.065 
X201.366 Y30.838 
X200.493 Y30.728 
G03 X199.873 Y30.715 I-0.212 J-4.678 
G01 X199.084 Y30.766 
X198.184 Y30.936 
X197.313 Y31.219 
X196.486 Y31.607 
X195.712 Y32.1 
X195.005 Y32.683 
X194.382 Y33.349 
X193.843 Y34.09 
X193.401 Y34.894 
X193.065 Y35.745 
X192.838 Y36.63 
X192.725 Y37.522 
G03 X192.7 Y38.344 I-7.029 J0.197 
G01 X192.7 Y45 
G03 X192.688 Y45.299 I-7.885 J-0.166 
G01 X207.31 Y45.299 
X208.409 Y46.299 
G03 X208.3 Y44.999 I7.065 J-1.246 
G01 X208.3 Y38.115 
X208.226 Y36.959 
X208.031 Y35.936 
X207.709 Y34.945 
X207.267 Y34.004 
X206.707 Y33.124 
X206.044 Y32.32 
X205.285 Y31.61 
X204.443 Y30.997 
X203.529 Y30.495 
X202.561 Y30.112 
X201.554 Y29.854 
X200.548 Y29.727 
G03 X199.87 Y29.714 I-0.256 J-4.3 
G01 X198.959 Y29.772 
X197.936 Y29.966 
X196.945 Y30.288 
X196.004 Y30.73 
X195.124 Y31.29 
X194.32 Y31.953 
X193.61 Y32.711 
X192.998 Y33.554 
X192.495 Y34.468 
X192.112 Y35.436 
X191.854 Y36.443 
X191.725 Y37.462 
G03 X191.7 Y38.313 I-5.964 J0.25 
G01 X191.7 Y45 
G03 X191.587 Y46.299 I-7.208 J0.027 
G01 X208.409 Y46.299 
X209.654 Y47.3 
G03 X209.3 Y45 I7.435 J-2.321 
G01 X209.3 Y38.084 
X209.22 Y36.834 
X209.002 Y35.688 
X208.641 Y34.577 
X208.145 Y33.522 
X207.518 Y32.536 
X206.775 Y31.635 
X205.924 Y30.838 
X204.98 Y30.152 
X203.956 Y29.589 
X202.871 Y29.159 
X201.742 Y28.87 
X200.599 Y28.726 
G03 X199.869 Y28.713 I-0.288 J-4.296 
G01 X198.834 Y28.778 
X197.688 Y28.996 
X196.577 Y29.357 
X195.522 Y29.853 
X194.536 Y30.48 
X193.635 Y31.223 
X192.838 Y32.074 
X192.152 Y33.018 
X191.589 Y34.042 
X191.159 Y35.127 
X190.87 Y36.256 
X190.725 Y37.405 
G03 X190.7 Y38.279 I-5.185 J0.289 
G01 X190.7 Y45 
G03 X190.343 Y47.3 I-7.866 J-0.043 
G01 X209.654 Y47.3 
X211.171 Y48.3 
G03 X210.3 Y45 I5.873 J-3.315 
G01 X210.3 Y38.053 
X210.215 Y36.709 
X209.973 Y35.439 
X209.573 Y34.209 
X209.023 Y33.039 
X208.329 Y31.948 
X207.506 Y30.95 
X206.563 Y30.066 
X205.517 Y29.306 
X204.383 Y28.683 
X203.181 Y28.207 
X201.93 Y27.886 
X200.646 Y27.724 
G03 X199.872 Y27.711 I-0.323 J-3.816 
G01 X198.709 Y27.784 
X197.439 Y28.026 
X196.209 Y28.426 
X195.039 Y28.976 
X193.948 Y29.67 
X192.95 Y30.493 
X192.066 Y31.436 
X191.306 Y32.482 
X190.683 Y33.616 
X190.207 Y34.818 
X189.886 Y36.069 
X189.724 Y37.353 
G03 X189.7 Y38.243 I-4.517 J0.323 
G01 X189.7 Y45 
G03 X188.828 Y48.3 I-6.738 J-0.015 
G01 X211.171 Y48.3 
G00 Z5
X145.3 Y22.3 S7000 M03
Z2
G01 Z-2.75 F100
X145.3 Y9.7 F150
X144.7 Y9.7 
X144.7 Y22.3 
X145.3 Y22.3 
X146.3 Y23.3 
X146.3 Y8.7 
X143.7 Y8.7 
X143.7 Y23.3 
X146.3 Y23.3 
X147.3 Y24.3 
X147.3 Y7.7 
X142.7 Y7.7 
X142.7 Y24.3 
X147.3 Y24.3 
G00 Z5
X145.3 Y22.3
Z-0.75
G01 Z-5.5 F100
X145.3 Y9.7 F150
X144.7 Y9.7 
X144.7 Y22.3 
X145.3 Y22.3 
X146.3 Y23.3 
X146.3 Y8.7 
X143.7 Y8.7 
X143.7 Y23.3 
X146.3 Y23.3 
X147.3 Y24.3 
X147.3 Y7.7 
X142.7 Y7.7 
X142.7 Y24.3 
X147.3 Y24.3 
G00 Z5
X255.3 Y22.3 S7000 M03
Z2
G01 Z-2.75 F100
X255.3 Y9.7 F150
X254.7 Y9.7 
X254.7 Y22.3 
X255.3 Y22.3 
X256.3 Y23.3 
X256.3 Y8.7 
X253.7 Y8.7 
X253.7 Y23.3 
X256.3 Y23.3 
X257.3 Y24.3 
X257.3 Y7.7 
X252.7 Y7.7 
X252.7 Y24.3 
X257.3 Y24.3 
G00 Z5
X255.3 Y22.3
Z-0.75
G01 Z-5.5 F100
X255.3 Y9.7 F150
X254.7 Y9.7 
X254.7 Y22.3 
X255.3 Y22.3 
X256.3 Y23.3 
X256.3 Y8.7 
X253.7 Y8.7 
X253.7 Y23.3 
X256.3 Y23.3 
X257.3 Y24.3 
X257.3 Y7.7 
X252.7 Y7.7 
X252.7 Y24.3 
X257.3 Y24.3 
G00 Z5
(Sketch 98)
X28.469 Y237.596 S7000 M03
Z2
G01 Z-3 F100
G02 X26.928 Y236.321 I-0.77 J-0.637 F150
G01 X26.507 Y236.83 
X25.801 Y237.943 
X25.24 Y239.136 
X24.832 Y240.389 
X24.585 Y241.684 
X24.502 Y243 
X24.585 Y244.315 
X24.832 Y245.61 
X25.24 Y246.863 
X25.801 Y248.056 
X26.507 Y249.169 
X27.348 Y250.186 
X28.308 Y251.087 
X29.375 Y251.863 
X30.53 Y252.498 
X31.756 Y252.983 
X33.032 Y253.31 
X34.34 Y253.476 
X35.659 Y253.476 
X36.967 Y253.31 
X38.243 Y252.983 
X39.469 Y252.498 
X40.624 Y251.863 
X41.691 Y251.087 
X42.651 Y250.186 
X43.492 Y249.169 
X44.198 Y248.056 
X44.759 Y246.863 
X45.167 Y245.61 
X45.414 Y244.315 
X45.497 Y243 
X45.414 Y241.684 
X45.167 Y240.389 
X44.759 Y239.136 
X44.198 Y237.943 
X43.492 Y236.83 
X42.651 Y235.813 
X41.691 Y234.912 
X40.624 Y234.136 
X39.469 Y233.501 
X38.243 Y233.016 
X36.967 Y232.689 
X35.659 Y232.524 
X34.34 Y232.524 
X33.032 Y232.689 
X31.756 Y233.016 
X30.53 Y233.501 
X29.375 Y234.136 
X28.308 Y234.912 
X27.348 Y235.813 
X26.928 Y236.321 
G02 X28.469 Y237.596 I0.77 J0.637 
G01 Z-6 F100
G02 X26.928 Y236.321 I-0.77 J-0.637 F150
G01 X26.507 Y236.83 
X25.801 Y237.943 
X25.24 Y239.136 
X24.832 Y240.389 
X24.585 Y241.684 
X24.502 Y243 
X24.585 Y244.315 
X24.832 Y245.61 
X25.24 Y246.863 
X25.801 Y248.056 
X26.507 Y249.169 
X27.348 Y250.186 
X28.308 Y251.087 
X29.375 Y251.863 
X30.53 Y252.498 
X31.756 Y252.983 
X33.032 Y253.31 
X34.34 Y253.476 
X35.659 Y253.476 
X36.967 Y253.31 
X38.243 Y252.983 
X39.469 Y252.498 
X40.624 Y251.863 
X41.691 Y251.087 
X42.651 Y250.186 
X43.492 Y249.169 
X44.198 Y248.056 
X44.759 Y246.863 
X45.167 Y245.61 
X45.414 Y244.315 
X45.497 Y243 
X45.414 Y241.684 
X45.167 Y240.389 
X44.759 Y239.136 
X44.198 Y237.943 
X43.492 Y236.83 
X42.651 Y235.813 
X41.691 Y234.912 
X40.624 Y234.136 
X39.469 Y233.501 
X38.243 Y233.016 
X36.967 Y232.689 
X35.659 Y232.524 
X34.34 Y232.524 
X33.032 Y232.689 
X31.756 Y233.016 
X30.53 Y233.501 
X29.375 Y234.136 
X28.308 Y234.912 
X27.348 Y235.813 
X26.928 Y236.321 
G02 X28.469 Y237.596 I0.77 J0.637 
G01 Z-9 F100
G02 X26.928 Y236.321 I-0.77 J-0.637 F150
G01 X26.507 Y236.83 
X25.801 Y237.943 
X25.24 Y239.136 
X24.832 Y240.389 
X24.585 Y241.684 
X24.502 Y243 
X24.585 Y244.315 
X24.832 Y245.61 
X25.24 Y246.863 
X25.801 Y248.056 
X26.507 Y249.169 
X27.348 Y250.186 
X28.308 Y251.087 
X29.375 Y251.863 
X30.53 Y252.498 
X31.756 Y252.983 
X33.032 Y253.31 
X34.34 Y253.476 
X35.659 Y253.476 
X36.967 Y253.31 
X38.243 Y252.983 
X39.469 Y252.498 
X40.624 Y251.863 
X41.691 Y251.087 
X42.651 Y250.186 
X43.492 Y249.169 
X44.198 Y248.056 
X44.759 Y246.863 
X45.167 Y245.61 
X45.414 Y244.315 
X45.497 Y243 
X45.414 Y241.684 
X45.167 Y240.389 
X44.759 Y239.136 
X44.198 Y237.943 
X43.492 Y236.83 
X42.651 Y235.813 
X41.691 Y234.912 
X40.624 Y234.136 
X39.469 Y233.501 
X38.243 Y233.016 
X36.967 Y232.689 
X35.659 Y232.524 
X34.34 Y232.524 
X33.032 Y232.689 
X31.756 Y233.016 
X30.53 Y233.501 
X29.375 Y234.136 
X28.308 Y234.912 
X27.348 Y235.813 
X26.928 Y236.321 
G02 X28.469 Y237.596 I0.77 J0.637 
G01 Z-12 F100
G02 X26.928 Y236.321 I-0.77 J-0.637 F150
G01 X26.507 Y236.83 
X25.801 Y237.943 
X25.24 Y239.136 
X24.832 Y240.389 
X24.585 Y241.684 
X24.502 Y243 
X24.585 Y244.315 
X24.832 Y245.61 
X25.24 Y246.863 
X25.801 Y248.056 
X26.507 Y249.169 
X27.348 Y250.186 
X28.308 Y251.087 
X29.375 Y251.863 
X30.53 Y252.498 
X31.756 Y252.983 
X33.032 Y253.31 
X34.34 Y253.476 
X35.659 Y253.476 
X36.967 Y253.31 
X38.243 Y252.983 
X39.469 Y252.498 
X40.624 Y251.863 
X41.691 Y251.087 
X42.651 Y250.186 
X43.492 Y249.169 
X44.198 Y248.056 
X44.759 Y246.863 
X45.167 Y245.61 
X45.414 Y244.315 
X45.497 Y243 
X45.414 Y241.684 
X45.167 Y240.389 
X44.759 Y239.136 
X44.198 Y237.943 
X43.492 Y236.83 
X42.651 Y235.813 
X41.691 Y234.912 
X40.624 Y234.136 
X39.469 Y233.501 
X38.243 Y233.016 
X36.967 Y232.689 
X35.659 Y232.524 
X34.34 Y232.524 
X33.032 Y232.689 
X31.756 Y233.016 
X30.53 Y233.501 
X29.375 Y234.136 
X28.308 Y234.912 
X27.348 Y235.813 
X26.928 Y236.321 
G02 X28.469 Y237.596 I0.77 J0.637 
G01 Z-15 F100
G02 X26.928 Y236.321 I-0.77 J-0.637 F150
G01 X26.507 Y236.83 
X25.801 Y237.943 
X25.24 Y239.136 
X24.832 Y240.389 
X24.585 Y241.684 
X24.502 Y243 
X24.585 Y244.315 
X24.832 Y245.61 
X25.24 Y246.863 
X25.801 Y248.056 
X26.507 Y249.169 
X27.348 Y250.186 
X28.308 Y251.087 
X29.375 Y251.863 
X30.53 Y252.498 
X31.756 Y252.983 
X33.032 Y253.31 
X34.34 Y253.476 
X35.659 Y253.476 
X36.967 Y253.31 
X38.243 Y252.983 
X39.469 Y252.498 
X40.624 Y251.863 
X41.691 Y251.087 
X42.651 Y250.186 
X43.492 Y249.169 
X44.198 Y248.056 
X44.759 Y246.863 
X45.167 Y245.61 
X45.414 Y244.315 
X45.497 Y243 
X45.414 Y241.684 
X45.167 Y240.389 
X44.759 Y239.136 
X44.198 Y237.943 
X43.492 Y236.83 
X42.651 Y235.813 
X41.691 Y234.912 
X40.624 Y234.136 
X39.469 Y233.501 
X38.243 Y233.016 
X36.967 Y232.689 
X35.659 Y232.524 
X34.34 Y232.524 
X33.032 Y232.689 
X31.756 Y233.016 
X30.53 Y233.501 
X29.375 Y234.136 
X28.308 Y234.912 
X27.348 Y235.813 
X26.928 Y236.321 
G02 X28.469 Y237.596 I0.77 J0.637 
G01 Z-18 F100
G02 X26.928 Y236.321 I-0.77 J-0.637 F150
G01 X26.507 Y236.83 
X25.801 Y237.943 
X25.24 Y239.136 
X24.832 Y240.389 
X24.585 Y241.684 
X24.502 Y243 
X24.585 Y244.315 
X24.832 Y245.61 
X25.24 Y246.863 
X25.801 Y248.056 
X26.507 Y249.169 
X27.348 Y250.186 
X28.308 Y251.087 
X29.375 Y251.863 
X30.53 Y252.498 
X31.756 Y252.983 
X33.032 Y253.31 
X34.34 Y253.476 
X35.659 Y253.476 
X36.967 Y253.31 
X38.243 Y252.983 
X39.469 Y252.498 
X40.624 Y251.863 
X41.691 Y251.087 
X42.651 Y250.186 
X43.492 Y249.169 
X44.198 Y248.056 
X44.759 Y246.863 
X45.167 Y245.61 
X45.414 Y244.315 
X45.497 Y243 
X45.414 Y241.684 
X45.167 Y240.389 
X44.759 Y239.136 
X44.198 Y237.943 
X43.492 Y236.83 
X42.651 Y235.813 
X41.691 Y234.912 
X40.624 Y234.136 
X39.469 Y233.501 
X38.243 Y233.016 
X36.967 Y232.689 
X35.659 Y232.524 
X34.34 Y232.524 
X33.032 Y232.689 
X31.756 Y233.016 
X30.53 Y233.501 
X29.375 Y234.136 
X28.308 Y234.912 
X27.348 Y235.813 
X26.928 Y236.321 
G02 X28.469 Y237.596 I0.77 J0.637 
G00 Z5
G90
(Sketch 106)
X18.483 Y243.092 S7000 M03
Z2
G01 Z-3 F100
G02 X20.447 Y243.467 I0.982 J0.187 F150
G01 X20.477 Y243.312 
X20.497 Y243 
X20.477 Y242.687 
X20.418 Y242.379 
X20.321 Y242.081 
X20.188 Y241.796 
X20.02 Y241.532 
X19.82 Y241.29 
X19.591 Y241.076 
X19.338 Y240.892 
X19.063 Y240.74 
X18.771 Y240.625 
X18.467 Y240.547 
X18.156 Y240.508 
X17.843 Y240.508 
X17.532 Y240.547 
X17.228 Y240.625 
X16.936 Y240.74 
X16.661 Y240.892 
X16.408 Y241.076 
X16.179 Y241.29 
X15.979 Y241.532 
X15.811 Y241.796 
X15.678 Y242.081 
X15.581 Y242.378 
X15.522 Y242.687 
X15.502 Y243 
X15.522 Y243.312 
X15.581 Y243.621 
X15.678 Y243.918 
X15.811 Y244.203 
X15.979 Y244.467 
X16.179 Y244.709 
X16.408 Y244.923 
X16.661 Y245.107 
X16.936 Y245.259 
X17.228 Y245.374 
X17.532 Y245.452 
X17.843 Y245.492 
X18.156 Y245.492 
X18.467 Y245.452 
X18.771 Y245.374 
X19.063 Y245.259 
X19.338 Y245.107 
X19.591 Y244.923 
X19.82 Y244.709 
X20.02 Y244.467 
X20.188 Y244.203 
X20.321 Y243.918 
X20.418 Y243.62 
X20.447 Y243.467 
G02 X18.483 Y243.092 I-0.982 J-0.187 
G01 Z-6 F100
G02 X20.447 Y243.467 I0.982 J0.187 F150
G01 X20.477 Y243.312 
X20.497 Y243 
X20.477 Y242.687 
X20.418 Y242.379 
X20.321 Y242.081 
X20.188 Y241.796 
X20.02 Y241.532 
X19.82 Y241.29 
X19.591 Y241.076 
X19.338 Y240.892 
X19.063 Y240.74 
X18.771 Y240.625 
X18.467 Y240.547 
X18.156 Y240.508 
X17.843 Y240.508 
X17.532 Y240.547 
X17.228 Y240.625 
X16.936 Y240.74 
X16.661 Y240.892 
X16.408 Y241.076 
X16.179 Y241.29 
X15.979 Y241.532 
X15.811 Y241.796 
X15.678 Y242.081 
X15.581 Y242.378 
X15.522 Y242.687 
X15.502 Y243 
X15.522 Y243.312 
X15.581 Y243.621 
X15.678 Y243.918 
X15.811 Y244.203 
X15.979 Y244.467 
X16.179 Y244.709 
X16.408 Y244.923 
X16.661 Y245.107 
X16.936 Y245.259 
X17.228 Y245.374 
X17.532 Y245.452 
X17.843 Y245.492 
X18.156 Y245.492 
X18.467 Y245.452 
X18.771 Y245.374 
X19.063 Y245.259 
X19.338 Y245.107 
X19.591 Y244.923 
X19.82 Y244.709 
X20.02 Y244.467 
X20.188 Y244.203 
X20.321 Y243.918 
X20.418 Y243.62 
X20.447 Y243.467 
G02 X18.483 Y243.092 I-0.982 J-0.187 
G01 Z-9 F100
G02 X20.447 Y243.467 I0.982 J0.187 F150
G01 X20.477 Y243.312 
X20.497 Y243 
X20.477 Y242.687 
X20.418 Y242.379 
X20.321 Y242.081 
X20.188 Y241.796 
X20.02 Y241.532 
X19.82 Y241.29 
X19.591 Y241.076 
X19.338 Y240.892 
X19.063 Y240.74 
X18.771 Y240.625 
X18.467 Y240.547 
X18.156 Y240.508 
X17.843 Y240.508 
X17.532 Y240.547 
X17.228 Y240.625 
X16.936 Y240.74 
X16.661 Y240.892 
X16.408 Y241.076 
X16.179 Y241.29 
X15.979 Y241.532 
X15.811 Y241.796 
X15.678 Y242.081 
X15.581 Y242.378 
X15.522 Y242.687 
X15.502 Y243 
X15.522 Y243.312 
X15.581 Y243.621 
X15.678 Y243.918 
X15.811 Y244.203 
X15.979 Y244.467 
X16.179 Y244.709 
X16.408 Y244.923 
X16.661 Y245.107 
X16.936 Y245.259 
X17.228 Y245.374 
X17.532 Y245.452 
X17.843 Y245.492 
X18.156 Y245.492 
X18.467 Y245.452 
X18.771 Y245.374 
X19.063 Y245.259 
X19.338 Y245.107 
X19.591 Y244.923 
X19.82 Y244.709 
X20.02 Y244.467 
X20.188 Y244.203 
X20.321 Y243.918 
X20.418 Y243.62 
X20.447 Y243.467 
G02 X18.483 Y243.092 I-0.982 J-0.187 
G01 Z-12 F100
G02 X20.447 Y243.467 I0.982 J0.187 F150
G01 X20.477 Y243.312 
X20.497 Y243 
X20.477 Y242.687 
X20.418 Y242.379 
X20.321 Y242.081 
X20.188 Y241.796 
X20.02 Y241.532 
X19.82 Y241.29 
X19.591 Y241.076 
X19.338 Y240.892 
X19.063 Y240.74 
X18.771 Y240.625 
X18.467 Y240.547 
X18.156 Y240.508 
X17.843 Y240.508 
X17.532 Y240.547 
X17.228 Y240.625 
X16.936 Y240.74 
X16.661 Y240.892 
X16.408 Y241.076 
X16.179 Y241.29 
X15.979 Y241.532 
X15.811 Y241.796 
X15.678 Y242.081 
X15.581 Y242.378 
X15.522 Y242.687 
X15.502 Y243 
X15.522 Y243.312 
X15.581 Y243.621 
X15.678 Y243.918 
X15.811 Y244.203 
X15.979 Y244.467 
X16.179 Y244.709 
X16.408 Y244.923 
X16.661 Y245.107 
X16.936 Y245.259 
X17.228 Y245.374 
X17.532 Y245.452 
X17.843 Y245.492 
X18.156 Y245.492 
X18.467 Y245.452 
X18.771 Y245.374 
X19.063 Y245.259 
X19.338 Y245.107 
X19.591 Y244.923 
X19.82 Y244.709 
X20.02 Y244.467 
X20.188 Y244.203 
X20.321 Y243.918 
X20.418 Y243.62 
X20.447 Y243.467 
G02 X18.483 Y243.092 I-0.982 J-0.187 
G01 Z-15 F100
G02 X20.447 Y243.467 I0.982 J0.187 F150
G01 X20.477 Y243.312 
X20.497 Y243 
X20.477 Y242.687 
X20.418 Y242.379 
X20.321 Y242.081 
X20.188 Y241.796 
X20.02 Y241.532 
X19.82 Y241.29 
X19.591 Y241.076 
X19.338 Y240.892 
X19.063 Y240.74 
X18.771 Y240.625 
X18.467 Y240.547 
X18.156 Y240.508 
X17.843 Y240.508 
X17.532 Y240.547 
X17.228 Y240.625 
X16.936 Y240.74 
X16.661 Y240.892 
X16.408 Y241.076 
X16.179 Y241.29 
X15.979 Y241.532 
X15.811 Y241.796 
X15.678 Y242.081 
X15.581 Y242.378 
X15.522 Y242.687 
X15.502 Y243 
X15.522 Y243.312 
X15.581 Y243.621 
X15.678 Y243.918 
X15.811 Y244.203 
X15.979 Y244.467 
X16.179 Y244.709 
X16.408 Y244.923 
X16.661 Y245.107 
X16.936 Y245.259 
X17.228 Y245.374 
X17.532 Y245.452 
X17.843 Y245.492 
X18.156 Y245.492 
X18.467 Y245.452 
X18.771 Y245.374 
X19.063 Y245.259 
X19.338 Y245.107 
X19.591 Y244.923 
X19.82 Y244.709 
X20.02 Y244.467 
X20.188 Y244.203 
X20.321 Y243.918 
X20.418 Y243.62 
X20.447 Y243.467 
G02 X18.483 Y243.092 I-0.982 J-0.187 
G01 Z-18 F100
G02 X20.447 Y243.467 I0.982 J0.187 F150
G01 X20.477 Y243.312 
X20.497 Y243 
X20.477 Y242.687 
X20.418 Y242.379 
X20.321 Y242.081 
X20.188 Y241.796 
X20.02 Y241.532 
X19.82 Y241.29 
X19.591 Y241.076 
X19.338 Y240.892 
X19.063 Y240.74 
X18.771 Y240.625 
X18.467 Y240.547 
X18.156 Y240.508 
X17.843 Y240.508 
X17.532 Y240.547 
X17.228 Y240.625 
X16.936 Y240.74 
X16.661 Y240.892 
X16.408 Y241.076 
X16.179 Y241.29 
X15.979 Y241.532 
X15.811 Y241.796 
X15.678 Y242.081 
X15.581 Y242.378 
X15.522 Y242.687 
X15.502 Y243 
X15.522 Y243.312 
X15.581 Y243.621 
X15.678 Y243.918 
X15.811 Y244.203 
X15.979 Y244.467 
X16.179 Y244.709 
X16.408 Y244.923 
X16.661 Y245.107 
X16.936 Y245.259 
X17.228 Y245.374 
X17.532 Y245.452 
X17.843 Y245.492 
X18.156 Y245.492 
X18.467 Y245.452 
X18.771 Y245.374 
X19.063 Y245.259 
X19.338 Y245.107 
X19.591 Y244.923 
X19.82 Y244.709 
X20.02 Y244.467 
X20.188 Y244.203 
X20.321 Y243.918 
X20.418 Y243.62 
X20.447 Y243.467 
G02 X18.483 Y243.092 I-0.982 J-0.187 
G00 Z5
G90
(Sketch 114)
X30.5 Y353 S7000 M03
Z2
G01 Z-3 F100
G02 X28.5 Y353 I-1 J0 F150
G01 X28.5 Y361.5 
X41.5 Y361.5 
X41.5 Y344.5 
X28.5 Y344.5 
X28.5 Y353 
G02 X30.5 Y353 I1 J0 
G01 Z-6 F100
G02 X28.5 Y353 I-1 J0 F150
G01 X28.5 Y361.5 
X41.5 Y361.5 
X41.5 Y344.5 
X28.5 Y344.5 
X28.5 Y353 
G02 X30.5 Y353 I1 J0 
G01 Z-9 F100
G02 X28.5 Y353 I-1 J0 F150
G01 X28.5 Y361.5 
X41.5 Y361.5 
X41.5 Y344.5 
X28.5 Y344.5 
X28.5 Y353 
G02 X30.5 Y353 I1 J0 
G01 Z-12 F100
G02 X28.5 Y353 I-1 J0 F150
G01 X28.5 Y361.5 
X41.5 Y361.5 
X41.5 Y344.5 
X28.5 Y344.5 
X28.5 Y353 
G02 X30.5 Y353 I1 J0 
G01 Z-15 F100
G02 X28.5 Y353 I-1 J0 F150
G01 X28.5 Y361.5 
X41.5 Y361.5 
X41.5 Y344.5 
X28.5 Y344.5 
X28.5 Y353 
G02 X30.5 Y353 I1 J0 
G01 Z-18 F100
G02 X28.5 Y353 I-1 J0 F150
G01 X28.5 Y361.5 
X41.5 Y361.5 
X41.5 Y344.5 
X28.5 Y344.5 
X28.5 Y353 
G02 X30.5 Y353 I1 J0 
G00 Z5
G90
(Sketch 115)
X55 Y412 S7000 M03
Z2
G01 Z-3 F100
G02 X55 Y414 I0 J1 F150
G01 X63.5 Y414 
X63.5 Y401 
X46.5 Y401 
X46.5 Y414 
X55 Y414 
G02 X55 Y412 I0 J-1 
G01 Z-6 F100
G02 X55 Y414 I0 J1 F150
G01 X63.5 Y414 
X63.5 Y401 
X46.5 Y401 
X46.5 Y414 
X55 Y414 
G02 X55 Y412 I0 J-1 
G01 Z-9 F100
G02 X55 Y414 I0 J1 F150
G01 X63.5 Y414 
X63.5 Y401 
X46.5 Y401 
X46.5 Y414 
X55 Y414 
G02 X55 Y412 I0 J-1 
G01 Z-12 F100
G02 X55 Y414 I0 J1 F150
G01 X63.5 Y414 
X63.5 Y401 
X46.5 Y401 
X46.5 Y414 
X55 Y414 
G02 X55 Y412 I0 J-1 
G01 Z-15 F100
G02 X55 Y414 I0 J1 F150
G01 X63.5 Y414 
X63.5 Y401 
X46.5 Y401 
X46.5 Y414 
X55 Y414 
G02 X55 Y412 I0 J-1 
G01 Z-18 F100
G02 X55 Y414 I0 J1 F150
G01 X63.5 Y414 
X63.5 Y401 
X46.5 Y401 
X46.5 Y414 
X55 Y414 
G02 X55 Y412 I0 J-1 
G00 Z5
G90
(Sketch 116)
X200 Y412 S7000 M03
Z2
G01 Z-3 F100
G02 X200 Y414 I0 J1 F150
G01 X208.5 Y414 
X208.5 Y401 
X191.5 Y401 
X191.5 Y414 
X200 Y414 
G02 X200 Y412 I0 J-1 
G01 Z-6 F100
G02 X200 Y414 I0 J1 F150
G01 X208.5 Y414 
X208.5 Y401 
X191.5 Y401 
X191.5 Y414 
X200 Y414 
G02 X200 Y412 I0 J-1 
G01 Z-9 F100
G02 X200 Y414 I0 J1 F150
G01 X208.5 Y414 
X208.5 Y401 
X191.5 Y401 
X191.5 Y414 
X200 Y414 
G02 X200 Y412 I0 J-1 
G01 Z-12 F100
G02 X200 Y414 I0 J1 F150
G01 X208.5 Y414 
X208.5 Y401 
X191.5 Y401 
X191.5 Y414 
X200 Y414 
G02 X200 Y412 I0 J-1 
G01 Z-15 F100
G02 X200 Y414 I0 J1 F150
G01 X208.5 Y414 
X208.5 Y401 
X191.5 Y401 
X191.5 Y414 
X200 Y414 
G02 X200 Y412 I0 J-1 
G01 Z-18 F100
G02 X200 Y414 I0 J1 F150
G01 X208.5 Y414 
X208.5 Y401 
X191.5 Y401 
X191.5 Y414 
X200 Y414 
G02 X200 Y412 I0 J-1 
G00 Z5
G90
(Sketch 117)
X206.494 Y364.623 S7000 M03
Z2
G01 Z-3 F100
G02 X207.482 Y362.884 I0.494 J-0.869 F150
G01 X206.909 Y362.558 
X205.69 Y362.056 
X204.418 Y361.711 
X203.113 Y361.527 
X201.795 Y361.509 
X200.484 Y361.656 
X199.204 Y361.965 
X197.971 Y362.433 
X196.807 Y363.052 
X195.728 Y363.815 
X195.658 Y363.878 
G03 X195.538 Y363.976 I-1.006 J-1.112 
G01 X195.285 Y364.16 
X195.22 Y364.222 
G03 X195.096 Y364.328 I-1.031 J-1.088 
G01 X194.845 Y364.518 
X194.78 Y364.582 
G03 X194.66 Y364.688 I-1.048 J-1.072 
G01 X194.412 Y364.883 
X194.345 Y364.95 
G03 X194.231 Y365.054 I-1.064 J-1.056 
G01 X193.987 Y365.254 
X193.922 Y365.322 
G03 X193.806 Y365.431 I-1.084 J-1.036 
G01 X193.565 Y365.635 
X193.501 Y365.704 
G03 X193.391 Y365.811 I-1.1 J-1.019 
G01 X193.153 Y366.02 
X193.091 Y366.09 
G03 X192.979 Y366.202 I-1.119 J-0.998 
G01 X192.747 Y366.413 
X192.688 Y366.482 
G03 X192.575 Y366.6 I-1.138 J-0.976 
G01 X192.347 Y366.814 
X191.507 Y367.83 
X190.801 Y368.943 
X190.24 Y370.136 
X189.832 Y371.389 
X189.586 Y372.684 
X189.502 Y374 
X189.586 Y375.315 
X189.832 Y376.61 
X190.24 Y377.863 
X190.801 Y379.056 
X191.507 Y380.169 
X192.347 Y381.186 
X193.308 Y382.087 
X194.375 Y382.863 
X195.53 Y383.498 
X196.756 Y383.983 
X198.032 Y384.31 
X199.341 Y384.476 
X200.658 Y384.476 
X201.967 Y384.31 
X203.243 Y383.983 
X204.469 Y383.498 
X205.624 Y382.863 
X206.691 Y382.087 
X207.721 Y381.121 
G03 X207.735 Y381.107 I1.026 J1.093 
G01 X207.863 Y380.99 
G03 X207.882 Y380.974 I1.012 J1.107 
G01 X208.012 Y380.859 
G03 X208.035 Y380.839 I0.993 J1.123 
G01 X208.167 Y380.727 
G03 X208.186 Y380.711 I0.97 J1.143 
G01 X208.32 Y380.601 
G03 X208.344 Y380.582 I0.951 J1.159 
G01 X208.48 Y380.475 
G03 X208.499 Y380.46 I0.927 J1.178 
G01 X208.637 Y380.355 
G03 X208.657 Y380.34 I0.908 J1.193 
G01 X208.797 Y380.237 
G03 X208.818 Y380.222 I0.888 J1.208 
G01 X208.883 Y380.175 
X209.858 Y379.285 
X210.713 Y378.281 
X211.435 Y377.178 
X212.013 Y375.994 
X212.437 Y374.746 
X212.702 Y373.454 
X212.804 Y372.14 
X212.739 Y370.823 
X212.511 Y369.525 
X212.121 Y368.266 
X211.575 Y367.065 
X210.885 Y365.942 
X210.06 Y364.915 
X209.111 Y363.999 
X208.056 Y363.21 
X207.482 Y362.884 
G02 X206.494 Y364.623 I-0.494 J0.869 
G01 Z-6 F100
G02 X207.482 Y362.884 I0.494 J-0.869 F150
G01 X206.909 Y362.558 
X205.69 Y362.056 
X204.418 Y361.711 
X203.113 Y361.527 
X201.795 Y361.509 
X200.484 Y361.656 
X199.204 Y361.965 
X197.971 Y362.433 
X196.807 Y363.052 
X195.728 Y363.815 
X195.658 Y363.878 
G03 X195.538 Y363.976 I-1.006 J-1.112 
G01 X195.285 Y364.16 
X195.22 Y364.222 
G03 X195.096 Y364.328 I-1.031 J-1.088 
G01 X194.845 Y364.518 
X194.78 Y364.582 
G03 X194.66 Y364.688 I-1.048 J-1.072 
G01 X194.412 Y364.883 
X194.345 Y364.95 
G03 X194.231 Y365.054 I-1.064 J-1.056 
G01 X193.987 Y365.254 
X193.922 Y365.322 
G03 X193.806 Y365.431 I-1.084 J-1.036 
G01 X193.565 Y365.635 
X193.501 Y365.704 
G03 X193.391 Y365.811 I-1.1 J-1.019 
G01 X193.153 Y366.02 
X193.091 Y366.09 
G03 X192.979 Y366.202 I-1.119 J-0.998 
G01 X192.747 Y366.413 
X192.688 Y366.482 
G03 X192.575 Y366.6 I-1.138 J-0.976 
G01 X192.347 Y366.814 
X191.507 Y367.83 
X190.801 Y368.943 
X190.24 Y370.136 
X189.832 Y371.389 
X189.586 Y372.684 
X189.502 Y374 
X189.586 Y375.315 
X189.832 Y376.61 
X190.24 Y377.863 
X190.801 Y379.056 
X191.507 Y380.169 
X192.347 Y381.186 
X193.308 Y382.087 
X194.375 Y382.863 
X195.53 Y383.498 
X196.756 Y383.983 
X198.032 Y384.31 
X199.341 Y384.476 
X200.658 Y384.476 
X201.967 Y384.31 
X203.243 Y383.983 
X204.469 Y383.498 
X205.624 Y382.863 
X206.691 Y382.087 
X207.721 Y381.121 
G03 X207.735 Y381.107 I1.026 J1.093 
G01 X207.863 Y380.99 
G03 X207.882 Y380.974 I1.012 J1.107 
G01 X208.012 Y380.859 
G03 X208.035 Y380.839 I0.993 J1.123 
G01 X208.167 Y380.727 
G03 X208.186 Y380.711 I0.97 J1.143 
G01 X208.32 Y380.601 
G03 X208.344 Y380.582 I0.951 J1.159 
G01 X208.48 Y380.475 
G03 X208.499 Y380.46 I0.927 J1.178 
G01 X208.637 Y380.355 
G03 X208.657 Y380.34 I0.908 J1.193 
G01 X208.797 Y380.237 
G03 X208.818 Y380.222 I0.888 J1.208 
G01 X208.883 Y380.175 
X209.858 Y379.285 
X210.713 Y378.281 
X211.435 Y377.178 
X212.013 Y375.994 
X212.437 Y374.746 
X212.702 Y373.454 
X212.804 Y372.14 
X212.739 Y370.823 
X212.511 Y369.525 
X212.121 Y368.266 
X211.575 Y367.065 
X210.885 Y365.942 
X210.06 Y364.915 
X209.111 Y363.999 
X208.056 Y363.21 
X207.482 Y362.884 
G02 X206.494 Y364.623 I-0.494 J0.869 
G01 Z-9 F100
G02 X207.482 Y362.884 I0.494 J-0.869 F150
G01 X206.909 Y362.558 
X205.69 Y362.056 
X204.418 Y361.711 
X203.113 Y361.527 
X201.795 Y361.509 
X200.484 Y361.656 
X199.204 Y361.965 
X197.971 Y362.433 
X196.807 Y363.052 
X195.728 Y363.815 
X195.658 Y363.878 
G03 X195.538 Y363.976 I-1.006 J-1.112 
G01 X195.285 Y364.16 
X195.22 Y364.222 
G03 X195.096 Y364.328 I-1.031 J-1.088 
G01 X194.845 Y364.518 
X194.78 Y364.582 
G03 X194.66 Y364.688 I-1.048 J-1.072 
G01 X194.412 Y364.883 
X194.345 Y364.95 
G03 X194.231 Y365.054 I-1.064 J-1.056 
G01 X193.987 Y365.254 
X193.922 Y365.322 
G03 X193.806 Y365.431 I-1.084 J-1.036 
G01 X193.565 Y365.635 
X193.501 Y365.704 
G03 X193.391 Y365.811 I-1.1 J-1.019 
G01 X193.153 Y366.02 
X193.091 Y366.09 
G03 X192.979 Y366.202 I-1.119 J-0.998 
G01 X192.747 Y366.413 
X192.688 Y366.482 
G03 X192.575 Y366.6 I-1.138 J-0.976 
G01 X192.347 Y366.814 
X191.507 Y367.83 
X190.801 Y368.943 
X190.24 Y370.136 
X189.832 Y371.389 
X189.586 Y372.684 
X189.502 Y374 
X189.586 Y375.315 
X189.832 Y376.61 
X190.24 Y377.863 
X190.801 Y379.056 
X191.507 Y380.169 
X192.347 Y381.186 
X193.308 Y382.087 
X194.375 Y382.863 
X195.53 Y383.498 
X196.756 Y383.983 
X198.032 Y384.31 
X199.341 Y384.476 
X200.658 Y384.476 
X201.967 Y384.31 
X203.243 Y383.983 
X204.469 Y383.498 
X205.624 Y382.863 
X206.691 Y382.087 
X207.721 Y381.121 
G03 X207.735 Y381.107 I1.026 J1.093 
G01 X207.863 Y380.99 
G03 X207.882 Y380.974 I1.012 J1.107 
G01 X208.012 Y380.859 
G03 X208.035 Y380.839 I0.993 J1.123 
G01 X208.167 Y380.727 
G03 X208.186 Y380.711 I0.97 J1.143 
G01 X208.32 Y380.601 
G03 X208.344 Y380.582 I0.951 J1.159 
G01 X208.48 Y380.475 
G03 X208.499 Y380.46 I0.927 J1.178 
G01 X208.637 Y380.355 
G03 X208.657 Y380.34 I0.908 J1.193 
G01 X208.797 Y380.237 
G03 X208.818 Y380.222 I0.888 J1.208 
G01 X208.883 Y380.175 
X209.858 Y379.285 
X210.713 Y378.281 
X211.435 Y377.178 
X212.013 Y375.994 
X212.437 Y374.746 
X212.702 Y373.454 
X212.804 Y372.14 
X212.739 Y370.823 
X212.511 Y369.525 
X212.121 Y368.266 
X211.575 Y367.065 
X210.885 Y365.942 
X210.06 Y364.915 
X209.111 Y363.999 
X208.056 Y363.21 
X207.482 Y362.884 
G02 X206.494 Y364.623 I-0.494 J0.869 
G01 Z-12 F100
G02 X207.482 Y362.884 I0.494 J-0.869 F150
G01 X206.909 Y362.558 
X205.69 Y362.056 
X204.418 Y361.711 
X203.113 Y361.527 
X201.795 Y361.509 
X200.484 Y361.656 
X199.204 Y361.965 
X197.971 Y362.433 
X196.807 Y363.052 
X195.728 Y363.815 
X195.658 Y363.878 
G03 X195.538 Y363.976 I-1.006 J-1.112 
G01 X195.285 Y364.16 
X195.22 Y364.222 
G03 X195.096 Y364.328 I-1.031 J-1.088 
G01 X194.845 Y364.518 
X194.78 Y364.582 
G03 X194.66 Y364.688 I-1.048 J-1.072 
G01 X194.412 Y364.883 
X194.345 Y364.95 
G03 X194.231 Y365.054 I-1.064 J-1.056 
G01 X193.987 Y365.254 
X193.922 Y365.322 
G03 X193.806 Y365.431 I-1.084 J-1.036 
G01 X193.565 Y365.635 
X193.501 Y365.704 
G03 X193.391 Y365.811 I-1.1 J-1.019 
G01 X193.153 Y366.02 
X193.091 Y366.09 
G03 X192.979 Y366.202 I-1.119 J-0.998 
G01 X192.747 Y366.413 
X192.688 Y366.482 
G03 X192.575 Y366.6 I-1.138 J-0.976 
G01 X192.347 Y366.814 
X191.507 Y367.83 
X190.801 Y368.943 
X190.24 Y370.136 
X189.832 Y371.389 
X189.586 Y372.684 
X189.502 Y374 
X189.586 Y375.315 
X189.832 Y376.61 
X190.24 Y377.863 
X190.801 Y379.056 
X191.507 Y380.169 
X192.347 Y381.186 
X193.308 Y382.087 
X194.375 Y382.863 
X195.53 Y383.498 
X196.756 Y383.983 
X198.032 Y384.31 
X199.341 Y384.476 
X200.658 Y384.476 
X201.967 Y384.31 
X203.243 Y383.983 
X204.469 Y383.498 
X205.624 Y382.863 
X206.691 Y382.087 
X207.721 Y381.121 
G03 X207.735 Y381.107 I1.026 J1.093 
G01 X207.863 Y380.99 
G03 X207.882 Y380.974 I1.012 J1.107 
G01 X208.012 Y380.859 
G03 X208.035 Y380.839 I0.993 J1.123 
G01 X208.167 Y380.727 
G03 X208.186 Y380.711 I0.97 J1.143 
G01 X208.32 Y380.601 
G03 X208.344 Y380.582 I0.951 J1.159 
G01 X208.48 Y380.475 
G03 X208.499 Y380.46 I0.927 J1.178 
G01 X208.637 Y380.355 
G03 X208.657 Y380.34 I0.908 J1.193 
G01 X208.797 Y380.237 
G03 X208.818 Y380.222 I0.888 J1.208 
G01 X208.883 Y380.175 
X209.858 Y379.285 
X210.713 Y378.281 
X211.435 Y377.178 
X212.013 Y375.994 
X212.437 Y374.746 
X212.702 Y373.454 
X212.804 Y372.14 
X212.739 Y370.823 
X212.511 Y369.525 
X212.121 Y368.266 
X211.575 Y367.065 
X210.885 Y365.942 
X210.06 Y364.915 
X209.111 Y363.999 
X208.056 Y363.21 
X207.482 Y362.884 
G02 X206.494 Y364.623 I-0.494 J0.869 
G01 Z-15 F100
G02 X207.482 Y362.884 I0.494 J-0.869 F150
G01 X206.909 Y362.558 
X205.69 Y362.056 
X204.418 Y361.711 
X203.113 Y361.527 
X201.795 Y361.509 
X200.484 Y361.656 
X199.204 Y361.965 
X197.971 Y362.433 
X196.807 Y363.052 
X195.728 Y363.815 
X195.658 Y363.878 
G03 X195.538 Y363.976 I-1.006 J-1.112 
G01 X195.285 Y364.16 
X195.22 Y364.222 
G03 X195.096 Y364.328 I-1.031 J-1.088 
G01 X194.845 Y364.518 
X194.78 Y364.582 
G03 X194.66 Y364.688 I-1.048 J-1.072 
G01 X194.412 Y364.883 
X194.345 Y364.95 
G03 X194.231 Y365.054 I-1.064 J-1.056 
G01 X193.987 Y365.254 
X193.922 Y365.322 
G03 X193.806 Y365.431 I-1.084 J-1.036 
G01 X193.565 Y365.635 
X193.501 Y365.704 
G03 X193.391 Y365.811 I-1.1 J-1.019 
G01 X193.153 Y366.02 
X193.091 Y366.09 
G03 X192.979 Y366.202 I-1.119 J-0.998 
G01 X192.747 Y366.413 
X192.688 Y366.482 
G03 X192.575 Y366.6 I-1.138 J-0.976 
G01 X192.347 Y366.814 
X191.507 Y367.83 
X190.801 Y368.943 
X190.24 Y370.136 
X189.832 Y371.389 
X189.586 Y372.684 
X189.502 Y374 
X189.586 Y375.315 
X189.832 Y376.61 
X190.24 Y377.863 
X190.801 Y379.056 
X191.507 Y380.169 
X192.347 Y381.186 
X193.308 Y382.087 
X194.375 Y382.863 
X195.53 Y383.498 
X196.756 Y383.983 
X198.032 Y384.31 
X199.341 Y384.476 
X200.658 Y384.476 
X201.967 Y384.31 
X203.243 Y383.983 
X204.469 Y383.498 
X205.624 Y382.863 
X206.691 Y382.087 
X207.721 Y381.121 
G03 X207.735 Y381.107 I1.026 J1.093 
G01 X207.863 Y380.99 
G03 X207.882 Y380.974 I1.012 J1.107 
G01 X208.012 Y380.859 
G03 X208.035 Y380.839 I0.993 J1.123 
G01 X208.167 Y380.727 
G03 X208.186 Y380.711 I0.97 J1.143 
G01 X208.32 Y380.601 
G03 X208.344 Y380.582 I0.951 J1.159 
G01 X208.48 Y380.475 
G03 X208.499 Y380.46 I0.927 J1.178 
G01 X208.637 Y380.355 
G03 X208.657 Y380.34 I0.908 J1.193 
G01 X208.797 Y380.237 
G03 X208.818 Y380.222 I0.888 J1.208 
G01 X208.883 Y380.175 
X209.858 Y379.285 
X210.713 Y378.281 
X211.435 Y377.178 
X212.013 Y375.994 
X212.437 Y374.746 
X212.702 Y373.454 
X212.804 Y372.14 
X212.739 Y370.823 
X212.511 Y369.525 
X212.121 Y368.266 
X211.575 Y367.065 
X210.885 Y365.942 
X210.06 Y364.915 
X209.111 Y363.999 
X208.056 Y363.21 
X207.482 Y362.884 
G02 X206.494 Y364.623 I-0.494 J0.869 
G01 Z-18 F100
G02 X207.482 Y362.884 I0.494 J-0.869 F150
G01 X206.909 Y362.558 
X205.69 Y362.056 
X204.418 Y361.711 
X203.113 Y361.527 
X201.795 Y361.509 
X200.484 Y361.656 
X199.204 Y361.965 
X197.971 Y362.433 
X196.807 Y363.052 
X195.728 Y363.815 
X195.658 Y363.878 
G03 X195.538 Y363.976 I-1.006 J-1.112 
G01 X195.285 Y364.16 
X195.22 Y364.222 
G03 X195.096 Y364.328 I-1.031 J-1.088 
G01 X194.845 Y364.518 
X194.78 Y364.582 
G03 X194.66 Y364.688 I-1.048 J-1.072 
G01 X194.412 Y364.883 
X194.345 Y364.95 
G03 X194.231 Y365.054 I-1.064 J-1.056 
G01 X193.987 Y365.254 
X193.922 Y365.322 
G03 X193.806 Y365.431 I-1.084 J-1.036 
G01 X193.565 Y365.635 
X193.501 Y365.704 
G03 X193.391 Y365.811 I-1.1 J-1.019 
G01 X193.153 Y366.02 
X193.091 Y366.09 
G03 X192.979 Y366.202 I-1.119 J-0.998 
G01 X192.747 Y366.413 
X192.688 Y366.482 
G03 X192.575 Y366.6 I-1.138 J-0.976 
G01 X192.347 Y366.814 
X191.507 Y367.83 
X190.801 Y368.943 
X190.24 Y370.136 
X189.832 Y371.389 
X189.586 Y372.684 
X189.502 Y374 
X189.586 Y375.315 
X189.832 Y376.61 
X190.24 Y377.863 
X190.801 Y379.056 
X191.507 Y380.169 
X192.347 Y381.186 
X193.308 Y382.087 
X194.375 Y382.863 
X195.53 Y383.498 
X196.756 Y383.983 
X198.032 Y384.31 
X199.341 Y384.476 
X200.658 Y384.476 
X201.967 Y384.31 
X203.243 Y383.983 
X204.469 Y383.498 
X205.624 Y382.863 
X206.691 Y382.087 
X207.721 Y381.121 
G03 X207.735 Y381.107 I1.026 J1.093 
G01 X207.863 Y380.99 
G03 X207.882 Y380.974 I1.012 J1.107 
G01 X208.012 Y380.859 
G03 X208.035 Y380.839 I0.993 J1.123 
G01 X208.167 Y380.727 
G03 X208.186 Y380.711 I0.97 J1.143 
G01 X208.32 Y380.601 
G03 X208.344 Y380.582 I0.951 J1.159 
G01 X208.48 Y380.475 
G03 X208.499 Y380.46 I0.927 J1.178 
G01 X208.637 Y380.355 
G03 X208.657 Y380.34 I0.908 J1.193 
G01 X208.797 Y380.237 
G03 X208.818 Y380.222 I0.888 J1.208 
G01 X208.883 Y380.175 
X209.858 Y379.285 
X210.713 Y378.281 
X211.435 Y377.178 
X212.013 Y375.994 
X212.437 Y374.746 
X212.702 Y373.454 
X212.804 Y372.14 
X212.739 Y370.823 
X212.511 Y369.525 
X212.121 Y368.266 
X211.575 Y367.065 
X210.885 Y365.942 
X210.06 Y364.915 
X209.111 Y363.999 
X208.056 Y363.21 
X207.482 Y362.884 
G02 X206.494 Y364.623 I-0.494 J0.869 
G00 Z5
G90
(Sketch 118)
X345 Y412 S7000 M03
Z2
G01 Z-3 F100
G02 X345 Y414 I0 J1 F150
G01 X353.5 Y414 
X353.5 Y401 
X336.5 Y401 
X336.5 Y414 
X345 Y414 
G02 X345 Y412 I0 J-1 
G01 Z-6 F100
G02 X345 Y414 I0 J1 F150
G01 X353.5 Y414 
X353.5 Y401 
X336.5 Y401 
X336.5 Y414 
X345 Y414 
G02 X345 Y412 I0 J-1 
G01 Z-9 F100
G02 X345 Y414 I0 J1 F150
G01 X353.5 Y414 
X353.5 Y401 
X336.5 Y401 
X336.5 Y414 
X345 Y414 
G02 X345 Y412 I0 J-1 
G01 Z-12 F100
G02 X345 Y414 I0 J1 F150
G01 X353.5 Y414 
X353.5 Y401 
X336.5 Y401 
X336.5 Y414 
X345 Y414 
G02 X345 Y412 I0 J-1 
G01 Z-15 F100
G02 X345 Y414 I0 J1 F150
G01 X353.5 Y414 
X353.5 Y401 
X336.5 Y401 
X336.5 Y414 
X345 Y414 
G02 X345 Y412 I0 J-1 
G01 Z-18 F100
G02 X345 Y414 I0 J1 F150
G01 X353.5 Y414 
X353.5 Y401 
X336.5 Y401 
X336.5 Y414 
X345 Y414 
G02 X345 Y412 I0 J-1 
G00 Z5
G90
(Sketch 123)
X360.5 Y353 S7000 M03
Z2
G01 Z-3 F100
G02 X358.5 Y353 I-1 J0 F150
G01 X358.5 Y361.5 
X371.5 Y361.5 
X371.5 Y344.5 
X358.5 Y344.5 
X358.5 Y353 
G02 X360.5 Y353 I1 J0 
G01 Z-6 F100
G02 X358.5 Y353 I-1 J0 F150
G01 X358.5 Y361.5 
X371.5 Y361.5 
X371.5 Y344.5 
X358.5 Y344.5 
X358.5 Y353 
G02 X360.5 Y353 I1 J0 
G01 Z-9 F100
G02 X358.5 Y353 I-1 J0 F150
G01 X358.5 Y361.5 
X371.5 Y361.5 
X371.5 Y344.5 
X358.5 Y344.5 
X358.5 Y353 
G02 X360.5 Y353 I1 J0 
G01 Z-12 F100
G02 X358.5 Y353 I-1 J0 F150
G01 X358.5 Y361.5 
X371.5 Y361.5 
X371.5 Y344.5 
X358.5 Y344.5 
X358.5 Y353 
G02 X360.5 Y353 I1 J0 
G01 Z-15 F100
G02 X358.5 Y353 I-1 J0 F150
G01 X358.5 Y361.5 
X371.5 Y361.5 
X371.5 Y344.5 
X358.5 Y344.5 
X358.5 Y353 
G02 X360.5 Y353 I1 J0 
G01 Z-18 F100
G02 X358.5 Y353 I-1 J0 F150
G01 X358.5 Y361.5 
X371.5 Y361.5 
X371.5 Y344.5 
X358.5 Y344.5 
X358.5 Y353 
G02 X360.5 Y353 I1 J0 
G00 Z5
G90
(Sketch 124)
X381.937 Y242.511 S7000 M03
Z2
G01 Z-3 F100
G02 X381.687 Y240.527 I-0.125 J-0.992 F150
G01 X381.531 Y240.547 
X381.228 Y240.625 
X380.937 Y240.74 
X380.661 Y240.892 
X380.407 Y241.076 
X380.179 Y241.29 
X379.98 Y241.532 
X379.812 Y241.796 
X379.678 Y242.081 
X379.581 Y242.378 
X379.523 Y242.687 
X379.503 Y243 
X379.523 Y243.312 
X379.581 Y243.621 
X379.678 Y243.918 
X379.812 Y244.203 
X379.98 Y244.467 
X380.179 Y244.709 
X380.407 Y244.923 
X380.661 Y245.107 
X380.937 Y245.259 
X381.228 Y245.374 
X381.531 Y245.452 
X381.843 Y245.492 
X382.156 Y245.492 
X382.468 Y245.452 
X382.771 Y245.374 
X383.062 Y245.259 
X383.338 Y245.107 
X383.592 Y244.923 
X383.82 Y244.709 
X384.019 Y244.467 
X384.187 Y244.203 
X384.321 Y243.918 
X384.418 Y243.621 
X384.476 Y243.312 
X384.496 Y243 
X384.476 Y242.687 
X384.418 Y242.378 
X384.321 Y242.081 
X384.187 Y241.796 
X384.019 Y241.532 
X383.82 Y241.29 
X383.592 Y241.076 
X383.338 Y240.892 
X383.062 Y240.74 
X382.771 Y240.625 
X382.468 Y240.547 
X382.156 Y240.508 
X381.843 Y240.508 
X381.687 Y240.527 
G02 X381.937 Y242.511 I0.125 J0.992 
G01 Z-6 F100
G02 X381.687 Y240.527 I-0.125 J-0.992 F150
G01 X381.531 Y240.547 
X381.228 Y240.625 
X380.937 Y240.74 
X380.661 Y240.892 
X380.407 Y241.076 
X380.179 Y241.29 
X379.98 Y241.532 
X379.812 Y241.796 
X379.678 Y242.081 
X379.581 Y242.378 
X379.523 Y242.687 
X379.503 Y243 
X379.523 Y243.312 
X379.581 Y243.621 
X379.678 Y243.918 
X379.812 Y244.203 
X379.98 Y244.467 
X380.179 Y244.709 
X380.407 Y244.923 
X380.661 Y245.107 
X380.937 Y245.259 
X381.228 Y245.374 
X381.531 Y245.452 
X381.843 Y245.492 
X382.156 Y245.492 
X382.468 Y245.452 
X382.771 Y245.374 
X383.062 Y245.259 
X383.338 Y245.107 
X383.592 Y244.923 
X383.82 Y244.709 
X384.019 Y244.467 
X384.187 Y244.203 
X384.321 Y243.918 
X384.418 Y243.621 
X384.476 Y243.312 
X384.496 Y243 
X384.476 Y242.687 
X384.418 Y242.378 
X384.321 Y242.081 
X384.187 Y241.796 
X384.019 Y241.532 
X383.82 Y241.29 
X383.592 Y241.076 
X383.338 Y240.892 
X383.062 Y240.74 
X382.771 Y240.625 
X382.468 Y240.547 
X382.156 Y240.508 
X381.843 Y240.508 
X381.687 Y240.527 
G02 X381.937 Y242.511 I0.125 J0.992 
G01 Z-9 F100
G02 X381.687 Y240.527 I-0.125 J-0.992 F150
G01 X381.531 Y240.547 
X381.228 Y240.625 
X380.937 Y240.74 
X380.661 Y240.892 
X380.407 Y241.076 
X380.179 Y241.29 
X379.98 Y241.532 
X379.812 Y241.796 
X379.678 Y242.081 
X379.581 Y242.378 
X379.523 Y242.687 
X379.503 Y243 
X379.523 Y243.312 
X379.581 Y243.621 
X379.678 Y243.918 
X379.812 Y244.203 
X379.98 Y244.467 
X380.179 Y244.709 
X380.407 Y244.923 
X380.661 Y245.107 
X380.937 Y245.259 
X381.228 Y245.374 
X381.531 Y245.452 
X381.843 Y245.492 
X382.156 Y245.492 
X382.468 Y245.452 
X382.771 Y245.374 
X383.062 Y245.259 
X383.338 Y245.107 
X383.592 Y244.923 
X383.82 Y244.709 
X384.019 Y244.467 
X384.187 Y244.203 
X384.321 Y243.918 
X384.418 Y243.621 
X384.476 Y243.312 
X384.496 Y243 
X384.476 Y242.687 
X384.418 Y242.378 
X384.321 Y242.081 
X384.187 Y241.796 
X384.019 Y241.532 
X383.82 Y241.29 
X383.592 Y241.076 
X383.338 Y240.892 
X383.062 Y240.74 
X382.771 Y240.625 
X382.468 Y240.547 
X382.156 Y240.508 
X381.843 Y240.508 
X381.687 Y240.527 
G02 X381.937 Y242.511 I0.125 J0.992 
G01 Z-12 F100
G02 X381.687 Y240.527 I-0.125 J-0.992 F150
G01 X381.531 Y240.547 
X381.228 Y240.625 
X380.937 Y240.74 
X380.661 Y240.892 
X380.407 Y241.076 
X380.179 Y241.29 
X379.98 Y241.532 
X379.812 Y241.796 
X379.678 Y242.081 
X379.581 Y242.378 
X379.523 Y242.687 
X379.503 Y243 
X379.523 Y243.312 
X379.581 Y243.621 
X379.678 Y243.918 
X379.812 Y244.203 
X379.98 Y244.467 
X380.179 Y244.709 
X380.407 Y244.923 
X380.661 Y245.107 
X380.937 Y245.259 
X381.228 Y245.374 
X381.531 Y245.452 
X381.843 Y245.492 
X382.156 Y245.492 
X382.468 Y245.452 
X382.771 Y245.374 
X383.062 Y245.259 
X383.338 Y245.107 
X383.592 Y244.923 
X383.82 Y244.709 
X384.019 Y244.467 
X384.187 Y244.203 
X384.321 Y243.918 
X384.418 Y243.621 
X384.476 Y243.312 
X384.496 Y243 
X384.476 Y242.687 
X384.418 Y242.378 
X384.321 Y242.081 
X384.187 Y241.796 
X384.019 Y241.532 
X383.82 Y241.29 
X383.592 Y241.076 
X383.338 Y240.892 
X383.062 Y240.74 
X382.771 Y240.625 
X382.468 Y240.547 
X382.156 Y240.508 
X381.843 Y240.508 
X381.687 Y240.527 
G02 X381.937 Y242.511 I0.125 J0.992 
G01 Z-15 F100
G02 X381.687 Y240.527 I-0.125 J-0.992 F150
G01 X381.531 Y240.547 
X381.228 Y240.625 
X380.937 Y240.74 
X380.661 Y240.892 
X380.407 Y241.076 
X380.179 Y241.29 
X379.98 Y241.532 
X379.812 Y241.796 
X379.678 Y242.081 
X379.581 Y242.378 
X379.523 Y242.687 
X379.503 Y243 
X379.523 Y243.312 
X379.581 Y243.621 
X379.678 Y243.918 
X379.812 Y244.203 
X379.98 Y244.467 
X380.179 Y244.709 
X380.407 Y244.923 
X380.661 Y245.107 
X380.937 Y245.259 
X381.228 Y245.374 
X381.531 Y245.452 
X381.843 Y245.492 
X382.156 Y245.492 
X382.468 Y245.452 
X382.771 Y245.374 
X383.062 Y245.259 
X383.338 Y245.107 
X383.592 Y244.923 
X383.82 Y244.709 
X384.019 Y244.467 
X384.187 Y244.203 
X384.321 Y243.918 
X384.418 Y243.621 
X384.476 Y243.312 
X384.496 Y243 
X384.476 Y242.687 
X384.418 Y242.378 
X384.321 Y242.081 
X384.187 Y241.796 
X384.019 Y241.532 
X383.82 Y241.29 
X383.592 Y241.076 
X383.338 Y240.892 
X383.062 Y240.74 
X382.771 Y240.625 
X382.468 Y240.547 
X382.156 Y240.508 
X381.843 Y240.508 
X381.687 Y240.527 
G02 X381.937 Y242.511 I0.125 J0.992 
G01 Z-18 F100
G02 X381.687 Y240.527 I-0.125 J-0.992 F150
G01 X381.531 Y240.547 
X381.228 Y240.625 
X380.937 Y240.74 
X380.661 Y240.892 
X380.407 Y241.076 
X380.179 Y241.29 
X379.98 Y241.532 
X379.812 Y241.796 
X379.678 Y242.081 
X379.581 Y242.378 
X379.523 Y242.687 
X379.503 Y243 
X379.523 Y243.312 
X379.581 Y243.621 
X379.678 Y243.918 
X379.812 Y244.203 
X379.98 Y244.467 
X380.179 Y244.709 
X380.407 Y244.923 
X380.661 Y245.107 
X380.937 Y245.259 
X381.228 Y245.374 
X381.531 Y245.452 
X381.843 Y245.492 
X382.156 Y245.492 
X382.468 Y245.452 
X382.771 Y245.374 
X383.062 Y245.259 
X383.338 Y245.107 
X383.592 Y244.923 
X383.82 Y244.709 
X384.019 Y244.467 
X384.187 Y244.203 
X384.321 Y243.918 
X384.418 Y243.621 
X384.476 Y243.312 
X384.496 Y243 
X384.476 Y242.687 
X384.418 Y242.378 
X384.321 Y242.081 
X384.187 Y241.796 
X384.019 Y241.532 
X383.82 Y241.29 
X383.592 Y241.076 
X383.338 Y240.892 
X383.062 Y240.74 
X382.771 Y240.625 
X382.468 Y240.547 
X382.156 Y240.508 
X381.843 Y240.508 
X381.687 Y240.527 
G02 X381.937 Y242.511 I0.125 J0.992 
G00 Z5
G90
(Sketch 130)
X363.937 Y234.59 S7000 M03
Z2
G01 Z-3 F100
G02 X363.687 Y232.606 I-0.125 J-0.992 F150
G01 X363.032 Y232.689 
X361.756 Y233.016 
X360.53 Y233.501 
X359.375 Y234.136 
X358.308 Y234.912 
X357.347 Y235.813 
X356.507 Y236.83 
X355.801 Y237.943 
X355.24 Y239.136 
X354.832 Y240.389 
X354.586 Y241.684 
X354.502 Y243 
X354.586 Y244.315 
X354.832 Y245.61 
X355.24 Y246.863 
X355.801 Y248.056 
X356.507 Y249.169 
X357.347 Y250.186 
X358.308 Y251.087 
X359.375 Y251.863 
X360.53 Y252.498 
X361.756 Y252.983 
X363.032 Y253.31 
X364.341 Y253.476 
X365.658 Y253.476 
X366.967 Y253.31 
X368.243 Y252.983 
X369.469 Y252.498 
X370.624 Y251.863 
X371.691 Y251.087 
X372.652 Y250.186 
X373.492 Y249.169 
X374.198 Y248.056 
X374.759 Y246.863 
X375.167 Y245.61 
X375.413 Y244.315 
X375.497 Y243 
X375.413 Y241.684 
X375.167 Y240.389 
X374.759 Y239.136 
X374.198 Y237.943 
X373.492 Y236.83 
X372.652 Y235.813 
X371.691 Y234.912 
X370.624 Y234.136 
X369.469 Y233.501 
X368.243 Y233.016 
X366.967 Y232.689 
X365.658 Y232.524 
X364.341 Y232.524 
X363.687 Y232.606 
G02 X363.937 Y234.59 I0.125 J0.992 
G01 Z-6 F100
G02 X363.687 Y232.606 I-0.125 J-0.992 F150
G01 X363.032 Y232.689 
X361.756 Y233.016 
X360.53 Y233.501 
X359.375 Y234.136 
X358.308 Y234.912 
X357.347 Y235.813 
X356.507 Y236.83 
X355.801 Y237.943 
X355.24 Y239.136 
X354.832 Y240.389 
X354.586 Y241.684 
X354.502 Y243 
X354.586 Y244.315 
X354.832 Y245.61 
X355.24 Y246.863 
X355.801 Y248.056 
X356.507 Y249.169 
X357.347 Y250.186 
X358.308 Y251.087 
X359.375 Y251.863 
X360.53 Y252.498 
X361.756 Y252.983 
X363.032 Y253.31 
X364.341 Y253.476 
X365.658 Y253.476 
X366.967 Y253.31 
X368.243 Y252.983 
X369.469 Y252.498 
X370.624 Y251.863 
X371.691 Y251.087 
X372.652 Y250.186 
X373.492 Y249.169 
X374.198 Y248.056 
X374.759 Y246.863 
X375.167 Y245.61 
X375.413 Y244.315 
X375.497 Y243 
X375.413 Y241.684 
X375.167 Y240.389 
X374.759 Y239.136 
X374.198 Y237.943 
X373.492 Y236.83 
X372.652 Y235.813 
X371.691 Y234.912 
X370.624 Y234.136 
X369.469 Y233.501 
X368.243 Y233.016 
X366.967 Y232.689 
X365.658 Y232.524 
X364.341 Y232.524 
X363.687 Y232.606 
G02 X363.937 Y234.59 I0.125 J0.992 
G01 Z-9 F100
G02 X363.687 Y232.606 I-0.125 J-0.992 F150
G01 X363.032 Y232.689 
X361.756 Y233.016 
X360.53 Y233.501 
X359.375 Y234.136 
X358.308 Y234.912 
X357.347 Y235.813 
X356.507 Y236.83 
X355.801 Y237.943 
X355.24 Y239.136 
X354.832 Y240.389 
X354.586 Y241.684 
X354.502 Y243 
X354.586 Y244.315 
X354.832 Y245.61 
X355.24 Y246.863 
X355.801 Y248.056 
X356.507 Y249.169 
X357.347 Y250.186 
X358.308 Y251.087 
X359.375 Y251.863 
X360.53 Y252.498 
X361.756 Y252.983 
X363.032 Y253.31 
X364.341 Y253.476 
X365.658 Y253.476 
X366.967 Y253.31 
X368.243 Y252.983 
X369.469 Y252.498 
X370.624 Y251.863 
X371.691 Y251.087 
X372.652 Y250.186 
X373.492 Y249.169 
X374.198 Y248.056 
X374.759 Y246.863 
X375.167 Y245.61 
X375.413 Y244.315 
X375.497 Y243 
X375.413 Y241.684 
X375.167 Y240.389 
X374.759 Y239.136 
X374.198 Y237.943 
X373.492 Y236.83 
X372.652 Y235.813 
X371.691 Y234.912 
X370.624 Y234.136 
X369.469 Y233.501 
X368.243 Y233.016 
X366.967 Y232.689 
X365.658 Y232.524 
X364.341 Y232.524 
X363.687 Y232.606 
G02 X363.937 Y234.59 I0.125 J0.992 
G01 Z-12 F100
G02 X363.687 Y232.606 I-0.125 J-0.992 F150
G01 X363.032 Y232.689 
X361.756 Y233.016 
X360.53 Y233.501 
X359.375 Y234.136 
X358.308 Y234.912 
X357.347 Y235.813 
X356.507 Y236.83 
X355.801 Y237.943 
X355.24 Y239.136 
X354.832 Y240.389 
X354.586 Y241.684 
X354.502 Y243 
X354.586 Y244.315 
X354.832 Y245.61 
X355.24 Y246.863 
X355.801 Y248.056 
X356.507 Y249.169 
X357.347 Y250.186 
X358.308 Y251.087 
X359.375 Y251.863 
X360.53 Y252.498 
X361.756 Y252.983 
X363.032 Y253.31 
X364.341 Y253.476 
X365.658 Y253.476 
X366.967 Y253.31 
X368.243 Y252.983 
X369.469 Y252.498 
X370.624 Y251.863 
X371.691 Y251.087 
X372.652 Y250.186 
X373.492 Y249.169 
X374.198 Y248.056 
X374.759 Y246.863 
X375.167 Y245.61 
X375.413 Y244.315 
X375.497 Y243 
X375.413 Y241.684 
X375.167 Y240.389 
X374.759 Y239.136 
X374.198 Y237.943 
X373.492 Y236.83 
X372.652 Y235.813 
X371.691 Y234.912 
X370.624 Y234.136 
X369.469 Y233.501 
X368.243 Y233.016 
X366.967 Y232.689 
X365.658 Y232.524 
X364.341 Y232.524 
X363.687 Y232.606 
G02 X363.937 Y234.59 I0.125 J0.992 
G01 Z-15 F100
G02 X363.687 Y232.606 I-0.125 J-0.992 F150
G01 X363.032 Y232.689 
X361.756 Y233.016 
X360.53 Y233.501 
X359.375 Y234.136 
X358.308 Y234.912 
X357.347 Y235.813 
X356.507 Y236.83 
X355.801 Y237.943 
X355.24 Y239.136 
X354.832 Y240.389 
X354.586 Y241.684 
X354.502 Y243 
X354.586 Y244.315 
X354.832 Y245.61 
X355.24 Y246.863 
X355.801 Y248.056 
X356.507 Y249.169 
X357.347 Y250.186 
X358.308 Y251.087 
X359.375 Y251.863 
X360.53 Y252.498 
X361.756 Y252.983 
X363.032 Y253.31 
X364.341 Y253.476 
X365.658 Y253.476 
X366.967 Y253.31 
X368.243 Y252.983 
X369.469 Y252.498 
X370.624 Y251.863 
X371.691 Y251.087 
X372.652 Y250.186 
X373.492 Y249.169 
X374.198 Y248.056 
X374.759 Y246.863 
X375.167 Y245.61 
X375.413 Y244.315 
X375.497 Y243 
X375.413 Y241.684 
X375.167 Y240.389 
X374.759 Y239.136 
X374.198 Y237.943 
X373.492 Y236.83 
X372.652 Y235.813 
X371.691 Y234.912 
X370.624 Y234.136 
X369.469 Y233.501 
X368.243 Y233.016 
X366.967 Y232.689 
X365.658 Y232.524 
X364.341 Y232.524 
X363.687 Y232.606 
G02 X363.937 Y234.59 I0.125 J0.992 
G01 Z-18 F100
G02 X363.687 Y232.606 I-0.125 J-0.992 F150
G01 X363.032 Y232.689 
X361.756 Y233.016 
X360.53 Y233.501 
X359.375 Y234.136 
X358.308 Y234.912 
X357.347 Y235.813 
X356.507 Y236.83 
X355.801 Y237.943 
X355.24 Y239.136 
X354.832 Y240.389 
X354.586 Y241.684 
X354.502 Y243 
X354.586 Y244.315 
X354.832 Y245.61 
X355.24 Y246.863 
X355.801 Y248.056 
X356.507 Y249.169 
X357.347 Y250.186 
X358.308 Y251.087 
X359.375 Y251.863 
X360.53 Y252.498 
X361.756 Y252.983 
X363.032 Y253.31 
X364.341 Y253.476 
X365.658 Y253.476 
X366.967 Y253.31 
X368.243 Y252.983 
X369.469 Y252.498 
X370.624 Y251.863 
X371.691 Y251.087 
X372.652 Y250.186 
X373.492 Y249.169 
X374.198 Y248.056 
X374.759 Y246.863 
X375.167 Y245.61 
X375.413 Y244.315 
X375.497 Y243 
X375.413 Y241.684 
X375.167 Y240.389 
X374.759 Y239.136 
X374.198 Y237.943 
X373.492 Y236.83 
X372.652 Y235.813 
X371.691 Y234.912 
X370.624 Y234.136 
X369.469 Y233.501 
X368.243 Y233.016 
X366.967 Y232.689 
X365.658 Y232.524 
X364.341 Y232.524 
X363.687 Y232.606 
G02 X363.937 Y234.59 I0.125 J0.992 
G00 Z5
G90
(Sketch 131)
X345 Y9 S7000 M03
Z2
G01 Z-3 F100
G02 X345 Y11 I0 J1 F150
G01 X353.5 Y11 
X353.5 Y-2 
X336.5 Y-2 
X336.5 Y11 
X345 Y11 
G02 X345 Y9 I0 J-1 
G01 Z-6 F100
G02 X345 Y11 I0 J1 F150
G01 X353.5 Y11 
X353.5 Y-2 
X336.5 Y-2 
X336.5 Y11 
X345 Y11 
G02 X345 Y9 I0 J-1 
G01 Z-9 F100
G02 X345 Y11 I0 J1 F150
G01 X353.5 Y11 
X353.5 Y-2 
X336.5 Y-2 
X336.5 Y11 
X345 Y11 
G02 X345 Y9 I0 J-1 
G01 Z-12 F100
G02 X345 Y11 I0 J1 F150
G01 X353.5 Y11 
X353.5 Y-2 
X336.5 Y-2 
X336.5 Y11 
X345 Y11 
G02 X345 Y9 I0 J-1 
G01 Z-15 F100
G02 X345 Y11 I0 J1 F150
G01 X353.5 Y11 
X353.5 Y-2 
X336.5 Y-2 
X336.5 Y11 
X345 Y11 
G02 X345 Y9 I0 J-1 
G01 Z-18 F100
G02 X345 Y11 I0 J1 F150
G01 X353.5 Y11 
X353.5 Y-2 
X336.5 Y-2 
X336.5 Y11 
X345 Y11 
G02 X345 Y9 I0 J-1 
G00 Z5
G90
(Sketch 132)
X200 Y9 S7000 M03
Z2
G01 Z-3 F100
G02 X200 Y11 I0 J1 F150
G01 X208.5 Y11 
X208.5 Y-2 
X191.5 Y-2 
X191.5 Y11 
X200 Y11 
G02 X200 Y9 I0 J-1 
G01 Z-6 F100
G02 X200 Y11 I0 J1 F150
G01 X208.5 Y11 
X208.5 Y-2 
X191.5 Y-2 
X191.5 Y11 
X200 Y11 
G02 X200 Y9 I0 J-1 
G01 Z-9 F100
G02 X200 Y11 I0 J1 F150
G01 X208.5 Y11 
X208.5 Y-2 
X191.5 Y-2 
X191.5 Y11 
X200 Y11 
G02 X200 Y9 I0 J-1 
G01 Z-12 F100
G02 X200 Y11 I0 J1 F150
G01 X208.5 Y11 
X208.5 Y-2 
X191.5 Y-2 
X191.5 Y11 
X200 Y11 
G02 X200 Y9 I0 J-1 
G01 Z-15 F100
G02 X200 Y11 I0 J1 F150
G01 X208.5 Y11 
X208.5 Y-2 
X191.5 Y-2 
X191.5 Y11 
X200 Y11 
G02 X200 Y9 I0 J-1 
G01 Z-18 F100
G02 X200 Y11 I0 J1 F150
G01 X208.5 Y11 
X208.5 Y-2 
X191.5 Y-2 
X191.5 Y11 
X200 Y11 
G02 X200 Y9 I0 J-1 
G00 Z5
G90
(Sketch 142)
X55 Y9 S7000 M03
Z2
G01 Z-3 F100
G02 X55 Y11 I0 J1 F150
G01 X63.5 Y11 
X63.5 Y-2 
X46.5 Y-2 
X46.5 Y11 
X55 Y11 
G02 X55 Y9 I0 J-1 
G01 Z-6 F100
G02 X55 Y11 I0 J1 F150
G01 X63.5 Y11 
X63.5 Y-2 
X46.5 Y-2 
X46.5 Y11 
X55 Y11 
G02 X55 Y9 I0 J-1 
G01 Z-9 F100
G02 X55 Y11 I0 J1 F150
G01 X63.5 Y11 
X63.5 Y-2 
X46.5 Y-2 
X46.5 Y11 
X55 Y11 
G02 X55 Y9 I0 J-1 
G01 Z-12 F100
G02 X55 Y11 I0 J1 F150
G01 X63.5 Y11 
X63.5 Y-2 
X46.5 Y-2 
X46.5 Y11 
X55 Y11 
G02 X55 Y9 I0 J-1 
G01 Z-15 F100
G02 X55 Y11 I0 J1 F150
G01 X63.5 Y11 
X63.5 Y-2 
X46.5 Y-2 
X46.5 Y11 
X55 Y11 
G02 X55 Y9 I0 J-1 
G01 Z-18 F100
G02 X55 Y11 I0 J1 F150
G01 X63.5 Y11 
X63.5 Y-2 
X46.5 Y-2 
X46.5 Y11 
X55 Y11 
G02 X55 Y9 I0 J-1 
G00 Z5
G90
(Sketch 145)
X200.246 Y38.973 S7000 M03
Z2
G01 Z-3 F100
G02 X199.751 Y37.036 I-0.247 J-0.968 F150
G01 X199.692 Y37.051 
X199.576 Y37.097 
X199.464 Y37.158 
X199.365 Y37.23 
X199.273 Y37.317 
X199.192 Y37.415 
X199.126 Y37.518 
X199.073 Y37.632 
X199.034 Y37.752 
X199.01 Y37.876 
X199.003 Y38 
X199.01 Y38.123 
X199.034 Y38.247 
X199.073 Y38.367 
X199.126 Y38.481 
X199.192 Y38.584 
X199.273 Y38.682 
X199.365 Y38.769 
X199.464 Y38.841 
X199.576 Y38.902 
X199.692 Y38.948 
X199.812 Y38.979 
X199.936 Y38.995 
X200.063 Y38.995 
X200.187 Y38.979 
X200.307 Y38.948 
X200.423 Y38.902 
X200.535 Y38.841 
X200.634 Y38.769 
X200.726 Y38.682 
X200.807 Y38.584 
X200.873 Y38.481 
X200.926 Y38.367 
X200.965 Y38.247 
X200.989 Y38.123 
X200.996 Y38 
X200.989 Y37.876 
X200.965 Y37.752 
X200.926 Y37.632 
X200.873 Y37.518 
X200.807 Y37.415 
X200.726 Y37.317 
X200.634 Y37.23 
X200.535 Y37.158 
X200.423 Y37.097 
X200.307 Y37.051 
X200.187 Y37.02 
X200.063 Y37.005 
X199.936 Y37.005 
X199.812 Y37.02 
X199.751 Y37.036 
G02 X200.246 Y38.973 I0.247 J0.968 
G01 Z-6 F100
G02 X199.751 Y37.036 I-0.247 J-0.968 F150
G01 X199.692 Y37.051 
X199.576 Y37.097 
X199.464 Y37.158 
X199.365 Y37.23 
X199.273 Y37.317 
X199.192 Y37.415 
X199.126 Y37.518 
X199.073 Y37.632 
X199.034 Y37.752 
X199.01 Y37.876 
X199.003 Y38 
X199.01 Y38.123 
X199.034 Y38.247 
X199.073 Y38.367 
X199.126 Y38.481 
X199.192 Y38.584 
X199.273 Y38.682 
X199.365 Y38.769 
X199.464 Y38.841 
X199.576 Y38.902 
X199.692 Y38.948 
X199.812 Y38.979 
X199.936 Y38.995 
X200.063 Y38.995 
X200.187 Y38.979 
X200.307 Y38.948 
X200.423 Y38.902 
X200.535 Y38.841 
X200.634 Y38.769 
X200.726 Y38.682 
X200.807 Y38.584 
X200.873 Y38.481 
X200.926 Y38.367 
X200.965 Y38.247 
X200.989 Y38.123 
X200.996 Y38 
X200.989 Y37.876 
X200.965 Y37.752 
X200.926 Y37.632 
X200.873 Y37.518 
X200.807 Y37.415 
X200.726 Y37.317 
X200.634 Y37.23 
X200.535 Y37.158 
X200.423 Y37.097 
X200.307 Y37.051 
X200.187 Y37.02 
X200.063 Y37.005 
X199.936 Y37.005 
X199.812 Y37.02 
X199.751 Y37.036 
G02 X200.246 Y38.973 I0.247 J0.968 
G01 Z-9 F100
G02 X199.751 Y37.036 I-0.247 J-0.968 F150
G01 X199.692 Y37.051 
X199.576 Y37.097 
X199.464 Y37.158 
X199.365 Y37.23 
X199.273 Y37.317 
X199.192 Y37.415 
X199.126 Y37.518 
X199.073 Y37.632 
X199.034 Y37.752 
X199.01 Y37.876 
X199.003 Y38 
X199.01 Y38.123 
X199.034 Y38.247 
X199.073 Y38.367 
X199.126 Y38.481 
X199.192 Y38.584 
X199.273 Y38.682 
X199.365 Y38.769 
X199.464 Y38.841 
X199.576 Y38.902 
X199.692 Y38.948 
X199.812 Y38.979 
X199.936 Y38.995 
X200.063 Y38.995 
X200.187 Y38.979 
X200.307 Y38.948 
X200.423 Y38.902 
X200.535 Y38.841 
X200.634 Y38.769 
X200.726 Y38.682 
X200.807 Y38.584 
X200.873 Y38.481 
X200.926 Y38.367 
X200.965 Y38.247 
X200.989 Y38.123 
X200.996 Y38 
X200.989 Y37.876 
X200.965 Y37.752 
X200.926 Y37.632 
X200.873 Y37.518 
X200.807 Y37.415 
X200.726 Y37.317 
X200.634 Y37.23 
X200.535 Y37.158 
X200.423 Y37.097 
X200.307 Y37.051 
X200.187 Y37.02 
X200.063 Y37.005 
X199.936 Y37.005 
X199.812 Y37.02 
X199.751 Y37.036 
G02 X200.246 Y38.973 I0.247 J0.968 
G01 Z-12 F100
G02 X199.751 Y37.036 I-0.247 J-0.968 F150
G01 X199.692 Y37.051 
X199.576 Y37.097 
X199.464 Y37.158 
X199.365 Y37.23 
X199.273 Y37.317 
X199.192 Y37.415 
X199.126 Y37.518 
X199.073 Y37.632 
X199.034 Y37.752 
X199.01 Y37.876 
X199.003 Y38 
X199.01 Y38.123 
X199.034 Y38.247 
X199.073 Y38.367 
X199.126 Y38.481 
X199.192 Y38.584 
X199.273 Y38.682 
X199.365 Y38.769 
X199.464 Y38.841 
X199.576 Y38.902 
X199.692 Y38.948 
X199.812 Y38.979 
X199.936 Y38.995 
X200.063 Y38.995 
X200.187 Y38.979 
X200.307 Y38.948 
X200.423 Y38.902 
X200.535 Y38.841 
X200.634 Y38.769 
X200.726 Y38.682 
X200.807 Y38.584 
X200.873 Y38.481 
X200.926 Y38.367 
X200.965 Y38.247 
X200.989 Y38.123 
X200.996 Y38 
X200.989 Y37.876 
X200.965 Y37.752 
X200.926 Y37.632 
X200.873 Y37.518 
X200.807 Y37.415 
X200.726 Y37.317 
X200.634 Y37.23 
X200.535 Y37.158 
X200.423 Y37.097 
X200.307 Y37.051 
X200.187 Y37.02 
X200.063 Y37.005 
X199.936 Y37.005 
X199.812 Y37.02 
X199.751 Y37.036 
G02 X200.246 Y38.973 I0.247 J0.968 
G01 Z-15 F100
G02 X199.751 Y37.036 I-0.247 J-0.968 F150
G01 X199.692 Y37.051 
X199.576 Y37.097 
X199.464 Y37.158 
X199.365 Y37.23 
X199.273 Y37.317 
X199.192 Y37.415 
X199.126 Y37.518 
X199.073 Y37.632 
X199.034 Y37.752 
X199.01 Y37.876 
X199.003 Y38 
X199.01 Y38.123 
X199.034 Y38.247 
X199.073 Y38.367 
X199.126 Y38.481 
X199.192 Y38.584 
X199.273 Y38.682 
X199.365 Y38.769 
X199.464 Y38.841 
X199.576 Y38.902 
X199.692 Y38.948 
X199.812 Y38.979 
X199.936 Y38.995 
X200.063 Y38.995 
X200.187 Y38.979 
X200.307 Y38.948 
X200.423 Y38.902 
X200.535 Y38.841 
X200.634 Y38.769 
X200.726 Y38.682 
X200.807 Y38.584 
X200.873 Y38.481 
X200.926 Y38.367 
X200.965 Y38.247 
X200.989 Y38.123 
X200.996 Y38 
X200.989 Y37.876 
X200.965 Y37.752 
X200.926 Y37.632 
X200.873 Y37.518 
X200.807 Y37.415 
X200.726 Y37.317 
X200.634 Y37.23 
X200.535 Y37.158 
X200.423 Y37.097 
X200.307 Y37.051 
X200.187 Y37.02 
X200.063 Y37.005 
X199.936 Y37.005 
X199.812 Y37.02 
X199.751 Y37.036 
G02 X200.246 Y38.973 I0.247 J0.968 
G01 Z-18 F100
G02 X199.751 Y37.036 I-0.247 J-0.968 F150
G01 X199.692 Y37.051 
X199.576 Y37.097 
X199.464 Y37.158 
X199.365 Y37.23 
X199.273 Y37.317 
X199.192 Y37.415 
X199.126 Y37.518 
X199.073 Y37.632 
X199.034 Y37.752 
X199.01 Y37.876 
X199.003 Y38 
X199.01 Y38.123 
X199.034 Y38.247 
X199.073 Y38.367 
X199.126 Y38.481 
X199.192 Y38.584 
X199.273 Y38.682 
X199.365 Y38.769 
X199.464 Y38.841 
X199.576 Y38.902 
X199.692 Y38.948 
X199.812 Y38.979 
X199.936 Y38.995 
X200.063 Y38.995 
X200.187 Y38.979 
X200.307 Y38.948 
X200.423 Y38.902 
X200.535 Y38.841 
X200.634 Y38.769 
X200.726 Y38.682 
X200.807 Y38.584 
X200.873 Y38.481 
X200.926 Y38.367 
X200.965 Y38.247 
X200.989 Y38.123 
X200.996 Y38 
X200.989 Y37.876 
X200.965 Y37.752 
X200.926 Y37.632 
X200.873 Y37.518 
X200.807 Y37.415 
X200.726 Y37.317 
X200.634 Y37.23 
X200.535 Y37.158 
X200.423 Y37.097 
X200.307 Y37.051 
X200.187 Y37.02 
X200.063 Y37.005 
X199.936 Y37.005 
X199.812 Y37.02 
X199.751 Y37.036 
G02 X200.246 Y38.973 I0.247 J0.968 
G00 Z5
G90
(Sketch 163)
X117.5 Y405.996 S7000 M03
Z2
G01 Z-3 F100
G02 X117.5 Y407.996 I0 J1 F150
G01 X117.532 Y407.996 
X117.592 Y407.988 
X117.653 Y407.972 
X117.713 Y407.949 
X117.765 Y407.92 
X117.815 Y407.883 
X117.862 Y407.839 
X117.903 Y407.791 
X117.936 Y407.739 
X117.961 Y407.685 
X117.98 Y407.624 
X117.993 Y407.561 
X117.996 Y407.5 
X117.993 Y407.438 
X117.98 Y407.375 
X117.961 Y407.314 
X117.936 Y407.26 
X117.903 Y407.208 
X117.862 Y407.16 
X117.815 Y407.116 
X117.765 Y407.079 
X117.713 Y407.05 
X117.653 Y407.027 
X117.592 Y407.011 
X117.532 Y407.004 
X117.467 Y407.004 
X117.407 Y407.011 
X117.346 Y407.027 
X117.286 Y407.05 
X117.234 Y407.079 
X117.184 Y407.116 
X117.137 Y407.16 
X117.096 Y407.208 
X117.063 Y407.26 
X117.038 Y407.314 
X117.019 Y407.375 
X117.006 Y407.438 
X117.003 Y407.5 
X117.006 Y407.561 
X117.019 Y407.624 
X117.038 Y407.685 
X117.063 Y407.739 
X117.096 Y407.791 
X117.137 Y407.839 
X117.184 Y407.883 
X117.234 Y407.92 
X117.286 Y407.949 
X117.346 Y407.972 
X117.407 Y407.988 
X117.467 Y407.996 
X117.5 Y407.996 
G02 X117.5 Y405.996 I0 J-1 
G01 Z-6 F100
G02 X117.5 Y407.996 I0 J1 F150
G01 X117.532 Y407.996 
X117.592 Y407.988 
X117.653 Y407.972 
X117.713 Y407.949 
X117.765 Y407.92 
X117.815 Y407.883 
X117.862 Y407.839 
X117.903 Y407.791 
X117.936 Y407.739 
X117.961 Y407.685 
X117.98 Y407.624 
X117.993 Y407.561 
X117.996 Y407.5 
X117.993 Y407.438 
X117.98 Y407.375 
X117.961 Y407.314 
X117.936 Y407.26 
X117.903 Y407.208 
X117.862 Y407.16 
X117.815 Y407.116 
X117.765 Y407.079 
X117.713 Y407.05 
X117.653 Y407.027 
X117.592 Y407.011 
X117.532 Y407.004 
X117.467 Y407.004 
X117.407 Y407.011 
X117.346 Y407.027 
X117.286 Y407.05 
X117.234 Y407.079 
X117.184 Y407.116 
X117.137 Y407.16 
X117.096 Y407.208 
X117.063 Y407.26 
X117.038 Y407.314 
X117.019 Y407.375 
X117.006 Y407.438 
X117.003 Y407.5 
X117.006 Y407.561 
X117.019 Y407.624 
X117.038 Y407.685 
X117.063 Y407.739 
X117.096 Y407.791 
X117.137 Y407.839 
X117.184 Y407.883 
X117.234 Y407.92 
X117.286 Y407.949 
X117.346 Y407.972 
X117.407 Y407.988 
X117.467 Y407.996 
X117.5 Y407.996 
G02 X117.5 Y405.996 I0 J-1 
G01 Z-9 F100
G02 X117.5 Y407.996 I0 J1 F150
G01 X117.532 Y407.996 
X117.592 Y407.988 
X117.653 Y407.972 
X117.713 Y407.949 
X117.765 Y407.92 
X117.815 Y407.883 
X117.862 Y407.839 
X117.903 Y407.791 
X117.936 Y407.739 
X117.961 Y407.685 
X117.98 Y407.624 
X117.993 Y407.561 
X117.996 Y407.5 
X117.993 Y407.438 
X117.98 Y407.375 
X117.961 Y407.314 
X117.936 Y407.26 
X117.903 Y407.208 
X117.862 Y407.16 
X117.815 Y407.116 
X117.765 Y407.079 
X117.713 Y407.05 
X117.653 Y407.027 
X117.592 Y407.011 
X117.532 Y407.004 
X117.467 Y407.004 
X117.407 Y407.011 
X117.346 Y407.027 
X117.286 Y407.05 
X117.234 Y407.079 
X117.184 Y407.116 
X117.137 Y407.16 
X117.096 Y407.208 
X117.063 Y407.26 
X117.038 Y407.314 
X117.019 Y407.375 
X117.006 Y407.438 
X117.003 Y407.5 
X117.006 Y407.561 
X117.019 Y407.624 
X117.038 Y407.685 
X117.063 Y407.739 
X117.096 Y407.791 
X117.137 Y407.839 
X117.184 Y407.883 
X117.234 Y407.92 
X117.286 Y407.949 
X117.346 Y407.972 
X117.407 Y407.988 
X117.467 Y407.996 
X117.5 Y407.996 
G02 X117.5 Y405.996 I0 J-1 
G01 Z-12 F100
G02 X117.5 Y407.996 I0 J1 F150
G01 X117.532 Y407.996 
X117.592 Y407.988 
X117.653 Y407.972 
X117.713 Y407.949 
X117.765 Y407.92 
X117.815 Y407.883 
X117.862 Y407.839 
X117.903 Y407.791 
X117.936 Y407.739 
X117.961 Y407.685 
X117.98 Y407.624 
X117.993 Y407.561 
X117.996 Y407.5 
X117.993 Y407.438 
X117.98 Y407.375 
X117.961 Y407.314 
X117.936 Y407.26 
X117.903 Y407.208 
X117.862 Y407.16 
X117.815 Y407.116 
X117.765 Y407.079 
X117.713 Y407.05 
X117.653 Y407.027 
X117.592 Y407.011 
X117.532 Y407.004 
X117.467 Y407.004 
X117.407 Y407.011 
X117.346 Y407.027 
X117.286 Y407.05 
X117.234 Y407.079 
X117.184 Y407.116 
X117.137 Y407.16 
X117.096 Y407.208 
X117.063 Y407.26 
X117.038 Y407.314 
X117.019 Y407.375 
X117.006 Y407.438 
X117.003 Y407.5 
X117.006 Y407.561 
X117.019 Y407.624 
X117.038 Y407.685 
X117.063 Y407.739 
X117.096 Y407.791 
X117.137 Y407.839 
X117.184 Y407.883 
X117.234 Y407.92 
X117.286 Y407.949 
X117.346 Y407.972 
X117.407 Y407.988 
X117.467 Y407.996 
X117.5 Y407.996 
G02 X117.5 Y405.996 I0 J-1 
G01 Z-15 F100
G02 X117.5 Y407.996 I0 J1 F150
G01 X117.532 Y407.996 
X117.592 Y407.988 
X117.653 Y407.972 
X117.713 Y407.949 
X117.765 Y407.92 
X117.815 Y407.883 
X117.862 Y407.839 
X117.903 Y407.791 
X117.936 Y407.739 
X117.961 Y407.685 
X117.98 Y407.624 
X117.993 Y407.561 
X117.996 Y407.5 
X117.993 Y407.438 
X117.98 Y407.375 
X117.961 Y407.314 
X117.936 Y407.26 
X117.903 Y407.208 
X117.862 Y407.16 
X117.815 Y407.116 
X117.765 Y407.079 
X117.713 Y407.05 
X117.653 Y407.027 
X117.592 Y407.011 
X117.532 Y407.004 
X117.467 Y407.004 
X117.407 Y407.011 
X117.346 Y407.027 
X117.286 Y407.05 
X117.234 Y407.079 
X117.184 Y407.116 
X117.137 Y407.16 
X117.096 Y407.208 
X117.063 Y407.26 
X117.038 Y407.314 
X117.019 Y407.375 
X117.006 Y407.438 
X117.003 Y407.5 
X117.006 Y407.561 
X117.019 Y407.624 
X117.038 Y407.685 
X117.063 Y407.739 
X117.096 Y407.791 
X117.137 Y407.839 
X117.184 Y407.883 
X117.234 Y407.92 
X117.286 Y407.949 
X117.346 Y407.972 
X117.407 Y407.988 
X117.467 Y407.996 
X117.5 Y407.996 
G02 X117.5 Y405.996 I0 J-1 
G01 Z-18 F100
G02 X117.5 Y407.996 I0 J1 F150
G01 X117.532 Y407.996 
X117.592 Y407.988 
X117.653 Y407.972 
X117.713 Y407.949 
X117.765 Y407.92 
X117.815 Y407.883 
X117.862 Y407.839 
X117.903 Y407.791 
X117.936 Y407.739 
X117.961 Y407.685 
X117.98 Y407.624 
X117.993 Y407.561 
X117.996 Y407.5 
X117.993 Y407.438 
X117.98 Y407.375 
X117.961 Y407.314 
X117.936 Y407.26 
X117.903 Y407.208 
X117.862 Y407.16 
X117.815 Y407.116 
X117.765 Y407.079 
X117.713 Y407.05 
X117.653 Y407.027 
X117.592 Y407.011 
X117.532 Y407.004 
X117.467 Y407.004 
X117.407 Y407.011 
X117.346 Y407.027 
X117.286 Y407.05 
X117.234 Y407.079 
X117.184 Y407.116 
X117.137 Y407.16 
X117.096 Y407.208 
X117.063 Y407.26 
X117.038 Y407.314 
X117.019 Y407.375 
X117.006 Y407.438 
X117.003 Y407.5 
X117.006 Y407.561 
X117.019 Y407.624 
X117.038 Y407.685 
X117.063 Y407.739 
X117.096 Y407.791 
X117.137 Y407.839 
X117.184 Y407.883 
X117.234 Y407.92 
X117.286 Y407.949 
X117.346 Y407.972 
X117.407 Y407.988 
X117.467 Y407.996 
X117.5 Y407.996 
G02 X117.5 Y405.996 I0 J-1 
G00 Z5
G90
(Sketch 164)
X282.5 Y405.996 S7000 M03
Z2
G01 Z-3 F100
G02 X282.5 Y407.996 I0 J1 F150
G01 X282.532 Y407.996 
X282.592 Y407.988 
X282.653 Y407.972 
X282.713 Y407.949 
X282.765 Y407.92 
X282.815 Y407.883 
X282.862 Y407.839 
X282.903 Y407.791 
X282.936 Y407.739 
X282.961 Y407.685 
X282.98 Y407.624 
X282.993 Y407.561 
X282.996 Y407.5 
X282.993 Y407.438 
X282.98 Y407.375 
X282.961 Y407.314 
X282.936 Y407.26 
X282.903 Y407.208 
X282.862 Y407.16 
X282.815 Y407.116 
X282.765 Y407.079 
X282.713 Y407.05 
X282.653 Y407.027 
X282.592 Y407.011 
X282.532 Y407.004 
X282.467 Y407.004 
X282.407 Y407.011 
X282.346 Y407.027 
X282.286 Y407.05 
X282.234 Y407.079 
X282.184 Y407.116 
X282.137 Y407.16 
X282.096 Y407.208 
X282.063 Y407.26 
X282.038 Y407.314 
X282.019 Y407.375 
X282.006 Y407.438 
X282.003 Y407.5 
X282.006 Y407.561 
X282.019 Y407.624 
X282.038 Y407.685 
X282.063 Y407.739 
X282.096 Y407.791 
X282.137 Y407.839 
X282.184 Y407.883 
X282.234 Y407.92 
X282.286 Y407.949 
X282.346 Y407.972 
X282.407 Y407.988 
X282.467 Y407.996 
X282.5 Y407.996 
G02 X282.5 Y405.996 I0 J-1 
G01 Z-6 F100
G02 X282.5 Y407.996 I0 J1 F150
G01 X282.532 Y407.996 
X282.592 Y407.988 
X282.653 Y407.972 
X282.713 Y407.949 
X282.765 Y407.92 
X282.815 Y407.883 
X282.862 Y407.839 
X282.903 Y407.791 
X282.936 Y407.739 
X282.961 Y407.685 
X282.98 Y407.624 
X282.993 Y407.561 
X282.996 Y407.5 
X282.993 Y407.438 
X282.98 Y407.375 
X282.961 Y407.314 
X282.936 Y407.26 
X282.903 Y407.208 
X282.862 Y407.16 
X282.815 Y407.116 
X282.765 Y407.079 
X282.713 Y407.05 
X282.653 Y407.027 
X282.592 Y407.011 
X282.532 Y407.004 
X282.467 Y407.004 
X282.407 Y407.011 
X282.346 Y407.027 
X282.286 Y407.05 
X282.234 Y407.079 
X282.184 Y407.116 
X282.137 Y407.16 
X282.096 Y407.208 
X282.063 Y407.26 
X282.038 Y407.314 
X282.019 Y407.375 
X282.006 Y407.438 
X282.003 Y407.5 
X282.006 Y407.561 
X282.019 Y407.624 
X282.038 Y407.685 
X282.063 Y407.739 
X282.096 Y407.791 
X282.137 Y407.839 
X282.184 Y407.883 
X282.234 Y407.92 
X282.286 Y407.949 
X282.346 Y407.972 
X282.407 Y407.988 
X282.467 Y407.996 
X282.5 Y407.996 
G02 X282.5 Y405.996 I0 J-1 
G01 Z-9 F100
G02 X282.5 Y407.996 I0 J1 F150
G01 X282.532 Y407.996 
X282.592 Y407.988 
X282.653 Y407.972 
X282.713 Y407.949 
X282.765 Y407.92 
X282.815 Y407.883 
X282.862 Y407.839 
X282.903 Y407.791 
X282.936 Y407.739 
X282.961 Y407.685 
X282.98 Y407.624 
X282.993 Y407.561 
X282.996 Y407.5 
X282.993 Y407.438 
X282.98 Y407.375 
X282.961 Y407.314 
X282.936 Y407.26 
X282.903 Y407.208 
X282.862 Y407.16 
X282.815 Y407.116 
X282.765 Y407.079 
X282.713 Y407.05 
X282.653 Y407.027 
X282.592 Y407.011 
X282.532 Y407.004 
X282.467 Y407.004 
X282.407 Y407.011 
X282.346 Y407.027 
X282.286 Y407.05 
X282.234 Y407.079 
X282.184 Y407.116 
X282.137 Y407.16 
X282.096 Y407.208 
X282.063 Y407.26 
X282.038 Y407.314 
X282.019 Y407.375 
X282.006 Y407.438 
X282.003 Y407.5 
X282.006 Y407.561 
X282.019 Y407.624 
X282.038 Y407.685 
X282.063 Y407.739 
X282.096 Y407.791 
X282.137 Y407.839 
X282.184 Y407.883 
X282.234 Y407.92 
X282.286 Y407.949 
X282.346 Y407.972 
X282.407 Y407.988 
X282.467 Y407.996 
X282.5 Y407.996 
G02 X282.5 Y405.996 I0 J-1 
G01 Z-12 F100
G02 X282.5 Y407.996 I0 J1 F150
G01 X282.532 Y407.996 
X282.592 Y407.988 
X282.653 Y407.972 
X282.713 Y407.949 
X282.765 Y407.92 
X282.815 Y407.883 
X282.862 Y407.839 
X282.903 Y407.791 
X282.936 Y407.739 
X282.961 Y407.685 
X282.98 Y407.624 
X282.993 Y407.561 
X282.996 Y407.5 
X282.993 Y407.438 
X282.98 Y407.375 
X282.961 Y407.314 
X282.936 Y407.26 
X282.903 Y407.208 
X282.862 Y407.16 
X282.815 Y407.116 
X282.765 Y407.079 
X282.713 Y407.05 
X282.653 Y407.027 
X282.592 Y407.011 
X282.532 Y407.004 
X282.467 Y407.004 
X282.407 Y407.011 
X282.346 Y407.027 
X282.286 Y407.05 
X282.234 Y407.079 
X282.184 Y407.116 
X282.137 Y407.16 
X282.096 Y407.208 
X282.063 Y407.26 
X282.038 Y407.314 
X282.019 Y407.375 
X282.006 Y407.438 
X282.003 Y407.5 
X282.006 Y407.561 
X282.019 Y407.624 
X282.038 Y407.685 
X282.063 Y407.739 
X282.096 Y407.791 
X282.137 Y407.839 
X282.184 Y407.883 
X282.234 Y407.92 
X282.286 Y407.949 
X282.346 Y407.972 
X282.407 Y407.988 
X282.467 Y407.996 
X282.5 Y407.996 
G02 X282.5 Y405.996 I0 J-1 
G01 Z-15 F100
G02 X282.5 Y407.996 I0 J1 F150
G01 X282.532 Y407.996 
X282.592 Y407.988 
X282.653 Y407.972 
X282.713 Y407.949 
X282.765 Y407.92 
X282.815 Y407.883 
X282.862 Y407.839 
X282.903 Y407.791 
X282.936 Y407.739 
X282.961 Y407.685 
X282.98 Y407.624 
X282.993 Y407.561 
X282.996 Y407.5 
X282.993 Y407.438 
X282.98 Y407.375 
X282.961 Y407.314 
X282.936 Y407.26 
X282.903 Y407.208 
X282.862 Y407.16 
X282.815 Y407.116 
X282.765 Y407.079 
X282.713 Y407.05 
X282.653 Y407.027 
X282.592 Y407.011 
X282.532 Y407.004 
X282.467 Y407.004 
X282.407 Y407.011 
X282.346 Y407.027 
X282.286 Y407.05 
X282.234 Y407.079 
X282.184 Y407.116 
X282.137 Y407.16 
X282.096 Y407.208 
X282.063 Y407.26 
X282.038 Y407.314 
X282.019 Y407.375 
X282.006 Y407.438 
X282.003 Y407.5 
X282.006 Y407.561 
X282.019 Y407.624 
X282.038 Y407.685 
X282.063 Y407.739 
X282.096 Y407.791 
X282.137 Y407.839 
X282.184 Y407.883 
X282.234 Y407.92 
X282.286 Y407.949 
X282.346 Y407.972 
X282.407 Y407.988 
X282.467 Y407.996 
X282.5 Y407.996 
G02 X282.5 Y405.996 I0 J-1 
G01 Z-18 F100
G02 X282.5 Y407.996 I0 J1 F150
G01 X282.532 Y407.996 
X282.592 Y407.988 
X282.653 Y407.972 
X282.713 Y407.949 
X282.765 Y407.92 
X282.815 Y407.883 
X282.862 Y407.839 
X282.903 Y407.791 
X282.936 Y407.739 
X282.961 Y407.685 
X282.98 Y407.624 
X282.993 Y407.561 
X282.996 Y407.5 
X282.993 Y407.438 
X282.98 Y407.375 
X282.961 Y407.314 
X282.936 Y407.26 
X282.903 Y407.208 
X282.862 Y407.16 
X282.815 Y407.116 
X282.765 Y407.079 
X282.713 Y407.05 
X282.653 Y407.027 
X282.592 Y407.011 
X282.532 Y407.004 
X282.467 Y407.004 
X282.407 Y407.011 
X282.346 Y407.027 
X282.286 Y407.05 
X282.234 Y407.079 
X282.184 Y407.116 
X282.137 Y407.16 
X282.096 Y407.208 
X282.063 Y407.26 
X282.038 Y407.314 
X282.019 Y407.375 
X282.006 Y407.438 
X282.003 Y407.5 
X282.006 Y407.561 
X282.019 Y407.624 
X282.038 Y407.685 
X282.063 Y407.739 
X282.096 Y407.791 
X282.137 Y407.839 
X282.184 Y407.883 
X282.234 Y407.92 
X282.286 Y407.949 
X282.346 Y407.972 
X282.407 Y407.988 
X282.467 Y407.996 
X282.5 Y407.996 
G02 X282.5 Y405.996 I0 J-1 
G00 Z5
G90
(Sketch 165)
X365 Y381.496 S7000 M03
Z2
G01 Z-3 F100
G02 X365 Y383.496 I0 J1 F150
G01 X365.032 Y383.496 
X365.092 Y383.488 
X365.153 Y383.472 
X365.213 Y383.449 
X365.265 Y383.42 
X365.315 Y383.383 
X365.362 Y383.339 
X365.403 Y383.291 
X365.436 Y383.239 
X365.461 Y383.185 
X365.48 Y383.124 
X365.493 Y383.061 
X365.496 Y383 
X365.493 Y382.938 
X365.48 Y382.875 
X365.461 Y382.814 
X365.436 Y382.76 
X365.403 Y382.708 
X365.362 Y382.66 
X365.315 Y382.616 
X365.265 Y382.579 
X365.213 Y382.55 
X365.153 Y382.527 
X365.092 Y382.511 
X365.032 Y382.504 
X364.967 Y382.504 
X364.907 Y382.511 
X364.846 Y382.527 
X364.786 Y382.55 
X364.734 Y382.579 
X364.684 Y382.616 
X364.637 Y382.66 
X364.596 Y382.708 
X364.563 Y382.76 
X364.538 Y382.814 
X364.519 Y382.875 
X364.506 Y382.938 
X364.503 Y383 
X364.506 Y383.061 
X364.519 Y383.124 
X364.538 Y383.185 
X364.563 Y383.239 
X364.596 Y383.291 
X364.637 Y383.339 
X364.684 Y383.383 
X364.734 Y383.42 
X364.786 Y383.449 
X364.846 Y383.472 
X364.907 Y383.488 
X364.967 Y383.496 
X365 Y383.496 
G02 X365 Y381.496 I0 J-1 
G01 Z-6 F100
G02 X365 Y383.496 I0 J1 F150
G01 X365.032 Y383.496 
X365.092 Y383.488 
X365.153 Y383.472 
X365.213 Y383.449 
X365.265 Y383.42 
X365.315 Y383.383 
X365.362 Y383.339 
X365.403 Y383.291 
X365.436 Y383.239 
X365.461 Y383.185 
X365.48 Y383.124 
X365.493 Y383.061 
X365.496 Y383 
X365.493 Y382.938 
X365.48 Y382.875 
X365.461 Y382.814 
X365.436 Y382.76 
X365.403 Y382.708 
X365.362 Y382.66 
X365.315 Y382.616 
X365.265 Y382.579 
X365.213 Y382.55 
X365.153 Y382.527 
X365.092 Y382.511 
X365.032 Y382.504 
X364.967 Y382.504 
X364.907 Y382.511 
X364.846 Y382.527 
X364.786 Y382.55 
X364.734 Y382.579 
X364.684 Y382.616 
X364.637 Y382.66 
X364.596 Y382.708 
X364.563 Y382.76 
X364.538 Y382.814 
X364.519 Y382.875 
X364.506 Y382.938 
X364.503 Y383 
X364.506 Y383.061 
X364.519 Y383.124 
X364.538 Y383.185 
X364.563 Y383.239 
X364.596 Y383.291 
X364.637 Y383.339 
X364.684 Y383.383 
X364.734 Y383.42 
X364.786 Y383.449 
X364.846 Y383.472 
X364.907 Y383.488 
X364.967 Y383.496 
X365 Y383.496 
G02 X365 Y381.496 I0 J-1 
G01 Z-9 F100
G02 X365 Y383.496 I0 J1 F150
G01 X365.032 Y383.496 
X365.092 Y383.488 
X365.153 Y383.472 
X365.213 Y383.449 
X365.265 Y383.42 
X365.315 Y383.383 
X365.362 Y383.339 
X365.403 Y383.291 
X365.436 Y383.239 
X365.461 Y383.185 
X365.48 Y383.124 
X365.493 Y383.061 
X365.496 Y383 
X365.493 Y382.938 
X365.48 Y382.875 
X365.461 Y382.814 
X365.436 Y382.76 
X365.403 Y382.708 
X365.362 Y382.66 
X365.315 Y382.616 
X365.265 Y382.579 
X365.213 Y382.55 
X365.153 Y382.527 
X365.092 Y382.511 
X365.032 Y382.504 
X364.967 Y382.504 
X364.907 Y382.511 
X364.846 Y382.527 
X364.786 Y382.55 
X364.734 Y382.579 
X364.684 Y382.616 
X364.637 Y382.66 
X364.596 Y382.708 
X364.563 Y382.76 
X364.538 Y382.814 
X364.519 Y382.875 
X364.506 Y382.938 
X364.503 Y383 
X364.506 Y383.061 
X364.519 Y383.124 
X364.538 Y383.185 
X364.563 Y383.239 
X364.596 Y383.291 
X364.637 Y383.339 
X364.684 Y383.383 
X364.734 Y383.42 
X364.786 Y383.449 
X364.846 Y383.472 
X364.907 Y383.488 
X364.967 Y383.496 
X365 Y383.496 
G02 X365 Y381.496 I0 J-1 
G01 Z-12 F100
G02 X365 Y383.496 I0 J1 F150
G01 X365.032 Y383.496 
X365.092 Y383.488 
X365.153 Y383.472 
X365.213 Y383.449 
X365.265 Y383.42 
X365.315 Y383.383 
X365.362 Y383.339 
X365.403 Y383.291 
X365.436 Y383.239 
X365.461 Y383.185 
X365.48 Y383.124 
X365.493 Y383.061 
X365.496 Y383 
X365.493 Y382.938 
X365.48 Y382.875 
X365.461 Y382.814 
X365.436 Y382.76 
X365.403 Y382.708 
X365.362 Y382.66 
X365.315 Y382.616 
X365.265 Y382.579 
X365.213 Y382.55 
X365.153 Y382.527 
X365.092 Y382.511 
X365.032 Y382.504 
X364.967 Y382.504 
X364.907 Y382.511 
X364.846 Y382.527 
X364.786 Y382.55 
X364.734 Y382.579 
X364.684 Y382.616 
X364.637 Y382.66 
X364.596 Y382.708 
X364.563 Y382.76 
X364.538 Y382.814 
X364.519 Y382.875 
X364.506 Y382.938 
X364.503 Y383 
X364.506 Y383.061 
X364.519 Y383.124 
X364.538 Y383.185 
X364.563 Y383.239 
X364.596 Y383.291 
X364.637 Y383.339 
X364.684 Y383.383 
X364.734 Y383.42 
X364.786 Y383.449 
X364.846 Y383.472 
X364.907 Y383.488 
X364.967 Y383.496 
X365 Y383.496 
G02 X365 Y381.496 I0 J-1 
G01 Z-15 F100
G02 X365 Y383.496 I0 J1 F150
G01 X365.032 Y383.496 
X365.092 Y383.488 
X365.153 Y383.472 
X365.213 Y383.449 
X365.265 Y383.42 
X365.315 Y383.383 
X365.362 Y383.339 
X365.403 Y383.291 
X365.436 Y383.239 
X365.461 Y383.185 
X365.48 Y383.124 
X365.493 Y383.061 
X365.496 Y383 
X365.493 Y382.938 
X365.48 Y382.875 
X365.461 Y382.814 
X365.436 Y382.76 
X365.403 Y382.708 
X365.362 Y382.66 
X365.315 Y382.616 
X365.265 Y382.579 
X365.213 Y382.55 
X365.153 Y382.527 
X365.092 Y382.511 
X365.032 Y382.504 
X364.967 Y382.504 
X364.907 Y382.511 
X364.846 Y382.527 
X364.786 Y382.55 
X364.734 Y382.579 
X364.684 Y382.616 
X364.637 Y382.66 
X364.596 Y382.708 
X364.563 Y382.76 
X364.538 Y382.814 
X364.519 Y382.875 
X364.506 Y382.938 
X364.503 Y383 
X364.506 Y383.061 
X364.519 Y383.124 
X364.538 Y383.185 
X364.563 Y383.239 
X364.596 Y383.291 
X364.637 Y383.339 
X364.684 Y383.383 
X364.734 Y383.42 
X364.786 Y383.449 
X364.846 Y383.472 
X364.907 Y383.488 
X364.967 Y383.496 
X365 Y383.496 
G02 X365 Y381.496 I0 J-1 
G01 Z-18 F100
G02 X365 Y383.496 I0 J1 F150
G01 X365.032 Y383.496 
X365.092 Y383.488 
X365.153 Y383.472 
X365.213 Y383.449 
X365.265 Y383.42 
X365.315 Y383.383 
X365.362 Y383.339 
X365.403 Y383.291 
X365.436 Y383.239 
X365.461 Y383.185 
X365.48 Y383.124 
X365.493 Y383.061 
X365.496 Y383 
X365.493 Y382.938 
X365.48 Y382.875 
X365.461 Y382.814 
X365.436 Y382.76 
X365.403 Y382.708 
X365.362 Y382.66 
X365.315 Y382.616 
X365.265 Y382.579 
X365.213 Y382.55 
X365.153 Y382.527 
X365.092 Y382.511 
X365.032 Y382.504 
X364.967 Y382.504 
X364.907 Y382.511 
X364.846 Y382.527 
X364.786 Y382.55 
X364.734 Y382.579 
X364.684 Y382.616 
X364.637 Y382.66 
X364.596 Y382.708 
X364.563 Y382.76 
X364.538 Y382.814 
X364.519 Y382.875 
X364.506 Y382.938 
X364.503 Y383 
X364.506 Y383.061 
X364.519 Y383.124 
X364.538 Y383.185 
X364.563 Y383.239 
X364.596 Y383.291 
X364.637 Y383.339 
X364.684 Y383.383 
X364.734 Y383.42 
X364.786 Y383.449 
X364.846 Y383.472 
X364.907 Y383.488 
X364.967 Y383.496 
X365 Y383.496 
G02 X365 Y381.496 I0 J-1 
G00 Z5
G90
(Sketch 166)
X36.362 Y323.636 S7000 M03
Z2
G01 Z-3 F100
G02 X34.551 Y322.787 I-0.905 J-0.424 F150
G01 X34.538 Y322.816 
X34.518 Y322.876 
X34.506 Y322.937 
X34.502 Y323 
X34.506 Y323.062 
X34.518 Y323.123 
X34.538 Y323.183 
X34.564 Y323.24 
X34.597 Y323.291 
X34.637 Y323.339 
X34.684 Y323.383 
X34.734 Y323.42 
X34.787 Y323.449 
X34.846 Y323.472 
X34.907 Y323.488 
X34.967 Y323.496 
X35.032 Y323.496 
X35.092 Y323.488 
X35.153 Y323.472 
X35.212 Y323.449 
X35.265 Y323.42 
X35.316 Y323.383 
X35.362 Y323.339 
X35.402 Y323.291 
X35.435 Y323.24 
X35.461 Y323.183 
X35.481 Y323.122 
X35.493 Y323.062 
X35.497 Y323 
X35.493 Y322.937 
X35.481 Y322.877 
X35.461 Y322.816 
X35.435 Y322.759 
X35.402 Y322.708 
X35.362 Y322.66 
X35.316 Y322.616 
X35.265 Y322.579 
X35.212 Y322.55 
X35.153 Y322.527 
X35.092 Y322.511 
X35.032 Y322.504 
X34.967 Y322.504 
X34.907 Y322.511 
X34.846 Y322.527 
X34.787 Y322.55 
X34.734 Y322.579 
X34.684 Y322.616 
X34.637 Y322.66 
X34.597 Y322.708 
X34.564 Y322.759 
X34.551 Y322.787 
G02 X36.362 Y323.636 I0.905 J0.424 
G01 Z-6 F100
G02 X34.551 Y322.787 I-0.905 J-0.424 F150
G01 X34.538 Y322.816 
X34.518 Y322.876 
X34.506 Y322.937 
X34.502 Y323 
X34.506 Y323.062 
X34.518 Y323.123 
X34.538 Y323.183 
X34.564 Y323.24 
X34.597 Y323.291 
X34.637 Y323.339 
X34.684 Y323.383 
X34.734 Y323.42 
X34.787 Y323.449 
X34.846 Y323.472 
X34.907 Y323.488 
X34.967 Y323.496 
X35.032 Y323.496 
X35.092 Y323.488 
X35.153 Y323.472 
X35.212 Y323.449 
X35.265 Y323.42 
X35.316 Y323.383 
X35.362 Y323.339 
X35.402 Y323.291 
X35.435 Y323.24 
X35.461 Y323.183 
X35.481 Y323.122 
X35.493 Y323.062 
X35.497 Y323 
X35.493 Y322.937 
X35.481 Y322.877 
X35.461 Y322.816 
X35.435 Y322.759 
X35.402 Y322.708 
X35.362 Y322.66 
X35.316 Y322.616 
X35.265 Y322.579 
X35.212 Y322.55 
X35.153 Y322.527 
X35.092 Y322.511 
X35.032 Y322.504 
X34.967 Y322.504 
X34.907 Y322.511 
X34.846 Y322.527 
X34.787 Y322.55 
X34.734 Y322.579 
X34.684 Y322.616 
X34.637 Y322.66 
X34.597 Y322.708 
X34.564 Y322.759 
X34.551 Y322.787 
G02 X36.362 Y323.636 I0.905 J0.424 
G01 Z-9 F100
G02 X34.551 Y322.787 I-0.905 J-0.424 F150
G01 X34.538 Y322.816 
X34.518 Y322.876 
X34.506 Y322.937 
X34.502 Y323 
X34.506 Y323.062 
X34.518 Y323.123 
X34.538 Y323.183 
X34.564 Y323.24 
X34.597 Y323.291 
X34.637 Y323.339 
X34.684 Y323.383 
X34.734 Y323.42 
X34.787 Y323.449 
X34.846 Y323.472 
X34.907 Y323.488 
X34.967 Y323.496 
X35.032 Y323.496 
X35.092 Y323.488 
X35.153 Y323.472 
X35.212 Y323.449 
X35.265 Y323.42 
X35.316 Y323.383 
X35.362 Y323.339 
X35.402 Y323.291 
X35.435 Y323.24 
X35.461 Y323.183 
X35.481 Y323.122 
X35.493 Y323.062 
X35.497 Y323 
X35.493 Y322.937 
X35.481 Y322.877 
