(Created with emc2b post processor 2016/07/25 17:29)
(frame_drills)
(tool change to 3 mm Slot Cutter)
T1 M06 G43
G17 G90 G21
G00 X247 Y496 S7000 M03
Z5
G83 Q6 G98 X247 Y496 Z-18 R2 F100
X153 Y496 
X137 Y496 
X215.5 Y489.5 
X94 Y435.8 
X103.5 Y435.8 
X50.5 Y358.5 
X349.5 Y358.5 
X19.5 Y358.5 
X380.5 Y358.5 
X19.5 Y327.5 
X50.5 Y327.5 
X349.5 Y327.5 
X380.5 Y327.5 
X137 Y116 
X153 Y116 
X247 Y116 
X263 Y116 
X263 Y496 
X335 Y96.5 
X45 Y515.5 
X65 Y499.5 
X65 Y515.5 
X45 Y499.5 
X190 Y515.5 
X210 Y515.5 
X210 Y499.5 
X190 Y499.5 
X335 Y515.5 
X355 Y515.5 
X355 Y499.5 
X335 Y499.5 
X27 Y463 
X43 Y463 
X43 Y443 
X27 Y443 
X357 Y463 
X373 Y463 
X373 Y443 
X357 Y443 
X355 Y388 
X355 Y372 
X45 Y388 
X45 Y372 
X45 Y112.5 
X65 Y112.5 
X65 Y96.5 
X45 Y96.5 
X190 Y112.5 
X210 Y112.5 
X210 Y96.5 
X190 Y96.5 
X335 Y112.5 
X355 Y112.5 
X355 Y96.5 
X335 Y96.5 
G80
G00 X145.3 Y122.3 S7000 M03
Z2
G01 Z-2.75 
X145.3 Y109.7 F150
X144.7 Y109.7 
X144.7 Y122.3 
X145.3 Y122.3 
X146.3 Y123.3 
X146.3 Y108.7 
X143.7 Y108.7 
X143.7 Y123.3 
X146.3 Y123.3 
G00 Z5
X255.3 Y122.3
Z2
G01 Z-2.75 F100
X255.3 Y109.7 F150
X254.7 Y109.7 
X254.7 Y122.3 
X255.3 Y122.3 
X256.3 Y123.3 
X256.3 Y108.7 
X253.7 Y108.7 
X253.7 Y123.3 
X256.3 Y123.3 
G00 Z5
X200.292 Y138.3
Z2
G01 Z-2.75 F100
G02 X200.273 Y137.955 I-1.203 J-0.106 F150
X199.726 Y137.999 I-0.271 J0.042 
G01 X199.711 Y138.3 
X200.292 Y138.3 
X201.3 Y139.3 
G02 X201.29 Y137.984 I-21.653 J-0.493 
X200.505 Y136.822 I-1.34 J0.059 
X198.732 Y137.868 I-0.506 J1.166 
X198.699 Y139.3 I13.804 J1.034 
G01 X201.3 Y139.3 
X202.3 Y140.3 
X202.3 Y138.299 
G02 X202.085 Y137.081 I-2.804 J-0.133 
X197.738 Y137.742 I-2.085 J0.906 
G01 X197.699 Y138.479 
X197.699 Y140.3 
X202.3 Y140.3 
X203.3 Y141.3 
X203.3 Y138.274 
G02 X203.171 Y137.158 I-4.383 J-0.058 
X196.743 Y137.623 I-3.17 J0.83 
G01 X196.699 Y138.453 
X196.699 Y141.3 
X203.3 Y141.3 
X204.3 Y142.3 
X204.3 Y138.242 
X204.249 Y137.458 
G02 X195.748 Y137.509 I-4.247 J0.532 
G01 X195.699 Y138.427 
X195.699 Y142.3 
X204.3 Y142.3 
X205.3 Y143.3 
X205.3 Y138.21 
X205.243 Y137.333 
G02 X194.72 Y138.035 I-5.24 J0.658 
G01 X194.7 Y138.401 
X194.7 Y143.3 
X205.3 Y143.3 
X206.3 Y144.3 
X206.3 Y138.178 
X206.238 Y137.211 
G02 X202.673 Y132.307 I-6.237 J0.786 
X199.795 Y131.715 I-2.665 J5.668 
X195.693 Y133.413 I0.181 J6.242 
X193.724 Y137.586 I4.29 J4.575 
G03 X193.7 Y138.374 I-7.518 J0.165 
G01 X193.7 Y144.3 
X206.3 Y144.3 
X207.31 Y145.3 
G03 X207.3 Y144.999 I3.983 J-0.283 
G01 X207.3 Y138.146 
X207.232 Y137.085 
X207.06 Y136.185 
X206.777 Y135.313 
X206.389 Y134.486 
X205.896 Y133.712 
X205.312 Y133.004 
X204.646 Y132.38 
X203.906 Y131.843 
X203.101 Y131.401 
X202.251 Y131.063 
X201.366 Y130.838 
X200.443 Y130.72 
G02 X199.088 Y130.763 I-0.402 J8.672 
G01 X198.184 Y130.936 
X197.313 Y131.218 
X196.486 Y131.606 
X195.713 Y132.099 
X195.007 Y132.683 
X194.382 Y133.35 
X193.842 Y134.091 
X193.401 Y134.894 
X193.065 Y135.745 
X192.838 Y136.63 
X192.725 Y137.522 
G03 X192.7 Y138.345 I-7.037 J0.198 
G01 X192.7 Y145 
G03 X192.688 Y145.3 I-7.981 J-0.169 
G01 X207.31 Y145.3 
X208.409 Y146.3 
G03 X208.3 Y144.999 I6.896 J-1.232 
G01 X208.3 Y138.115 
X208.226 Y136.959 
X208.031 Y135.936 
X207.709 Y134.945 
X207.267 Y134.004 
X206.707 Y133.124 
X206.043 Y132.319 
X205.285 Y131.608 
X204.443 Y130.997 
X203.529 Y130.495 
X202.561 Y130.111 
X201.554 Y129.854 
X200.511 Y129.721 
G02 X198.959 Y129.771 I-0.463 J9.738 
G01 X197.935 Y129.966 
X196.945 Y130.287 
X196.004 Y130.73 
X195.124 Y131.289 
X194.321 Y131.953 
X193.61 Y132.712 
X192.997 Y133.554 
X192.495 Y134.468 
X192.112 Y135.436 
X191.854 Y136.443 
X191.725 Y137.462 
G03 X191.7 Y138.314 I-5.972 J0.251 
G01 X191.7 Y145 
G03 X191.587 Y146.3 I-7.238 J0.025 
G01 X208.409 Y146.3 
X209.654 Y147.3 
G03 X209.3 Y144.999 I7.435 J-2.321 
G01 X209.3 Y138.084 
X209.22 Y136.834 
X209.002 Y135.688 
X208.641 Y134.577 
X208.145 Y133.522 
X207.518 Y132.536 
X206.774 Y131.634 
X205.924 Y130.837 
X204.98 Y130.152 
X203.956 Y129.589 
X202.871 Y129.159 
X201.742 Y128.87 
X200.583 Y128.724 
G03 X199.886 Y128.712 I-0.143 J-11.923 
G01 X198.834 Y128.778 
X197.687 Y128.996 
X196.577 Y129.356 
X195.522 Y129.853 
X194.536 Y130.479 
X193.635 Y131.223 
X192.838 Y132.074 
X192.152 Y133.018 
X191.589 Y134.042 
X191.159 Y135.127 
X190.87 Y136.256 
X190.725 Y137.405 
G03 X190.7 Y138.28 I-5.211 J0.288 
G01 X190.7 Y145 
G03 X190.343 Y147.3 I-7.866 J-0.043 
G01 X209.654 Y147.3 
G00 Z5
X94.697 Y436.45
Z2
G01 Z-2.75 F100
G03 X97 Y436.3 I2.254 J16.865 F150
G01 X103.751 Y436.3 
G02 X104.257 Y435.884 I-0.019 J-0.539 
X103.824 Y435.315 I-0.477 J-0.086 
G01 X103.563 Y435.3 
X97.313 Y435.302 
G03 X94.697 Y435.138 I-0.309 J-16.003 
G01 X94.697 Y436.45 
X93.698 Y437.635 
G03 X97 Y437.3 I3.251 J15.612 
G01 X103.522 Y437.3 
G02 X104.978 Y436.688 I0.171 J-1.63 
X103.974 Y434.322 I-1.193 J-0.889 
G01 X103.592 Y434.3 
X97.326 Y434.303 
G03 X93.698 Y433.955 I-0.278 J-16.183 
G01 X93.698 Y437.635 
X92.699 Y438.909 
G03 X97 Y438.3 I4.269 J14.662 
G01 X103.531 Y438.3 
G02 X105.498 Y437.61 I0.174 J-2.65 
X104.114 Y433.329 I-1.711 J-1.81 
G01 X103.622 Y433.3 
X97.339 Y433.304 
G03 X92.699 Y432.684 I-0.271 J-15.643 
G01 X92.699 Y438.909 
X91.7 Y431.306 
X91.7 Y440.294 
G03 X97 Y439.3 I5.301 J13.641 
G01 X103.542 Y439.3 
G02 X105.33 Y438.936 I0.155 J-3.809 
X104.249 Y432.336 I-1.544 J-3.135 
G01 X103.652 Y432.3 
X97.355 Y432.305 
G03 X91.7 Y431.306 I-0.256 J-15.054 
G01 X90.7 Y429.755 
X90.7 Y441.844 
G03 X91.864 Y441.3 I7.354 J14.219 
X97 Y440.3 I5.162 J12.826 
G01 X103.56 Y440.3 
G03 X104.102 Y440.281 I0.4 J3.681 
G02 X108.275 Y435.601 I-0.292 J-4.46 
X105.849 Y431.801 I-4.441 J0.16 
X104.371 Y431.342 I-2.032 J3.936 
G01 X103.683 Y431.3 
X97.371 Y431.306 
G03 X95.066 Y431.156 I-0.166 J-15.225 
X93.368 Y430.803 I1.727 J-12.568 
X92.049 Y430.37 I4.971 J-17.371 
X90.7 Y429.755 I5.741 J-14.381 
G01 X89.7 Y427.985 
X89.7 Y443.613 
G03 X90.791 Y442.923 I8.905 J12.873 
X91.03 Y442.794 I3.275 J5.783 
X92.225 Y442.233 I11.786 J23.552 
X92.484 Y442.133 I1.589 J3.73 
X93.738 Y441.728 I6.685 J18.556 
X94.006 Y441.661 I1.26 J4.471 
X95.3 Y441.417 I3.56 J15.329 
X97 Y441.3 I2.065 J17.599 
G01 X103.598 Y441.3 
G03 X104.159 Y441.282 I0.389 J3.391 
G02 X109.276 Y435.601 I-0.346 J-5.456 
X109.215 Y434.866 I-2.907 J-0.128 
X104.494 Y430.348 I-5.417 J0.935 
G01 X103.714 Y430.3 
X98.316 Y430.3 
G03 X95.578 Y430.215 I-0.655 J-23.04 
X95.239 Y430.172 I0.697 J-6.858 
X93.944 Y429.923 I3.04 J-19.303 
X93.679 Y429.853 I1.085 J-4.647 
X92.425 Y429.444 I6.674 J-22.59 
X92.166 Y429.339 I1.219 J-3.381 
X90.978 Y428.777 I6.649 J-15.592 
X90.734 Y428.642 I2.529 J-4.86 
G01 X89.7 Y427.985 
G00 Z5
X200.275 Y464.718
Z2
G01 Z-2.75 F100
X200.282 Y464.7 F150
X200.266 Y464.7 
X200.275 Y464.718 
X200.523 Y467.787 
G03 X201.798 Y463.7 I13.249 J1.89 
G01 X198.536 Y463.7 
G03 X200.523 Y467.787 I-15.893 J10.253 
G01 X200.56 Y472.497 
G03 X201.536 Y471.688 I13.074 J14.779 
X203.525 Y462.7 I12.471 J-1.954 
G01 X196.617 Y462.7 
G03 X200.56 Y472.497 I-14.897 J11.687 
G01 X199.98 Y474.265 
G02 X200.194 Y474.18 I-0.017 J-0.356 
G03 X202.463 Y472.229 I19.226 J20.065 
G02 X202.563 Y471.812 I-0.345 J-0.303 
G03 X205.592 Y461.7 I11.535 J-2.054 
G01 X194.406 Y461.7 
G03 X199.599 Y472.883 I-12.774 J12.729 
X199.715 Y473.983 I-10.368 J1.649 
G02 X199.98 Y474.265 I0.291 J-0.008 
G01 X199.961 Y475.274 
G02 X200.811 Y474.974 I0.006 J-1.336 
G03 X202.954 Y473.126 I16.197 J16.616 
G02 X203.56 Y471.718 I-0.786 J-1.173 
G03 X207.091 Y461.639 I10.582 J-1.95 
X208.248 Y460.7 I7.751 J8.369 
G01 X191.735 Y460.7 
G03 X198.607 Y473.007 I-10.148 J13.738 
X198.724 Y474.139 I-10.259 J1.632 
G02 X199.961 Y475.274 I1.278 J-0.151 
G01 X199.942 Y476.279 
G02 X201.437 Y475.759 I0.024 J-2.339 
G03 X203.593 Y473.896 I16.153 J16.515 
G02 X204.556 Y471.618 I-1.384 J-1.928 
G03 X207.737 Y462.403 I9.598 J-1.843 
X211.923 Y459.7 I10.507 J11.678 
G01 X188.048 Y459.7 
G03 X197.615 Y473.13 I-6.493 J14.747 
X197.733 Y474.285 I-10.149 J1.62 
G02 X199.942 Y476.279 I2.27 J-0.294 
G01 X199.925 Y477.282 
G02 X202.07 Y476.538 I0.042 J-3.34 
G03 X204.233 Y474.665 I16.274 J16.608 
G02 X205.551 Y471.51 I-1.988 J-2.683 
G03 X208.383 Y463.168 I8.607 J-1.729 
X216.297 Y459.468 I10.036 J11.152 
G01 X216.297 Y458.7 
X183.7 Y458.7 
X183.7 Y459.479 
G03 X196.623 Y473.253 I-2.158 J14.974 
X196.741 Y474.422 I-9.864 J1.586 
G02 X199.925 Y477.282 I3.26 J-0.427 
G01 X199.903 Y478.284 
G02 X202.709 Y477.311 I0.072 J-4.323 
G03 X204.871 Y475.436 I16.302 J16.613 
G02 X206.487 Y472.916 I-2.631 J-3.465 
X206.454 Y470.883 I-4.594 J-0.942 
G03 X207.23 Y466.233 I7.851 J-1.079 
X209.027 Y463.934 I6.839 J3.494 
X217.297 Y460.358 I9.415 J10.422 
G01 X217.297 Y457.7 
X182.7 Y457.7 
X182.7 Y460.367 
G03 X195.631 Y473.376 I-1.165 J14.089 
X195.748 Y474.554 I-9.137 J1.502 
G02 X199.903 Y478.284 I4.253 J-0.558 
G01 X199.884 Y479.286 
G02 X203.35 Y478.083 I0.096 J-5.316 
G03 X205.517 Y476.202 I15.694 J15.891 
G02 X206.472 Y475.246 I-3.616 J-4.567 
X207.451 Y470.797 I-4.152 J-3.245 
G03 X207.634 Y467.925 I7.178 J-0.984 
X209.672 Y464.7 I6.454 J1.822 
X218.297 Y461.313 I8.768 J9.653 
G01 X218.297 Y456.7 
X181.7 Y456.7 
X181.7 Y461.319 
G03 X194.639 Y473.497 I-0.166 J13.139 
X194.755 Y474.681 I-8.511 J1.431 
G02 X199.884 Y479.286 I5.246 J-0.684 
G01 X200.389 Y480.276 
G02 X203.369 Y479.307 I-0.417 J-6.35 
G01 X203.992 Y478.854 
G03 X206.166 Y476.965 I15.225 J15.326 
G01 X206.829 Y476.36 
G02 X208.532 Y472.865 I-4.495 J-4.353 
X208.556 Y471.305 I-5.94 J-0.871 
G03 X208.445 Y468.894 I6.728 J-1.517 
X210.317 Y465.465 I5.643 J0.855 
X219.298 Y462.342 I8.126 J8.896 
G01 X219.298 Y455.7 
X180.7 Y455.7 
X180.7 Y462.347 
G03 X193.647 Y473.618 I0.834 J12.112 
X193.761 Y474.801 I-8.214 J1.388 
G02 X198.82 Y480.174 I6.231 J-0.798 
X200.389 Y480.276 I1.177 J-5.994 
G01 X200.454 Y481.276 
X201.365 Y481.158 
X202.251 Y480.931 
X203.102 Y480.595 
X203.906 Y480.153 
X204.634 Y479.624 
G03 X206.816 Y477.728 I14.974 J15.03 
G01 X207.551 Y477.056 
X208.144 Y476.358 
X208.646 Y475.592 
X209.047 Y474.771 
X209.341 Y473.904 
X209.525 Y473.006 
X209.597 Y472.093 
X209.552 Y471.188 
G03 X209.381 Y469.643 I6.746 J-1.528 
X210.964 Y466.229 I4.713 J0.111 
X220.299 Y463.462 I7.495 J8.157 
G01 X220.299 Y454.7 
X179.7 Y454.7 
X179.7 Y463.466 
G03 X192.655 Y473.738 I1.829 J10.998 
X192.767 Y474.924 I-7.881 J1.342 
G01 X192.936 Y475.812 
X193.219 Y476.683 
X193.607 Y477.51 
X194.1 Y478.284 
X194.683 Y478.99 
X195.35 Y479.614 
X196.091 Y480.154 
X196.894 Y480.595 
X197.745 Y480.931 
X198.631 Y481.158 
X199.542 Y481.276 
X200.454 Y481.276 
X200.518 Y482.276 
X201.554 Y482.143 
X202.561 Y481.885 
X203.529 Y481.502 
X204.443 Y480.999 
X205.276 Y480.394 
G03 X207.465 Y478.49 I14.99 J15.024 
G01 X208.272 Y477.752 
X208.947 Y476.959 
X209.517 Y476.088 
X209.974 Y475.153 
X210.309 Y474.167 
X210.518 Y473.146 
X210.599 Y472.108 
X210.548 Y471.075 
G03 X210.378 Y469.721 I6.398 J-1.491 
X211.612 Y466.992 I3.714 J0.036 
X221.3 Y464.705 I6.869 J7.438 
G01 X221.3 Y453.7 
X178.7 Y453.7 
X178.7 Y464.708 
G03 X191.662 Y473.857 I2.818 J9.762 
X191.773 Y475.045 I-7.224 J1.274 
G01 X191.966 Y476.061 
X192.288 Y477.052 
X192.73 Y477.993 
X193.29 Y478.873 
X193.953 Y479.677 
X194.712 Y480.387 
X195.554 Y481 
X196.468 Y481.502 
X197.436 Y481.885 
X198.443 Y482.143 
X199.479 Y482.276 
X200.518 Y482.276 
X200.582 Y483.276 
X201.742 Y483.128 
X202.871 Y482.839 
X203.956 Y482.409 
X204.98 Y481.846 
X205.919 Y481.164 
G03 X208.114 Y479.252 I14.88 J14.867 
G01 X208.993 Y478.449 
X209.75 Y477.56 
X210.389 Y476.584 
X210.901 Y475.535 
X211.277 Y474.43 
X211.511 Y473.286 
X211.601 Y472.123 
X211.544 Y470.956 
G03 X211.376 Y469.792 I6.181 J-1.486 
X212.26 Y467.756 I2.706 J-0.034 
X222.3 Y466.13 I6.237 J6.701 
G01 X222.3 Y452.7 
X177.7 Y452.7 
X177.7 Y466.132 
X177.703 Y466.13 
G03 X190.669 Y473.977 I3.804 J8.349 
X190.778 Y475.163 I-6.417 J1.187 
G01 X190.996 Y476.31 
X191.357 Y477.421 
X191.853 Y478.476 
X192.48 Y479.462 
X193.223 Y480.363 
X194.074 Y481.16 
X195.018 Y481.846 
X196.042 Y482.409 
X197.127 Y482.839 
X198.256 Y483.128 
X199.416 Y483.276 
X200.582 Y483.276 
G00 Z5
X145.3 Y502.3
Z2
G01 Z-2.75 F100
X145.3 Y489.7 F150
X144.7 Y489.7 
X144.7 Y502.3 
X145.3 Y502.3 
X146.3 Y503.3 
X146.3 Y488.7 
X143.7 Y488.7 
X143.7 Y503.3 
X146.3 Y503.3 
G00 Z5
X255.298 Y502.3
Z2
G01 Z-2.75 F100
X255.298 Y489.7 F150
X254.7 Y489.7 
X254.7 Y502.3 
X255.298 Y502.3 
X256.298 Y503.3 
X256.298 Y500.845 
X256.298 Y496.582 
X256.298 Y488.7 
X255.276 Y488.7 
X255.147 Y488.7 
X253.7 Y488.7 
X253.7 Y491.87 
X253.7 Y502.159 
X253.7 Y502.625 
X253.7 Y502.674 
X253.7 Y503.028 
X253.7 Y503.3 
X254.468 Y503.3 
X255.149 Y503.3 
X256.298 Y503.3 
X257.299 Y504.3 
X257.299 Y500.127 
X257.299 Y495.051 
X257.299 Y487.7 
X256.158 Y487.7 
X255.894 Y487.7 
X253.702 Y487.7 
X253.21 Y487.7 
X252.7 Y487.7 
X252.7 Y498.588 
X252.7 Y500.163 
X252.7 Y501.917 
X252.7 Y502.784 
X252.7 Y504.3 
X255.669 Y504.3 
X257.165 Y504.3 
X257.299 Y504.3 
G00 Z5
X147.3 Y504.3
Z2
G01 Z-2.75 F100
X147.3 Y487.7 F150
X142.7 Y487.7 
X142.7 Y504.3 
X147.3 Y504.3 
G00 Z5
X200.646 Y484.276
Z2
G01 Z-2.75 F100
X201.93 Y484.113 F150
X203.181 Y483.792 
X204.383 Y483.316 
X205.517 Y482.693 
X206.563 Y481.933 
G03 X208.059 Y480.557 I17.581 J17.613 
X208.758 Y480.019 I7.342 J8.816 
G02 X209.714 Y479.146 I-182.289 J-200.581 
G01 X210.553 Y478.161 
X211.261 Y477.079 
X211.828 Y475.917 
X212.244 Y474.693 
X212.504 Y473.426 
X212.603 Y472.137 
X212.54 Y470.845 
X212.4 Y470.051 
G03 X212.91 Y468.518 I1.672 J-0.295 
X223.3 Y467.867 I5.587 J5.939 
G01 X223.3 Y451.7 
X176.7 Y451.7 
X176.7 Y463.129 
X176.7 Y463.997 
X176.7 Y467.867 
G03 X189.678 Y474.111 I4.807 J6.616 
G01 X189.727 Y474.391 
X189.784 Y475.289 
X190.026 Y476.56 
X190.426 Y477.79 
X190.976 Y478.96 
X191.67 Y480.051 
X192.493 Y481.049 
X193.436 Y481.933 
X194.482 Y482.693 
X195.616 Y483.316 
X196.818 Y483.792 
X198.069 Y484.113 
X199.353 Y484.276 
X200.646 Y484.276 
G00 Z5
X88.7 Y425.824
Z2
G01 Z-2.75 F100
X88.7 Y445.775 F150
G03 X89.071 Y445.399 I2.998 J2.587 
G01 X90.039 Y444.599 
X90.21 Y444.474 
X91.27 Y443.801 
X91.457 Y443.699 
X92.593 Y443.164 
X92.793 Y443.085 
X93.988 Y442.697 
X94.194 Y442.644 
X95.427 Y442.409 
X95.639 Y442.382 
G03 X97 Y442.3 I1.855 J19.457 
G01 X103.637 Y442.3 
G03 X104.208 Y442.284 I0.367 J2.9 
G02 X110.291 Y435.877 I-0.405 J-6.476 
G03 X110.284 Y435.391 I2.669 J-0.281 
G02 X108.246 Y431.063 I-6.489 J0.412 
X104.614 Y429.354 I-4.443 J4.729 
G01 X103.746 Y429.3 
X97 Y429.3 
G03 X95.639 Y429.217 I0.943 J-26.67 
G01 X95.427 Y429.19 
X94.194 Y428.955 
X93.988 Y428.902 
X92.793 Y428.514 
X92.593 Y428.435 
X91.457 Y427.9 
X91.27 Y427.798 
X90.21 Y427.125 
X90.039 Y427 
X89.071 Y426.2 
G03 X88.7 Y425.824 I2.627 J-2.963 
G00 Z5
X211.171 Y148.3
Z2
G01 Z-2.75 F100
G03 X210.3 Y145 I5.873 J-3.315 F150
G01 X210.3 Y138.053 
X210.215 Y136.709 
X209.973 Y135.439 
X209.573 Y134.209 
X209.023 Y133.039 
X208.329 Y131.948 
X207.505 Y130.95 
X206.563 Y130.065 
X205.517 Y129.306 
X204.383 Y128.683 
X203.181 Y128.207 
X201.93 Y127.886 
X200.646 Y127.724 
X200.263 Y127.724 
G03 X199.872 Y127.711 I-0.131 J-1.931 
G01 X198.709 Y127.784 
X197.439 Y128.026 
X196.209 Y128.426 
X195.039 Y128.976 
X193.948 Y129.67 
X192.95 Y130.493 
X192.066 Y131.436 
X191.306 Y132.482 
X190.683 Y133.616 
X190.207 Y134.818 
X189.886 Y136.069 
X189.724 Y137.353 
G03 X189.7 Y138.243 I-4.517 J0.323 
G01 X189.7 Y145 
G03 X188.828 Y148.3 I-6.738 J-0.015 
G01 X203.458 Y148.3 
X203.722 Y148.3 
X211.171 Y148.3 
G00 Z5
X257.3 Y124.3
Z2
G01 Z-2.75 F100
X257.3 Y107.7 F150
X252.7 Y107.7 
X252.7 Y124.3 
X257.3 Y124.3 
G00 Z5
X147.3 Y124.3
Z2
G01 Z-2.75 F100
X147.3 Y107.7 F150
X142.7 Y107.7 
X142.7 Y124.3 
X147.3 Y124.3 
G00 Z5
X145.3 Y122.3
Z-0.75
G01 Z-5.5 F100
X145.3 Y109.7 F150
X144.7 Y109.7 
X144.7 Y122.3 
X145.3 Y122.3 
X146.3 Y123.3 
X146.3 Y108.7 
X143.7 Y108.7 
X143.7 Y123.3 
X146.3 Y123.3 
G00 Z5
X255.3 Y122.3
Z-0.75
G01 Z-5.5 F100
X255.3 Y109.7 F150
X254.7 Y109.7 
X254.7 Y122.3 
X255.3 Y122.3 
X256.3 Y123.3 
X256.3 Y108.7 
X253.7 Y108.7 
X253.7 Y123.3 
X256.3 Y123.3 
G00 Z5
X200.292 Y138.3
Z-0.75
G01 Z-5.5 F100
G02 X200.273 Y137.955 I-1.203 J-0.106 F150
X199.726 Y137.999 I-0.271 J0.042 
G01 X199.711 Y138.3 
X200.292 Y138.3 
X201.3 Y139.3 
G02 X201.29 Y137.984 I-21.653 J-0.493 
X200.505 Y136.822 I-1.34 J0.059 
X198.732 Y137.868 I-0.506 J1.166 
X198.699 Y139.3 I13.804 J1.034 
G01 X201.3 Y139.3 
X202.3 Y140.3 
X202.3 Y138.299 
G02 X202.085 Y137.081 I-2.804 J-0.133 
X197.738 Y137.742 I-2.085 J0.906 
G01 X197.699 Y138.479 
X197.699 Y140.3 
X202.3 Y140.3 
X203.3 Y141.3 
X203.3 Y138.274 
G02 X203.171 Y137.158 I-4.383 J-0.058 
X196.743 Y137.623 I-3.17 J0.83 
G01 X196.699 Y138.453 
X196.699 Y141.3 
X203.3 Y141.3 
X204.3 Y142.3 
X204.3 Y138.242 
X204.249 Y137.458 
G02 X195.748 Y137.509 I-4.247 J0.532 
G01 X195.699 Y138.427 
X195.699 Y142.3 
X204.3 Y142.3 
X205.3 Y143.3 
X205.3 Y138.21 
X205.243 Y137.333 
G02 X194.72 Y138.035 I-5.24 J0.658 
G01 X194.7 Y138.401 
X194.7 Y143.3 
X205.3 Y143.3 
X206.3 Y144.3 
X206.3 Y138.178 
X206.238 Y137.211 
G02 X202.673 Y132.307 I-6.237 J0.786 
X199.795 Y131.715 I-2.665 J5.668 
X195.693 Y133.413 I0.181 J6.242 
X193.724 Y137.586 I4.29 J4.575 
G03 X193.7 Y138.374 I-7.518 J0.165 
G01 X193.7 Y144.3 
X206.3 Y144.3 
X207.31 Y145.3 
G03 X207.3 Y144.999 I3.983 J-0.283 
G01 X207.3 Y138.146 
X207.232 Y137.085 
X207.06 Y136.185 
X206.777 Y135.313 
X206.389 Y134.486 
X205.896 Y133.712 
X205.312 Y133.004 
X204.646 Y132.38 
X203.906 Y131.843 
X203.101 Y131.401 
X202.251 Y131.063 
X201.366 Y130.838 
X200.443 Y130.72 
G02 X199.088 Y130.763 I-0.402 J8.672 
G01 X198.184 Y130.936 
X197.313 Y131.218 
X196.486 Y131.606 
X195.713 Y132.099 
X195.007 Y132.683 
X194.382 Y133.35 
X193.842 Y134.091 
X193.401 Y134.894 
X193.065 Y135.745 
X192.838 Y136.63 
X192.725 Y137.522 
G03 X192.7 Y138.345 I-7.037 J0.198 
G01 X192.7 Y145 
G03 X192.688 Y145.3 I-7.981 J-0.169 
G01 X207.31 Y145.3 
X208.409 Y146.3 
G03 X208.3 Y144.999 I6.896 J-1.232 
G01 X208.3 Y138.115 
X208.226 Y136.959 
X208.031 Y135.936 
X207.709 Y134.945 
X207.267 Y134.004 
X206.707 Y133.124 
X206.043 Y132.319 
X205.285 Y131.608 
X204.443 Y130.997 
X203.529 Y130.495 
X202.561 Y130.111 
X201.554 Y129.854 
X200.511 Y129.721 
G02 X198.959 Y129.771 I-0.463 J9.738 
G01 X197.935 Y129.966 
X196.945 Y130.287 
X196.004 Y130.73 
X195.124 Y131.289 
X194.321 Y131.953 
X193.61 Y132.712 
X192.997 Y133.554 
X192.495 Y134.468 
X192.112 Y135.436 
X191.854 Y136.443 
X191.725 Y137.462 
G03 X191.7 Y138.314 I-5.972 J0.251 
G01 X191.7 Y145 
G03 X191.587 Y146.3 I-7.238 J0.025 
G01 X208.409 Y146.3 
X209.654 Y147.3 
G03 X209.3 Y144.999 I7.435 J-2.321 
G01 X209.3 Y138.084 
X209.22 Y136.834 
X209.002 Y135.688 
X208.641 Y134.577 
X208.145 Y133.522 
X207.518 Y132.536 
X206.774 Y131.634 
X205.924 Y130.837 
X204.98 Y130.152 
X203.956 Y129.589 
X202.871 Y129.159 
X201.742 Y128.87 
X200.583 Y128.724 
G03 X199.886 Y128.712 I-0.143 J-11.923 
G01 X198.834 Y128.778 
X197.687 Y128.996 
X196.577 Y129.356 
X195.522 Y129.853 
X194.536 Y130.479 
X193.635 Y131.223 
X192.838 Y132.074 
X192.152 Y133.018 
X191.589 Y134.042 
X191.159 Y135.127 
X190.87 Y136.256 
X190.725 Y137.405 
G03 X190.7 Y138.28 I-5.211 J0.288 
G01 X190.7 Y145 
G03 X190.343 Y147.3 I-7.866 J-0.043 
G01 X209.654 Y147.3 
G00 Z5
X94.697 Y436.45
Z-0.75
G01 Z-5.5 F100
G03 X97 Y436.3 I2.254 J16.865 F150
G01 X103.751 Y436.3 
G02 X104.257 Y435.884 I-0.019 J-0.539 
X103.824 Y435.315 I-0.477 J-0.086 
G01 X103.563 Y435.3 
X97.313 Y435.302 
G03 X94.697 Y435.138 I-0.309 J-16.003 
G01 X94.697 Y436.45 
X93.698 Y437.635 
G03 X97 Y437.3 I3.251 J15.612 
G01 X103.522 Y437.3 
G02 X104.978 Y436.688 I0.171 J-1.63 
X103.974 Y434.322 I-1.193 J-0.889 
G01 X103.592 Y434.3 
X97.326 Y434.303 
G03 X93.698 Y433.955 I-0.278 J-16.183 
G01 X93.698 Y437.635 
X92.699 Y438.909 
G03 X97 Y438.3 I4.269 J14.662 
G01 X103.531 Y438.3 
G02 X105.498 Y437.61 I0.174 J-2.65 
X104.114 Y433.329 I-1.711 J-1.81 
G01 X103.622 Y433.3 
X97.339 Y433.304 
G03 X92.699 Y432.684 I-0.271 J-15.643 
G01 X92.699 Y438.909 
X91.7 Y431.306 
X91.7 Y440.294 
G03 X97 Y439.3 I5.301 J13.641 
G01 X103.542 Y439.3 
G02 X105.33 Y438.936 I0.155 J-3.809 
X104.249 Y432.336 I-1.544 J-3.135 
G01 X103.652 Y432.3 
X97.355 Y432.305 
G03 X91.7 Y431.306 I-0.256 J-15.054 
G01 X90.7 Y429.755 
X90.7 Y441.844 
G03 X91.864 Y441.3 I7.354 J14.219 
X97 Y440.3 I5.162 J12.826 
G01 X103.56 Y440.3 
G03 X104.102 Y440.281 I0.4 J3.681 
G02 X108.275 Y435.601 I-0.292 J-4.46 
X105.849 Y431.801 I-4.441 J0.16 
X104.371 Y431.342 I-2.032 J3.936 
G01 X103.683 Y431.3 
X97.371 Y431.306 
G03 X95.066 Y431.156 I-0.166 J-15.225 
X93.368 Y430.803 I1.727 J-12.568 
X92.049 Y430.37 I4.971 J-17.371 
X90.7 Y429.755 I5.741 J-14.381 
G01 X89.7 Y427.985 
X89.7 Y443.613 
G03 X90.791 Y442.923 I8.905 J12.873 
X91.03 Y442.794 I3.275 J5.783 
X92.225 Y442.233 I11.786 J23.552 
X92.484 Y442.133 I1.589 J3.73 
X93.738 Y441.728 I6.685 J18.556 
X94.006 Y441.661 I1.26 J4.471 
X95.3 Y441.417 I3.56 J15.329 
X97 Y441.3 I2.065 J17.599 
G01 X103.598 Y441.3 
G03 X104.159 Y441.282 I0.389 J3.391 
G02 X109.276 Y435.601 I-0.346 J-5.456 
X109.215 Y434.866 I-2.907 J-0.128 
X104.494 Y430.348 I-5.417 J0.935 
G01 X103.714 Y430.3 
X98.316 Y430.3 
G03 X95.578 Y430.215 I-0.655 J-23.04 
X95.239 Y430.172 I0.697 J-6.858 
X93.944 Y429.923 I3.04 J-19.303 
X93.679 Y429.853 I1.085 J-4.647 
X92.425 Y429.444 I6.674 J-22.59 
X92.166 Y429.339 I1.219 J-3.381 
X90.978 Y428.777 I6.649 J-15.592 
X90.734 Y428.642 I2.529 J-4.86 
G01 X89.7 Y427.985 
G00 Z5
X200.275 Y464.718
Z-0.75
G01 Z-5.5 F100
X200.282 Y464.7 F150
X200.266 Y464.7 
X200.275 Y464.718 
X200.523 Y467.787 
G03 X201.798 Y463.7 I13.249 J1.89 
G01 X198.536 Y463.7 
G03 X200.523 Y467.787 I-15.893 J10.253 
G01 X200.56 Y472.497 
G03 X201.536 Y471.688 I13.074 J14.779 
X203.525 Y462.7 I12.471 J-1.954 
G01 X196.617 Y462.7 
G03 X200.56 Y472.497 I-14.897 J11.687 
G01 X199.98 Y474.265 
G02 X200.194 Y474.18 I-0.017 J-0.356 
G03 X202.463 Y472.229 I19.226 J20.065 
G02 X202.563 Y471.812 I-0.345 J-0.303 
G03 X205.592 Y461.7 I11.535 J-2.054 
G01 X194.406 Y461.7 
G03 X199.599 Y472.883 I-12.774 J12.729 
X199.715 Y473.983 I-10.368 J1.649 
G02 X199.98 Y474.265 I0.291 J-0.008 
G01 X199.961 Y475.274 
G02 X200.811 Y474.974 I0.006 J-1.336 
G03 X202.954 Y473.126 I16.197 J16.616 
G02 X203.56 Y471.718 I-0.786 J-1.173 
G03 X207.091 Y461.639 I10.582 J-1.95 
X208.248 Y460.7 I7.751 J8.369 
G01 X191.735 Y460.7 
G03 X198.607 Y473.007 I-10.148 J13.738 
X198.724 Y474.139 I-10.259 J1.632 
G02 X199.961 Y475.274 I1.278 J-0.151 
G01 X199.942 Y476.279 
G02 X201.437 Y475.759 I0.024 J-2.339 
G03 X203.593 Y473.896 I16.153 J16.515 
G02 X204.556 Y471.618 I-1.384 J-1.928 
G03 X207.737 Y462.403 I9.598 J-1.843 
X211.923 Y459.7 I10.507 J11.678 
G01 X188.048 Y459.7 
G03 X197.615 Y473.13 I-6.493 J14.747 
X197.733 Y474.285 I-10.149 J1.62 
G02 X199.942 Y476.279 I2.27 J-0.294 
G01 X199.925 Y477.282 
G02 X202.07 Y476.538 I0.042 J-3.34 
G03 X204.233 Y474.665 I16.274 J16.608 
G02 X205.551 Y471.51 I-1.988 J-2.683 
G03 X208.383 Y463.168 I8.607 J-1.729 
X216.297 Y459.468 I10.036 J11.152 
G01 X216.297 Y458.7 
X183.7 Y458.7 
X183.7 Y459.479 
G03 X196.623 Y473.253 I-2.158 J14.974 
X196.741 Y474.422 I-9.864 J1.586 
G02 X199.925 Y477.282 I3.26 J-0.427 
G01 X199.903 Y478.284 
G02 X202.709 Y477.311 I0.072 J-4.323 
G03 X204.871 Y475.436 I16.302 J16.613 
G02 X206.487 Y472.916 I-2.631 J-3.465 
X206.454 Y470.883 I-4.594 J-0.942 
G03 X207.23 Y466.233 I7.851 J-1.079 
X209.027 Y463.934 I6.839 J3.494 
X217.297 Y460.358 I9.415 J10.422 
G01 X217.297 Y457.7 
X182.7 Y457.7 
X182.7 Y460.367 
G03 X195.631 Y473.376 I-1.165 J14.089 
X195.748 Y474.554 I-9.137 J1.502 
G02 X199.903 Y478.284 I4.253 J-0.558 
G01 X199.884 Y479.286 
G02 X203.35 Y478.083 I0.096 J-5.316 
G03 X205.517 Y476.202 I15.694 J15.891 
G02 X206.472 Y475.246 I-3.616 J-4.567 
X207.451 Y470.797 I-4.152 J-3.245 
G03 X207.634 Y467.925 I7.178 J-0.984 
X209.672 Y464.7 I6.454 J1.822 
X218.297 Y461.313 I8.768 J9.653 
G01 X218.297 Y456.7 
X181.7 Y456.7 
X181.7 Y461.319 
G03 X194.639 Y473.497 I-0.166 J13.139 
X194.755 Y474.681 I-8.511 J1.431 
G02 X199.884 Y479.286 I5.246 J-0.684 
G01 X200.389 Y480.276 
G02 X203.369 Y479.307 I-0.417 J-6.35 
G01 X203.992 Y478.854 
G03 X206.166 Y476.965 I15.225 J15.326 
G01 X206.829 Y476.36 
G02 X208.532 Y472.865 I-4.495 J-4.353 
X208.556 Y471.305 I-5.94 J-0.871 
G03 X208.445 Y468.894 I6.728 J-1.517 
X210.317 Y465.465 I5.643 J0.855 
X219.298 Y462.342 I8.126 J8.896 
G01 X219.298 Y455.7 
X180.7 Y455.7 
X180.7 Y462.347 
G03 X193.647 Y473.618 I0.834 J12.112 
X193.761 Y474.801 I-8.214 J1.388 
G02 X198.82 Y480.174 I6.231 J-0.798 
X200.389 Y480.276 I1.177 J-5.994 
G01 X200.454 Y481.276 
X201.365 Y481.158 
X202.251 Y480.931 
X203.102 Y480.595 
X203.906 Y480.153 
X204.634 Y479.624 
G03 X206.816 Y477.728 I14.974 J15.03 
G01 X207.551 Y477.056 
X208.144 Y476.358 
X208.646 Y475.592 
X209.047 Y474.771 
X209.341 Y473.904 
X209.525 Y473.006 
X209.597 Y472.093 
X209.552 Y471.188 
G03 X209.381 Y469.643 I6.746 J-1.528 
X210.964 Y466.229 I4.713 J0.111 
X220.299 Y463.462 I7.495 J8.157 
G01 X220.299 Y454.7 
X179.7 Y454.7 
X179.7 Y463.466 
G03 X192.655 Y473.738 I1.829 J10.998 
X192.767 Y474.924 I-7.881 J1.342 
G01 X192.936 Y475.812 
X193.219 Y476.683 
X193.607 Y477.51 
X194.1 Y478.284 
X194.683 Y478.99 
X195.35 Y479.614 
X196.091 Y480.154 
X196.894 Y480.595 
X197.745 Y480.931 
X198.631 Y481.158 
X199.542 Y481.276 
X200.454 Y481.276 
X200.518 Y482.276 
X201.554 Y482.143 
X202.561 Y481.885 
X203.529 Y481.502 
X204.443 Y480.999 
X205.276 Y480.394 
G03 X207.465 Y478.49 I14.99 J15.024 
G01 X208.272 Y477.752 
X208.947 Y476.959 
X209.517 Y476.088 
X209.974 Y475.153 
X210.309 Y474.167 
X210.518 Y473.146 
X210.599 Y472.108 
X210.548 Y471.075 
G03 X210.378 Y469.721 I6.398 J-1.491 
X211.612 Y466.992 I3.714 J0.036 
X221.3 Y464.705 I6.869 J7.438 
G01 X221.3 Y453.7 
X178.7 Y453.7 
X178.7 Y464.708 
G03 X191.662 Y473.857 I2.818 J9.762 
X191.773 Y475.045 I-7.224 J1.274 
G01 X191.966 Y476.061 
X192.288 Y477.052 
X192.73 Y477.993 
X193.29 Y478.873 
X193.953 Y479.677 
X194.712 Y480.387 
X195.554 Y481 
X196.468 Y481.502 
X197.436 Y481.885 
X198.443 Y482.143 
X199.479 Y482.276 
X200.518 Y482.276 
X200.582 Y483.276 
X201.742 Y483.128 
X202.871 Y482.839 
X203.956 Y482.409 
X204.98 Y481.846 
X205.919 Y481.164 
G03 X208.114 Y479.252 I14.88 J14.867 
G01 X208.993 Y478.449 
X209.75 Y477.56 
X210.389 Y476.584 
X210.901 Y475.535 
X211.277 Y474.43 
X211.511 Y473.286 
X211.601 Y472.123 
X211.544 Y470.956 
G03 X211.376 Y469.792 I6.181 J-1.486 
X212.26 Y467.756 I2.706 J-0.034 
X222.3 Y466.13 I6.237 J6.701 
G01 X222.3 Y452.7 
X177.7 Y452.7 
X177.7 Y466.132 
X177.703 Y466.13 
G03 X190.669 Y473.977 I3.804 J8.349 
X190.778 Y475.163 I-6.417 J1.187 
G01 X190.996 Y476.31 
X191.357 Y477.421 
X191.853 Y478.476 
X192.48 Y479.462 
X193.223 Y480.363 
X194.074 Y481.16 
X195.018 Y481.846 
X196.042 Y482.409 
X197.127 Y482.839 
X198.256 Y483.128 
X199.416 Y483.276 
X200.582 Y483.276 
G00 Z5
X145.3 Y502.3
Z-0.75
G01 Z-5.5 F100
X145.3 Y489.7 F150
X144.7 Y489.7 
X144.7 Y502.3 
X145.3 Y502.3 
X146.3 Y503.3 
X146.3 Y488.7 
X143.7 Y488.7 
X143.7 Y503.3 
X146.3 Y503.3 
G00 Z5
X255.298 Y502.3
Z-0.75
G01 Z-5.5 F100
X255.298 Y489.7 F150
X254.7 Y489.7 
X254.7 Y502.3 
X255.298 Y502.3 
X256.298 Y503.3 
X256.298 Y500.845 
X256.298 Y496.582 
X256.298 Y488.7 
X255.276 Y488.7 
X255.147 Y488.7 
X253.7 Y488.7 
X253.7 Y491.87 
X253.7 Y502.159 
X253.7 Y502.625 
X253.7 Y502.674 
X253.7 Y503.028 
X253.7 Y503.3 
X254.468 Y503.3 
X255.149 Y503.3 
X256.298 Y503.3 
X257.299 Y504.3 
X257.299 Y500.127 
X257.299 Y495.051 
X257.299 Y487.7 
X256.158 Y487.7 
X255.894 Y487.7 
X253.702 Y487.7 
X253.21 Y487.7 
X252.7 Y487.7 
X252.7 Y498.588 
X252.7 Y500.163 
X252.7 Y501.917 
X252.7 Y502.784 
X252.7 Y504.3 
X255.669 Y504.3 
X257.165 Y504.3 
X257.299 Y504.3 
G00 Z5
X147.3 Y504.3
Z-0.75
G01 Z-5.5 F100
X147.3 Y487.7 F150
X142.7 Y487.7 
X142.7 Y504.3 
X147.3 Y504.3 
G00 Z5
X200.646 Y484.276
Z-0.75
G01 Z-5.5 F100
X201.93 Y484.113 F150
X203.181 Y483.792 
X204.383 Y483.316 
X205.517 Y482.693 
X206.563 Y481.933 
G03 X208.059 Y480.557 I17.581 J17.613 
X208.758 Y480.019 I7.342 J8.816 
G02 X209.714 Y479.146 I-182.289 J-200.581 
G01 X210.553 Y478.161 
X211.261 Y477.079 
X211.828 Y475.917 
X212.244 Y474.693 
X212.504 Y473.426 
X212.603 Y472.137 
X212.54 Y470.845 
X212.4 Y470.051 
G03 X212.91 Y468.518 I1.672 J-0.295 
X223.3 Y467.867 I5.587 J5.939 
G01 X223.3 Y451.7 
X176.7 Y451.7 
X176.7 Y463.129 
X176.7 Y463.997 
X176.7 Y467.867 
G03 X189.678 Y474.111 I4.807 J6.616 
G01 X189.727 Y474.391 
X189.784 Y475.289 
X190.026 Y476.56 
X190.426 Y477.79 
X190.976 Y478.96 
X191.67 Y480.051 
X192.493 Y481.049 
X193.436 Y481.933 
X194.482 Y482.693 
X195.616 Y483.316 
X196.818 Y483.792 
X198.069 Y484.113 
X199.353 Y484.276 
X200.646 Y484.276 
G00 Z5
X88.7 Y425.824
Z-0.75
G01 Z-5.5 F100
X88.7 Y445.775 F150
G03 X89.071 Y445.399 I2.998 J2.587 
G01 X90.039 Y444.599 
X90.21 Y444.474 
X91.27 Y443.801 
X91.457 Y443.699 
X92.593 Y443.164 
X92.793 Y443.085 
X93.988 Y442.697 
X94.194 Y442.644 
X95.427 Y442.409 
X95.639 Y442.382 
G03 X97 Y442.3 I1.855 J19.457 
G01 X103.637 Y442.3 
G03 X104.208 Y442.284 I0.367 J2.9 
G02 X110.291 Y435.877 I-0.405 J-6.476 
G03 X110.284 Y435.391 I2.669 J-0.281 
G02 X108.246 Y431.063 I-6.489 J0.412 
X104.614 Y429.354 I-4.443 J4.729 
G01 X103.746 Y429.3 
X97 Y429.3 
G03 X95.639 Y429.217 I0.943 J-26.67 
G01 X95.427 Y429.19 
X94.194 Y428.955 
X93.988 Y428.902 
X92.793 Y428.514 
X92.593 Y428.435 
X91.457 Y427.9 
X91.27 Y427.798 
X90.21 Y427.125 
X90.039 Y427 
X89.071 Y426.2 
G03 X88.7 Y425.824 I2.627 J-2.963 
G00 Z5
X211.171 Y148.3
Z-0.75
G01 Z-5.5 F100
G03 X210.3 Y145 I5.873 J-3.315 F150
G01 X210.3 Y138.053 
X210.215 Y136.709 
X209.973 Y135.439 
X209.573 Y134.209 
X209.023 Y133.039 
X208.329 Y131.948 
X207.505 Y130.95 
X206.563 Y130.065 
X205.517 Y129.306 
X204.383 Y128.683 
X203.181 Y128.207 
X201.93 Y127.886 
X200.646 Y127.724 
X200.263 Y127.724 
G03 X199.872 Y127.711 I-0.131 J-1.931 
G01 X198.709 Y127.784 
X197.439 Y128.026 
X196.209 Y128.426 
X195.039 Y128.976 
X193.948 Y129.67 
X192.95 Y130.493 
X192.066 Y131.436 
X191.306 Y132.482 
X190.683 Y133.616 
X190.207 Y134.818 
X189.886 Y136.069 
X189.724 Y137.353 
G03 X189.7 Y138.243 I-4.517 J0.323 
G01 X189.7 Y145 
G03 X188.828 Y148.3 I-6.738 J-0.015 
G01 X203.458 Y148.3 
X203.722 Y148.3 
X211.171 Y148.3 
G00 Z5
X257.3 Y124.3
Z-0.75
G01 Z-5.5 F100
X257.3 Y107.7 F150
X252.7 Y107.7 
X252.7 Y124.3 
X257.3 Y124.3 
G00 Z5
X147.3 Y124.3
Z-0.75
G01 Z-5.5 F100
X147.3 Y107.7 F150
X142.7 Y107.7 
X142.7 Y124.3 
X147.3 Y124.3 
G00 Z5
(Sketch 0)
X184.642 Y490.885 S7000 M03
Z2
G01 Z-3 F100
X184.638 Y490.836 F150
X184.635 Y490.787 
X184.631 Y490.739 
X184.628 Y490.69 
X184.624 Y490.641 
X184.621 Y490.592 
X184.618 Y490.543 
X184.614 Y490.495 
X184.611 Y490.446 
X184.607 Y490.397 
X184.604 Y490.348 
X184.6 Y490.299 
X184.597 Y490.25 
X184.593 Y490.202 
X184.59 Y490.153 
X184.586 Y490.104 
X184.583 Y490.055 
X184.579 Y490.006 
X184.576 Y489.958 
X184.597 Y489.907 
X184.593 Y489.858 
X184.59 Y489.809 
X184.586 Y489.761 
X184.583 Y489.712 
X184.579 Y489.663 
X184.576 Y489.614 
X184.572 Y489.565 
X184.569 Y489.516 
X184.566 Y489.468 
X184.562 Y489.419 
X184.583 Y489.368 
X184.58 Y489.319 
X184.576 Y489.271 
X184.573 Y489.222 
X184.569 Y489.173 
X184.566 Y489.124 
X184.562 Y489.075 
X184.583 Y489.025 
X184.58 Y488.976 
X184.576 Y488.927 
X184.573 Y488.878 
X184.569 Y488.83 
X184.566 Y488.781 
X184.587 Y488.73 
X184.583 Y488.681 
X184.58 Y488.633 
X184.576 Y488.584 
X184.573 Y488.535 
X184.569 Y488.486 
X184.59 Y488.436 
X184.587 Y488.387 
X184.583 Y488.338 
X184.58 Y488.289 
X184.576 Y488.24 
X184.597 Y488.19 
X184.594 Y488.141 
X184.59 Y488.092 
X184.587 Y488.043 
X184.608 Y487.993 
X184.604 Y487.944 
X184.601 Y487.895 
X184.597 Y487.846 
X184.618 Y487.796 
X184.615 Y487.747 
X184.611 Y487.698 
X184.608 Y487.649 
X184.629 Y487.599 
X184.625 Y487.55 
X184.622 Y487.501 
X184.618 Y487.452 
X184.639 Y487.402 
X184.636 Y487.353 
X184.634 Y487.328 
X184.655 Y487.278 
X184.652 Y487.229 
X184.648 Y487.18 
X184.645 Y487.131 
X184.666 Y487.081 
X184.662 Y487.032 
X184.659 Y486.983 
X184.68 Y486.933 
X184.676 Y486.884 
X184.673 Y486.835 
X184.694 Y486.785 
X184.69 Y486.736 
X184.687 Y486.687 
X184.708 Y486.636 
X184.704 Y486.588 
X184.701 Y486.539 
X184.722 Y486.488 
X184.718 Y486.439 
X184.715 Y486.391 
X184.736 Y486.34 
X184.732 Y486.291 
X184.753 Y486.241 
X184.75 Y486.192 
X184.746 Y486.143 
X184.767 Y486.092 
X184.763 Y486.044 
X184.76 Y485.995 
X184.781 Y485.944 
X184.777 Y485.895 
X184.798 Y485.845 
X184.795 Y485.796 
X184.793 Y485.772 
X184.814 Y485.721 
X184.811 Y485.672 
X184.832 Y485.622 
X184.828 Y485.573 
X184.849 Y485.522 
X184.846 Y485.473 
X184.842 Y485.425 
X184.863 Y485.374 
X184.86 Y485.325 
X184.881 Y485.275 
X184.877 Y485.226 
X184.898 Y485.175 
X184.895 Y485.127 
X184.915 Y485.076 
X184.912 Y485.027 
X184.933 Y484.977 
X184.929 Y484.928 
X184.95 Y484.877 
X184.949 Y484.853 
X184.97 Y484.802 
X184.966 Y484.753 
X184.987 Y484.703 
X184.984 Y484.654 
X185.004 Y484.604 
X185.001 Y484.555 
X185.022 Y484.504 
X185.018 Y484.455 
X185.039 Y484.405 
X185.036 Y484.356 
X185.057 Y484.305 
X185.053 Y484.257 
X185.074 Y484.206 
X185.071 Y484.157 
X185.094 Y484.131 
X185.09 Y484.082 
X185.111 Y484.032 
X185.132 Y483.981 
X185.128 Y483.932 
X185.149 Y483.882 
X185.146 Y483.833 
X185.167 Y483.782 
X185.163 Y483.734 
X185.184 Y483.683 
X185.183 Y483.659 
G00 Z5
X184.642 Y490.885
Z-3
G01 Z-6 F100
X184.638 Y490.836 F150
X184.635 Y490.787 
X184.631 Y490.739 
X184.628 Y490.69 
X184.624 Y490.641 
X184.621 Y490.592 
X184.618 Y490.543 
X184.614 Y490.495 
X184.611 Y490.446 
X184.607 Y490.397 
X184.604 Y490.348 
X184.6 Y490.299 
X184.597 Y490.25 
X184.593 Y490.202 
X184.59 Y490.153 
X184.586 Y490.104 
X184.583 Y490.055 
X184.579 Y490.006 
X184.576 Y489.958 
X184.597 Y489.907 
X184.593 Y489.858 
X184.59 Y489.809 
X184.586 Y489.761 
X184.583 Y489.712 
X184.579 Y489.663 
X184.576 Y489.614 
X184.572 Y489.565 
X184.569 Y489.516 
X184.566 Y489.468 
X184.562 Y489.419 
X184.583 Y489.368 
X184.58 Y489.319 
X184.576 Y489.271 
X184.573 Y489.222 
X184.569 Y489.173 
X184.566 Y489.124 
X184.562 Y489.075 
X184.583 Y489.025 
X184.58 Y488.976 
X184.576 Y488.927 
X184.573 Y488.878 
X184.569 Y488.83 
X184.566 Y488.781 
X184.587 Y488.73 
X184.583 Y488.681 
X184.58 Y488.633 
X184.576 Y488.584 
X184.573 Y488.535 
X184.569 Y488.486 
X184.59 Y488.436 
X184.587 Y488.387 
X184.583 Y488.338 
X184.58 Y488.289 
X184.576 Y488.24 
X184.597 Y488.19 
X184.594 Y488.141 
X184.59 Y488.092 
X184.587 Y488.043 
X184.608 Y487.993 
X184.604 Y487.944 
X184.601 Y487.895 
X184.597 Y487.846 
X184.618 Y487.796 
X184.615 Y487.747 
X184.611 Y487.698 
X184.608 Y487.649 
X184.629 Y487.599 
X184.625 Y487.55 
X184.622 Y487.501 
X184.618 Y487.452 
X184.639 Y487.402 
X184.636 Y487.353 
X184.634 Y487.328 
X184.655 Y487.278 
X184.652 Y487.229 
X184.648 Y487.18 
X184.645 Y487.131 
X184.666 Y487.081 
X184.662 Y487.032 
X184.659 Y486.983 
X184.68 Y486.933 
X184.676 Y486.884 
X184.673 Y486.835 
X184.694 Y486.785 
X184.69 Y486.736 
X184.687 Y486.687 
X184.708 Y486.636 
X184.704 Y486.588 
X184.701 Y486.539 
X184.722 Y486.488 
X184.718 Y486.439 
X184.715 Y486.391 
X184.736 Y486.34 
X184.732 Y486.291 
X184.753 Y486.241 
X184.75 Y486.192 
X184.746 Y486.143 
X184.767 Y486.092 
X184.763 Y486.044 
X184.76 Y485.995 
X184.781 Y485.944 
X184.777 Y485.895 
X184.798 Y485.845 
X184.795 Y485.796 
X184.793 Y485.772 
X184.814 Y485.721 
X184.811 Y485.672 
X184.832 Y485.622 
X184.828 Y485.573 
X184.849 Y485.522 
X184.846 Y485.473 
X184.842 Y485.425 
X184.863 Y485.374 
X184.86 Y485.325 
X184.881 Y485.275 
X184.877 Y485.226 
X184.898 Y485.175 
X184.895 Y485.127 
X184.915 Y485.076 
X184.912 Y485.027 
X184.933 Y484.977 
X184.929 Y484.928 
X184.95 Y484.877 
X184.949 Y484.853 
X184.97 Y484.802 
X184.966 Y484.753 
X184.987 Y484.703 
X184.984 Y484.654 
X185.004 Y484.604 
X185.001 Y484.555 
X185.022 Y484.504 
X185.018 Y484.455 
X185.039 Y484.405 
X185.036 Y484.356 
X185.057 Y484.305 
X185.053 Y484.257 
X185.074 Y484.206 
X185.071 Y484.157 
X185.094 Y484.131 
X185.09 Y484.082 
X185.111 Y484.032 
X185.132 Y483.981 
X185.128 Y483.932 
X185.149 Y483.882 
X185.146 Y483.833 
X185.167 Y483.782 
X185.163 Y483.734 
X185.184 Y483.683 
X185.183 Y483.659 
G00 Z5
X184.642 Y490.885
Z-6
G01 Z-9 F100
X184.638 Y490.836 F150
X184.635 Y490.787 
X184.631 Y490.739 
X184.628 Y490.69 
X184.624 Y490.641 
X184.621 Y490.592 
X184.618 Y490.543 
X184.614 Y490.495 
X184.611 Y490.446 
X184.607 Y490.397 
X184.604 Y490.348 
X184.6 Y490.299 
X184.597 Y490.25 
X184.593 Y490.202 
X184.59 Y490.153 
X184.586 Y490.104 
X184.583 Y490.055 
X184.579 Y490.006 
X184.576 Y489.958 
X184.597 Y489.907 
X184.593 Y489.858 
X184.59 Y489.809 
X184.586 Y489.761 
X184.583 Y489.712 
X184.579 Y489.663 
X184.576 Y489.614 
X184.572 Y489.565 
X184.569 Y489.516 
X184.566 Y489.468 
X184.562 Y489.419 
X184.583 Y489.368 
X184.58 Y489.319 
X184.576 Y489.271 
X184.573 Y489.222 
X184.569 Y489.173 
X184.566 Y489.124 
X184.562 Y489.075 
X184.583 Y489.025 
X184.58 Y488.976 
X184.576 Y488.927 
X184.573 Y488.878 
X184.569 Y488.83 
X184.566 Y488.781 
X184.587 Y488.73 
X184.583 Y488.681 
X184.58 Y488.633 
X184.576 Y488.584 
X184.573 Y488.535 
X184.569 Y488.486 
X184.59 Y488.436 
X184.587 Y488.387 
X184.583 Y488.338 
X184.58 Y488.289 
X184.576 Y488.24 
X184.597 Y488.19 
X184.594 Y488.141 
X184.59 Y488.092 
X184.587 Y488.043 
X184.608 Y487.993 
X184.604 Y487.944 
X184.601 Y487.895 
X184.597 Y487.846 
X184.618 Y487.796 
X184.615 Y487.747 
X184.611 Y487.698 
X184.608 Y487.649 
X184.629 Y487.599 
X184.625 Y487.55 
X184.622 Y487.501 
X184.618 Y487.452 
X184.639 Y487.402 
X184.636 Y487.353 
X184.634 Y487.328 
X184.655 Y487.278 
X184.652 Y487.229 
X184.648 Y487.18 
X184.645 Y487.131 
X184.666 Y487.081 
X184.662 Y487.032 
X184.659 Y486.983 
X184.68 Y486.933 
X184.676 Y486.884 
X184.673 Y486.835 
X184.694 Y486.785 
X184.69 Y486.736 
X184.687 Y486.687 
X184.708 Y486.636 
X184.704 Y486.588 
X184.701 Y486.539 
X184.722 Y486.488 
X184.718 Y486.439 
X184.715 Y486.391 
X184.736 Y486.34 
X184.732 Y486.291 
X184.753 Y486.241 
X184.75 Y486.192 
X184.746 Y486.143 
X184.767 Y486.092 
X184.763 Y486.044 
X184.76 Y485.995 
X184.781 Y485.944 
X184.777 Y485.895 
X184.798 Y485.845 
X184.795 Y485.796 
X184.793 Y485.772 
X184.814 Y485.721 
X184.811 Y485.672 
X184.832 Y485.622 
X184.828 Y485.573 
X184.849 Y485.522 
X184.846 Y485.473 
X184.842 Y485.425 
X184.863 Y485.374 
X184.86 Y485.325 
X184.881 Y485.275 
X184.877 Y485.226 
X184.898 Y485.175 
X184.895 Y485.127 
X184.915 Y485.076 
X184.912 Y485.027 
X184.933 Y484.977 
X184.929 Y484.928 
X184.95 Y484.877 
X184.949 Y484.853 
X184.97 Y484.802 
X184.966 Y484.753 
X184.987 Y484.703 
X184.984 Y484.654 
X185.004 Y484.604 
X185.001 Y484.555 
X185.022 Y484.504 
X185.018 Y484.455 
X185.039 Y484.405 
X185.036 Y484.356 
X185.057 Y484.305 
X185.053 Y484.257 
X185.074 Y484.206 
X185.071 Y484.157 
X185.094 Y484.131 
X185.09 Y484.082 
X185.111 Y484.032 
X185.132 Y483.981 
X185.128 Y483.932 
X185.149 Y483.882 
X185.146 Y483.833 
X185.167 Y483.782 
X185.163 Y483.734 
X185.184 Y483.683 
X185.183 Y483.659 
G00 Z5
X184.642 Y490.885
Z-9
G01 Z-12 F100
X184.638 Y490.836 F150
X184.635 Y490.787 
X184.631 Y490.739 
X184.628 Y490.69 
X184.624 Y490.641 
X184.621 Y490.592 
X184.618 Y490.543 
X184.614 Y490.495 
X184.611 Y490.446 
X184.607 Y490.397 
X184.604 Y490.348 
X184.6 Y490.299 
X184.597 Y490.25 
X184.593 Y490.202 
X184.59 Y490.153 
X184.586 Y490.104 
X184.583 Y490.055 
X184.579 Y490.006 
X184.576 Y489.958 
X184.597 Y489.907 
X184.593 Y489.858 
X184.59 Y489.809 
X184.586 Y489.761 
X184.583 Y489.712 
X184.579 Y489.663 
X184.576 Y489.614 
X184.572 Y489.565 
X184.569 Y489.516 
X184.566 Y489.468 
X184.562 Y489.419 
X184.583 Y489.368 
X184.58 Y489.319 
X184.576 Y489.271 
X184.573 Y489.222 
X184.569 Y489.173 
X184.566 Y489.124 
X184.562 Y489.075 
X184.583 Y489.025 
X184.58 Y488.976 
X184.576 Y488.927 
X184.573 Y488.878 
X184.569 Y488.83 
X184.566 Y488.781 
X184.587 Y488.73 
X184.583 Y488.681 
X184.58 Y488.633 
X184.576 Y488.584 
X184.573 Y488.535 
X184.569 Y488.486 
X184.59 Y488.436 
X184.587 Y488.387 
X184.583 Y488.338 
X184.58 Y488.289 
X184.576 Y488.24 
X184.597 Y488.19 
X184.594 Y488.141 
X184.59 Y488.092 
X184.587 Y488.043 
X184.608 Y487.993 
X184.604 Y487.944 
X184.601 Y487.895 
X184.597 Y487.846 
X184.618 Y487.796 
X184.615 Y487.747 
X184.611 Y487.698 
X184.608 Y487.649 
X184.629 Y487.599 
X184.625 Y487.55 
X184.622 Y487.501 
X184.618 Y487.452 
X184.639 Y487.402 
X184.636 Y487.353 
X184.634 Y487.328 
X184.655 Y487.278 
X184.652 Y487.229 
X184.648 Y487.18 
X184.645 Y487.131 
X184.666 Y487.081 
X184.662 Y487.032 
X184.659 Y486.983 
X184.68 Y486.933 
X184.676 Y486.884 
X184.673 Y486.835 
X184.694 Y486.785 
X184.69 Y486.736 
X184.687 Y486.687 
X184.708 Y486.636 
X184.704 Y486.588 
X184.701 Y486.539 
X184.722 Y486.488 
X184.718 Y486.439 
X184.715 Y486.391 
X184.736 Y486.34 
X184.732 Y486.291 
X184.753 Y486.241 
X184.75 Y486.192 
X184.746 Y486.143 
X184.767 Y486.092 
X184.763 Y486.044 
X184.76 Y485.995 
X184.781 Y485.944 
X184.777 Y485.895 
X184.798 Y485.845 
X184.795 Y485.796 
X184.793 Y485.772 
X184.814 Y485.721 
X184.811 Y485.672 
X184.832 Y485.622 
X184.828 Y485.573 
X184.849 Y485.522 
X184.846 Y485.473 
X184.842 Y485.425 
X184.863 Y485.374 
X184.86 Y485.325 
X184.881 Y485.275 
X184.877 Y485.226 
X184.898 Y485.175 
X184.895 Y485.127 
X184.915 Y485.076 
X184.912 Y485.027 
X184.933 Y484.977 
X184.929 Y484.928 
X184.95 Y484.877 
X184.949 Y484.853 
X184.97 Y484.802 
X184.966 Y484.753 
X184.987 Y484.703 
X184.984 Y484.654 
X185.004 Y484.604 
X185.001 Y484.555 
X185.022 Y484.504 
X185.018 Y484.455 
X185.039 Y484.405 
X185.036 Y484.356 
X185.057 Y484.305 
X185.053 Y484.257 
X185.074 Y484.206 
X185.071 Y484.157 
X185.094 Y484.131 
X185.09 Y484.082 
X185.111 Y484.032 
X185.132 Y483.981 
X185.128 Y483.932 
X185.149 Y483.882 
X185.146 Y483.833 
X185.167 Y483.782 
X185.163 Y483.734 
X185.184 Y483.683 
X185.183 Y483.659 
G00 Z5
X184.642 Y490.885
Z-12
G01 Z-15 F100
X184.638 Y490.836 F150
X184.635 Y490.787 
X184.631 Y490.739 
X184.628 Y490.69 
X184.624 Y490.641 
X184.621 Y490.592 
X184.618 Y490.543 
X184.614 Y490.495 
X184.611 Y490.446 
X184.607 Y490.397 
X184.604 Y490.348 
X184.6 Y490.299 
X184.597 Y490.25 
X184.593 Y490.202 
X184.59 Y490.153 
X184.586 Y490.104 
X184.583 Y490.055 
X184.579 Y490.006 
X184.576 Y489.958 
X184.597 Y489.907 
X184.593 Y489.858 
X184.59 Y489.809 
X184.586 Y489.761 
X184.583 Y489.712 
X184.579 Y489.663 
X184.576 Y489.614 
X184.572 Y489.565 
X184.569 Y489.516 
X184.566 Y489.468 
X184.562 Y489.419 
X184.583 Y489.368 
X184.58 Y489.319 
X184.576 Y489.271 
X184.573 Y489.222 
X184.569 Y489.173 
X184.566 Y489.124 
X184.562 Y489.075 
X184.583 Y489.025 
X184.58 Y488.976 
X184.576 Y488.927 
X184.573 Y488.878 
X184.569 Y488.83 
X184.566 Y488.781 
X184.587 Y488.73 
X184.583 Y488.681 
X184.58 Y488.633 
X184.576 Y488.584 
X184.573 Y488.535 
X184.569 Y488.486 
X184.59 Y488.436 
X184.587 Y488.387 
X184.583 Y488.338 
X184.58 Y488.289 
X184.576 Y488.24 
X184.597 Y488.19 
X184.594 Y488.141 
X184.59 Y488.092 
X184.587 Y488.043 
X184.608 Y487.993 
X184.604 Y487.944 
X184.601 Y487.895 
X184.597 Y487.846 
X184.618 Y487.796 
X184.615 Y487.747 
X184.611 Y487.698 
X184.608 Y487.649 
X184.629 Y487.599 
X184.625 Y487.55 
X184.622 Y487.501 
X184.618 Y487.452 
X184.639 Y487.402 
X184.636 Y487.353 
X184.634 Y487.328 
X184.655 Y487.278 
X184.652 Y487.229 
X184.648 Y487.18 
X184.645 Y487.131 
X184.666 Y487.081 
X184.662 Y487.032 
X184.659 Y486.983 
X184.68 Y486.933 
X184.676 Y486.884 
X184.673 Y486.835 
X184.694 Y486.785 
X184.69 Y486.736 
X184.687 Y486.687 
X184.708 Y486.636 
X184.704 Y486.588 
X184.701 Y486.539 
X184.722 Y486.488 
X184.718 Y486.439 
X184.715 Y486.391 
X184.736 Y486.34 
X184.732 Y486.291 
X184.753 Y486.241 
X184.75 Y486.192 
X184.746 Y486.143 
X184.767 Y486.092 
X184.763 Y486.044 
X184.76 Y485.995 
X184.781 Y485.944 
X184.777 Y485.895 
X184.798 Y485.845 
X184.795 Y485.796 
X184.793 Y485.772 
X184.814 Y485.721 
X184.811 Y485.672 
X184.832 Y485.622 
X184.828 Y485.573 
X184.849 Y485.522 
X184.846 Y485.473 
X184.842 Y485.425 
X184.863 Y485.374 
X184.86 Y485.325 
X184.881 Y485.275 
X184.877 Y485.226 
X184.898 Y485.175 
X184.895 Y485.127 
X184.915 Y485.076 
X184.912 Y485.027 
X184.933 Y484.977 
X184.929 Y484.928 
X184.95 Y484.877 
X184.949 Y484.853 
X184.97 Y484.802 
X184.966 Y484.753 
X184.987 Y484.703 
X184.984 Y484.654 
X185.004 Y484.604 
X185.001 Y484.555 
X185.022 Y484.504 
X185.018 Y484.455 
X185.039 Y484.405 
X185.036 Y484.356 
X185.057 Y484.305 
X185.053 Y484.257 
X185.074 Y484.206 
X185.071 Y484.157 
X185.094 Y484.131 
X185.09 Y484.082 
X185.111 Y484.032 
X185.132 Y483.981 
X185.128 Y483.932 
X185.149 Y483.882 
X185.146 Y483.833 
X185.167 Y483.782 
X185.163 Y483.734 
X185.184 Y483.683 
X185.183 Y483.659 
G00 Z5
X184.642 Y490.885
Z-15
G01 Z-18 F100
X184.638 Y490.836 F150
X184.635 Y490.787 
X184.631 Y490.739 
X184.628 Y490.69 
X184.624 Y490.641 
X184.621 Y490.592 
X184.618 Y490.543 
X184.614 Y490.495 
X184.611 Y490.446 
X184.607 Y490.397 
X184.604 Y490.348 
X184.6 Y490.299 
X184.597 Y490.25 
X184.593 Y490.202 
X184.59 Y490.153 
X184.586 Y490.104 
X184.583 Y490.055 
X184.579 Y490.006 
X184.576 Y489.958 
X184.597 Y489.907 
X184.593 Y489.858 
X184.59 Y489.809 
X184.586 Y489.761 
X184.583 Y489.712 
X184.579 Y489.663 
X184.576 Y489.614 
X184.572 Y489.565 
X184.569 Y489.516 
X184.566 Y489.468 
X184.562 Y489.419 
X184.583 Y489.368 
X184.58 Y489.319 
X184.576 Y489.271 
X184.573 Y489.222 
X184.569 Y489.173 
X184.566 Y489.124 
X184.562 Y489.075 
X184.583 Y489.025 
X184.58 Y488.976 
X184.576 Y488.927 
X184.573 Y488.878 
X184.569 Y488.83 
X184.566 Y488.781 
X184.587 Y488.73 
X184.583 Y488.681 
X184.58 Y488.633 
X184.576 Y488.584 
X184.573 Y488.535 
X184.569 Y488.486 
X184.59 Y488.436 
X184.587 Y488.387 
X184.583 Y488.338 
X184.58 Y488.289 
X184.576 Y488.24 
X184.597 Y488.19 
X184.594 Y488.141 
X184.59 Y488.092 
X184.587 Y488.043 
X184.608 Y487.993 
X184.604 Y487.944 
X184.601 Y487.895 
X184.597 Y487.846 
X184.618 Y487.796 
X184.615 Y487.747 
X184.611 Y487.698 
X184.608 Y487.649 
X184.629 Y487.599 
X184.625 Y487.55 
X184.622 Y487.501 
X184.618 Y487.452 
X184.639 Y487.402 
X184.636 Y487.353 
X184.634 Y487.328 
X184.655 Y487.278 
X184.652 Y487.229 
X184.648 Y487.18 
X184.645 Y487.131 
X184.666 Y487.081 
X184.662 Y487.032 
X184.659 Y486.983 
X184.68 Y486.933 
X184.676 Y486.884 
X184.673 Y486.835 
X184.694 Y486.785 
X184.69 Y486.736 
X184.687 Y486.687 
X184.708 Y486.636 
X184.704 Y486.588 
X184.701 Y486.539 
X184.722 Y486.488 
X184.718 Y486.439 
X184.715 Y486.391 
X184.736 Y486.34 
X184.732 Y486.291 
X184.753 Y486.241 
X184.75 Y486.192 
X184.746 Y486.143 
X184.767 Y486.092 
X184.763 Y486.044 
X184.76 Y485.995 
X184.781 Y485.944 
X184.777 Y485.895 
X184.798 Y485.845 
X184.795 Y485.796 
X184.793 Y485.772 
X184.814 Y485.721 
X184.811 Y485.672 
X184.832 Y485.622 
X184.828 Y485.573 
X184.849 Y485.522 
X184.846 Y485.473 
X184.842 Y485.425 
X184.863 Y485.374 
X184.86 Y485.325 
X184.881 Y485.275 
X184.877 Y485.226 
X184.898 Y485.175 
X184.895 Y485.127 
X184.915 Y485.076 
X184.912 Y485.027 
X184.933 Y484.977 
X184.929 Y484.928 
X184.95 Y484.877 
X184.949 Y484.853 
X184.97 Y484.802 
X184.966 Y484.753 
X184.987 Y484.703 
X184.984 Y484.654 
X185.004 Y484.604 
X185.001 Y484.555 
X185.022 Y484.504 
X185.018 Y484.455 
X185.039 Y484.405 
X185.036 Y484.356 
X185.057 Y484.305 
X185.053 Y484.257 
X185.074 Y484.206 
X185.071 Y484.157 
X185.094 Y484.131 
X185.09 Y484.082 
X185.111 Y484.032 
X185.132 Y483.981 
X185.128 Y483.932 
X185.149 Y483.882 
X185.146 Y483.833 
X185.167 Y483.782 
X185.163 Y483.734 
X185.184 Y483.683 
X185.183 Y483.659 
G00 Z5
(Sketch 0)
G90X184.297 Y458.937
Z2
G01 Z-3 F100
X184.328 Y458.9 F150
X184.36 Y458.863 
X184.392 Y458.825 
X184.423 Y458.788 
X184.455 Y458.751 
X184.487 Y458.713 
X184.519 Y458.676 
X184.55 Y458.639 
X184.582 Y458.602 
X184.614 Y458.564 
X184.645 Y458.527 
X184.677 Y458.49 
X184.709 Y458.452 
X184.741 Y458.415 
X184.772 Y458.378 
X184.804 Y458.341 
X184.836 Y458.303 
X184.867 Y458.266 
X184.899 Y458.229 
X184.949 Y458.207 
X184.981 Y458.17 
X185.013 Y458.133 
X185.045 Y458.096 
X185.076 Y458.058 
X185.108 Y458.021 
X185.14 Y457.984 
X185.171 Y457.946 
X185.203 Y457.909 
X185.235 Y457.872 
X185.266 Y457.835 
X185.317 Y457.813 
X185.349 Y457.776 
X185.38 Y457.739 
X185.412 Y457.701 
X185.444 Y457.664 
X185.475 Y457.627 
X185.507 Y457.589 
X185.557 Y457.568 
X185.589 Y457.531 
X185.621 Y457.493 
X185.653 Y457.456 
X185.684 Y457.419 
X185.716 Y457.382 
X185.766 Y457.36 
X185.798 Y457.323 
X185.83 Y457.286 
X185.861 Y457.248 
X185.893 Y457.211 
X185.925 Y457.174 
X185.975 Y457.152 
X186.007 Y457.115 
X186.039 Y457.078 
X186.07 Y457.041 
X186.102 Y457.003 
X186.152 Y456.982 
X186.184 Y456.945 
X186.216 Y456.907 
X186.247 Y456.87 
X186.298 Y456.849 
X186.33 Y456.811 
X186.361 Y456.774 
X186.393 Y456.737 
X186.443 Y456.715 
X186.475 Y456.678 
X186.507 Y456.641 
X186.538 Y456.603 
X186.589 Y456.582 
X186.62 Y456.545 
X186.652 Y456.507 
X186.684 Y456.47 
X186.734 Y456.449 
X186.766 Y456.411 
X186.782 Y456.393 
X186.832 Y456.371 
X186.864 Y456.334 
X186.896 Y456.297 
X186.927 Y456.26 
X186.978 Y456.238 
X187.009 Y456.201 
X187.041 Y456.164 
X187.091 Y456.142 
X187.123 Y456.105 
X187.155 Y456.068 
X187.205 Y456.046 
X187.237 Y456.009 
X187.269 Y455.972 
X187.319 Y455.95 
X187.351 Y455.913 
X187.382 Y455.876 
X187.433 Y455.854 
X187.464 Y455.817 
X187.496 Y455.78 
X187.546 Y455.758 
X187.578 Y455.721 
X187.628 Y455.699 
X187.66 Y455.662 
X187.692 Y455.625 
X187.742 Y455.603 
X187.774 Y455.566 
X187.806 Y455.529 
X187.856 Y455.507 
X187.888 Y455.47 
X187.938 Y455.449 
X187.97 Y455.411 
X187.986 Y455.393 
X188.036 Y455.371 
X188.068 Y455.334 
X188.118 Y455.313 
X188.15 Y455.275 
X188.2 Y455.254 
X188.232 Y455.217 
X188.263 Y455.179 
X188.314 Y455.158 
X188.345 Y455.121 
X188.396 Y455.099 
X188.428 Y455.062 
X188.478 Y455.041 
X188.51 Y455.003 
X188.56 Y454.982 
X188.592 Y454.945 
X188.642 Y454.923 
X188.674 Y454.886 
X188.724 Y454.864 
X188.74 Y454.846 
X188.79 Y454.824 
X188.822 Y454.787 
X188.872 Y454.766 
X188.904 Y454.728 
X188.954 Y454.707 
X188.986 Y454.67 
X189.036 Y454.648 
X189.068 Y454.611 
X189.118 Y454.59 
X189.15 Y454.552 
X189.201 Y454.531 
X189.232 Y454.494 
X189.283 Y454.472 
X189.314 Y454.435 
X189.349 Y454.432 
X189.38 Y454.395 
X189.431 Y454.373 
X189.481 Y454.352 
X189.513 Y454.315 
X189.563 Y454.293 
X189.595 Y454.256 
X189.645 Y454.234 
X189.677 Y454.197 
X189.727 Y454.176 
X189.743 Y454.157 
G00 Z5
X184.297 Y458.937
Z-3
G01 Z-6 F100
X184.328 Y458.9 F150
X184.36 Y458.863 
X184.392 Y458.825 
X184.423 Y458.788 
X184.455 Y458.751 
X184.487 Y458.713 
X184.519 Y458.676 
X184.55 Y458.639 
X184.582 Y458.602 
X184.614 Y458.564 
X184.645 Y458.527 
X184.677 Y458.49 
X184.709 Y458.452 
X184.741 Y458.415 
X184.772 Y458.378 
X184.804 Y458.341 
X184.836 Y458.303 
X184.867 Y458.266 
X184.899 Y458.229 
X184.949 Y458.207 
X184.981 Y458.17 
X185.013 Y458.133 
X185.045 Y458.096 
X185.076 Y458.058 
X185.108 Y458.021 
X185.14 Y457.984 
X185.171 Y457.946 
X185.203 Y457.909 
X185.235 Y457.872 
X185.266 Y457.835 
X185.317 Y457.813 
X185.349 Y457.776 
X185.38 Y457.739 
X185.412 Y457.701 
X185.444 Y457.664 
X185.475 Y457.627 
X185.507 Y457.589 
X185.557 Y457.568 
X185.589 Y457.531 
X185.621 Y457.493 
X185.653 Y457.456 
X185.684 Y457.419 
X185.716 Y457.382 
X185.766 Y457.36 
X185.798 Y457.323 
X185.83 Y457.286 
X185.861 Y457.248 
X185.893 Y457.211 
X185.925 Y457.174 
X185.975 Y457.152 
X186.007 Y457.115 
X186.039 Y457.078 
X186.07 Y457.041 
X186.102 Y457.003 
X186.152 Y456.982 
X186.184 Y456.945 
X186.216 Y456.907 
X186.247 Y456.87 
X186.298 Y456.849 
X186.33 Y456.811 
X186.361 Y456.774 
X186.393 Y456.737 
X186.443 Y456.715 
X186.475 Y456.678 
X186.507 Y456.641 
X186.538 Y456.603 
X186.589 Y456.582 
X186.62 Y456.545 
X186.652 Y456.507 
X186.684 Y456.47 
X186.734 Y456.449 
X186.766 Y456.411 
X186.782 Y456.393 
X186.832 Y456.371 
X186.864 Y456.334 
X186.896 Y456.297 
X186.927 Y456.26 
X186.978 Y456.238 
X187.009 Y456.201 
X187.041 Y456.164 
X187.091 Y456.142 
X187.123 Y456.105 
X187.155 Y456.068 
X187.205 Y456.046 
X187.237 Y456.009 
X187.269 Y455.972 
X187.319 Y455.95 
X187.351 Y455.913 
X187.382 Y455.876 
X187.433 Y455.854 
X187.464 Y455.817 
X187.496 Y455.78 
X187.546 Y455.758 
X187.578 Y455.721 
X187.628 Y455.699 
X187.66 Y455.662 
X187.692 Y455.625 
X187.742 Y455.603 
X187.774 Y455.566 
X187.806 Y455.529 
X187.856 Y455.507 
X187.888 Y455.47 
X187.938 Y455.449 
X187.97 Y455.411 
X187.986 Y455.393 
X188.036 Y455.371 
X188.068 Y455.334 
X188.118 Y455.313 
X188.15 Y455.275 
X188.2 Y455.254 
X188.232 Y455.217 
X188.263 Y455.179 
X188.314 Y455.158 
X188.345 Y455.121 
X188.396 Y455.099 
X188.428 Y455.062 
X188.478 Y455.041 
X188.51 Y455.003 
X188.56 Y454.982 
X188.592 Y454.945 
X188.642 Y454.923 
X188.674 Y454.886 
X188.724 Y454.864 
X188.74 Y454.846 
X188.79 Y454.824 
X188.822 Y454.787 
X188.872 Y454.766 
X188.904 Y454.728 
X188.954 Y454.707 
X188.986 Y454.67 
X189.036 Y454.648 
X189.068 Y454.611 
X189.118 Y454.59 
X189.15 Y454.552 
X189.201 Y454.531 
X189.232 Y454.494 
X189.283 Y454.472 
X189.314 Y454.435 
X189.349 Y454.432 
X189.38 Y454.395 
X189.431 Y454.373 
X189.481 Y454.352 
X189.513 Y454.315 
X189.563 Y454.293 
X189.595 Y454.256 
X189.645 Y454.234 
X189.677 Y454.197 
X189.727 Y454.176 
X189.743 Y454.157 
G00 Z5
X184.297 Y458.937
Z-6
G01 Z-9 F100
X184.328 Y458.9 F150
X184.36 Y458.863 
X184.392 Y458.825 
X184.423 Y458.788 
X184.455 Y458.751 
X184.487 Y458.713 
X184.519 Y458.676 
X184.55 Y458.639 
X184.582 Y458.602 
X184.614 Y458.564 
X184.645 Y458.527 
X184.677 Y458.49 
X184.709 Y458.452 
X184.741 Y458.415 
X184.772 Y458.378 
X184.804 Y458.341 
X184.836 Y458.303 
X184.867 Y458.266 
X184.899 Y458.229 
X184.949 Y458.207 
X184.981 Y458.17 
X185.013 Y458.133 
X185.045 Y458.096 
X185.076 Y458.058 
X185.108 Y458.021 
X185.14 Y457.984 
X185.171 Y457.946 
X185.203 Y457.909 
X185.235 Y457.872 
X185.266 Y457.835 
X185.317 Y457.813 
X185.349 Y457.776 
X185.38 Y457.739 
X185.412 Y457.701 
X185.444 Y457.664 
X185.475 Y457.627 
X185.507 Y457.589 
X185.557 Y457.568 
X185.589 Y457.531 
X185.621 Y457.493 
X185.653 Y457.456 
X185.684 Y457.419 
X185.716 Y457.382 
X185.766 Y457.36 
X185.798 Y457.323 
X185.83 Y457.286 
X185.861 Y457.248 
X185.893 Y457.211 
X185.925 Y457.174 
X185.975 Y457.152 
X186.007 Y457.115 
X186.039 Y457.078 
X186.07 Y457.041 
X186.102 Y457.003 
X186.152 Y456.982 
X186.184 Y456.945 
X186.216 Y456.907 
X186.247 Y456.87 
X186.298 Y456.849 
X186.33 Y456.811 
X186.361 Y456.774 
X186.393 Y456.737 
X186.443 Y456.715 
X186.475 Y456.678 
X186.507 Y456.641 
X186.538 Y456.603 
X186.589 Y456.582 
X186.62 Y456.545 
X186.652 Y456.507 
X186.684 Y456.47 
X186.734 Y456.449 
X186.766 Y456.411 
X186.782 Y456.393 
X186.832 Y456.371 
X186.864 Y456.334 
X186.896 Y456.297 
X186.927 Y456.26 
X186.978 Y456.238 
X187.009 Y456.201 
X187.041 Y456.164 
X187.091 Y456.142 
X187.123 Y456.105 
X187.155 Y456.068 
X187.205 Y456.046 
X187.237 Y456.009 
X187.269 Y455.972 
X187.319 Y455.95 
X187.351 Y455.913 
X187.382 Y455.876 
X187.433 Y455.854 
X187.464 Y455.817 
X187.496 Y455.78 
X187.546 Y455.758 
X187.578 Y455.721 
X187.628 Y455.699 
X187.66 Y455.662 
X187.692 Y455.625 
X187.742 Y455.603 
X187.774 Y455.566 
X187.806 Y455.529 
X187.856 Y455.507 
X187.888 Y455.47 
X187.938 Y455.449 
X187.97 Y455.411 
X187.986 Y455.393 
X188.036 Y455.371 
X188.068 Y455.334 
X188.118 Y455.313 
X188.15 Y455.275 
X188.2 Y455.254 
X188.232 Y455.217 
X188.263 Y455.179 
X188.314 Y455.158 
X188.345 Y455.121 
X188.396 Y455.099 
X188.428 Y455.062 
X188.478 Y455.041 
X188.51 Y455.003 
X188.56 Y454.982 
X188.592 Y454.945 
X188.642 Y454.923 
X188.674 Y454.886 
X188.724 Y454.864 
X188.74 Y454.846 
X188.79 Y454.824 
X188.822 Y454.787 
X188.872 Y454.766 
X188.904 Y454.728 
X188.954 Y454.707 
X188.986 Y454.67 
X189.036 Y454.648 
X189.068 Y454.611 
X189.118 Y454.59 
X189.15 Y454.552 
X189.201 Y454.531 
X189.232 Y454.494 
X189.283 Y454.472 
X189.314 Y454.435 
X189.349 Y454.432 
X189.38 Y454.395 
X189.431 Y454.373 
X189.481 Y454.352 
X189.513 Y454.315 
X189.563 Y454.293 
X189.595 Y454.256 
X189.645 Y454.234 
X189.677 Y454.197 
X189.727 Y454.176 
X189.743 Y454.157 
G00 Z5
X184.297 Y458.937
Z-9
G01 Z-12 F100
X184.328 Y458.9 F150
X184.36 Y458.863 
X184.392 Y458.825 
X184.423 Y458.788 
X184.455 Y458.751 
X184.487 Y458.713 
X184.519 Y458.676 
X184.55 Y458.639 
X184.582 Y458.602 
X184.614 Y458.564 
X184.645 Y458.527 
X184.677 Y458.49 
X184.709 Y458.452 
X184.741 Y458.415 
X184.772 Y458.378 
X184.804 Y458.341 
X184.836 Y458.303 
X184.867 Y458.266 
X184.899 Y458.229 
X184.949 Y458.207 
X184.981 Y458.17 
X185.013 Y458.133 
X185.045 Y458.096 
X185.076 Y458.058 
X185.108 Y458.021 
X185.14 Y457.984 
X185.171 Y457.946 
X185.203 Y457.909 
X185.235 Y457.872 
X185.266 Y457.835 
X185.317 Y457.813 
X185.349 Y457.776 
X185.38 Y457.739 
X185.412 Y457.701 
X185.444 Y457.664 
X185.475 Y457.627 
X185.507 Y457.589 
X185.557 Y457.568 
X185.589 Y457.531 
X185.621 Y457.493 
X185.653 Y457.456 
X185.684 Y457.419 
X185.716 Y457.382 
X185.766 Y457.36 
X185.798 Y457.323 
X185.83 Y457.286 
X185.861 Y457.248 
X185.893 Y457.211 
X185.925 Y457.174 
X185.975 Y457.152 
X186.007 Y457.115 
X186.039 Y457.078 
X186.07 Y457.041 
X186.102 Y457.003 
X186.152 Y456.982 
X186.184 Y456.945 
X186.216 Y456.907 
X186.247 Y456.87 
X186.298 Y456.849 
X186.33 Y456.811 
X186.361 Y456.774 
X186.393 Y456.737 
X186.443 Y456.715 
X186.475 Y456.678 
X186.507 Y456.641 
X186.538 Y456.603 
X186.589 Y456.582 
X186.62 Y456.545 
X186.652 Y456.507 
X186.684 Y456.47 
X186.734 Y456.449 
X186.766 Y456.411 
X186.782 Y456.393 
X186.832 Y456.371 
X186.864 Y456.334 
X186.896 Y456.297 
X186.927 Y456.26 
X186.978 Y456.238 
X187.009 Y456.201 
X187.041 Y456.164 
X187.091 Y456.142 
X187.123 Y456.105 
X187.155 Y456.068 
X187.205 Y456.046 
X187.237 Y456.009 
X187.269 Y455.972 
X187.319 Y455.95 
X187.351 Y455.913 
X187.382 Y455.876 
X187.433 Y455.854 
X187.464 Y455.817 
X187.496 Y455.78 
X187.546 Y455.758 
X187.578 Y455.721 
X187.628 Y455.699 
X187.66 Y455.662 
X187.692 Y455.625 
X187.742 Y455.603 
X187.774 Y455.566 
X187.806 Y455.529 
X187.856 Y455.507 
X187.888 Y455.47 
X187.938 Y455.449 
X187.97 Y455.411 
X187.986 Y455.393 
X188.036 Y455.371 
X188.068 Y455.334 
X188.118 Y455.313 
X188.15 Y455.275 
X188.2 Y455.254 
X188.232 Y455.217 
X188.263 Y455.179 
X188.314 Y455.158 
X188.345 Y455.121 
X188.396 Y455.099 
X188.428 Y455.062 
X188.478 Y455.041 
X188.51 Y455.003 
X188.56 Y454.982 
X188.592 Y454.945 
X188.642 Y454.923 
X188.674 Y454.886 
X188.724 Y454.864 
X188.74 Y454.846 
X188.79 Y454.824 
X188.822 Y454.787 
X188.872 Y454.766 
X188.904 Y454.728 
X188.954 Y454.707 
X188.986 Y454.67 
X189.036 Y454.648 
X189.068 Y454.611 
X189.118 Y454.59 
X189.15 Y454.552 
X189.201 Y454.531 
X189.232 Y454.494 
X189.283 Y454.472 
X189.314 Y454.435 
X189.349 Y454.432 
X189.38 Y454.395 
X189.431 Y454.373 
X189.481 Y454.352 
X189.513 Y454.315 
X189.563 Y454.293 
X189.595 Y454.256 
X189.645 Y454.234 
X189.677 Y454.197 
X189.727 Y454.176 
X189.743 Y454.157 
G00 Z5
X184.297 Y458.937
Z-12
G01 Z-15 F100
X184.328 Y458.9 F150
X184.36 Y458.863 
X184.392 Y458.825 
X184.423 Y458.788 
X184.455 Y458.751 
X184.487 Y458.713 
X184.519 Y458.676 
X184.55 Y458.639 
X184.582 Y458.602 
X184.614 Y458.564 
X184.645 Y458.527 
X184.677 Y458.49 
X184.709 Y458.452 
X184.741 Y458.415 
X184.772 Y458.378 
X184.804 Y458.341 
X184.836 Y458.303 
X184.867 Y458.266 
X184.899 Y458.229 
X184.949 Y458.207 
X184.981 Y458.17 
X185.013 Y458.133 
X185.045 Y458.096 
X185.076 Y458.058 
X185.108 Y458.021 
X185.14 Y457.984 
X185.171 Y457.946 
X185.203 Y457.909 
X185.235 Y457.872 
X185.266 Y457.835 
X185.317 Y457.813 
X185.349 Y457.776 
X185.38 Y457.739 
X185.412 Y457.701 
X185.444 Y457.664 
X185.475 Y457.627 
X185.507 Y457.589 
X185.557 Y457.568 
X185.589 Y457.531 
X185.621 Y457.493 
X185.653 Y457.456 
X185.684 Y457.419 
X185.716 Y457.382 
X185.766 Y457.36 
X185.798 Y457.323 
X185.83 Y457.286 
X185.861 Y457.248 
X185.893 Y457.211 
X185.925 Y457.174 
X185.975 Y457.152 
X186.007 Y457.115 
X186.039 Y457.078 
X186.07 Y457.041 
X186.102 Y457.003 
X186.152 Y456.982 
X186.184 Y456.945 
X186.216 Y456.907 
X186.247 Y456.87 
X186.298 Y456.849 
X186.33 Y456.811 
X186.361 Y456.774 
X186.393 Y456.737 
X186.443 Y456.715 
X186.475 Y456.678 
X186.507 Y456.641 
X186.538 Y456.603 
X186.589 Y456.582 
X186.62 Y456.545 
X186.652 Y456.507 
X186.684 Y456.47 
X186.734 Y456.449 
X186.766 Y456.411 
X186.782 Y456.393 
X186.832 Y456.371 
X186.864 Y456.334 
X186.896 Y456.297 
X186.927 Y456.26 
X186.978 Y456.238 
X187.009 Y456.201 
X187.041 Y456.164 
X187.091 Y456.142 
X187.123 Y456.105 
X187.155 Y456.068 
X187.205 Y456.046 
X187.237 Y456.009 
X187.269 Y455.972 
X187.319 Y455.95 
X187.351 Y455.913 
X187.382 Y455.876 
X187.433 Y455.854 
X187.464 Y455.817 
X187.496 Y455.78 
X187.546 Y455.758 
X187.578 Y455.721 
X187.628 Y455.699 
X187.66 Y455.662 
X187.692 Y455.625 
X187.742 Y455.603 
X187.774 Y455.566 
X187.806 Y455.529 
X187.856 Y455.507 
X187.888 Y455.47 
X187.938 Y455.449 
X187.97 Y455.411 
X187.986 Y455.393 
X188.036 Y455.371 
X188.068 Y455.334 
X188.118 Y455.313 
X188.15 Y455.275 
X188.2 Y455.254 
X188.232 Y455.217 
X188.263 Y455.179 
X188.314 Y455.158 
X188.345 Y455.121 
X188.396 Y455.099 
X188.428 Y455.062 
X188.478 Y455.041 
X188.51 Y455.003 
X188.56 Y454.982 
X188.592 Y454.945 
X188.642 Y454.923 
X188.674 Y454.886 
X188.724 Y454.864 
X188.74 Y454.846 
X188.79 Y454.824 
X188.822 Y454.787 
X188.872 Y454.766 
X188.904 Y454.728 
X188.954 Y454.707 
X188.986 Y454.67 
X189.036 Y454.648 
X189.068 Y454.611 
X189.118 Y454.59 
X189.15 Y454.552 
X189.201 Y454.531 
X189.232 Y454.494 
X189.283 Y454.472 
X189.314 Y454.435 
X189.349 Y454.432 
X189.38 Y454.395 
X189.431 Y454.373 
X189.481 Y454.352 
X189.513 Y454.315 
X189.563 Y454.293 
X189.595 Y454.256 
X189.645 Y454.234 
X189.677 Y454.197 
X189.727 Y454.176 
X189.743 Y454.157 
G00 Z5
X184.297 Y458.937
Z-15
G01 Z-18 F100
X184.328 Y458.9 F150
X184.36 Y458.863 
X184.392 Y458.825 
X184.423 Y458.788 
X184.455 Y458.751 
X184.487 Y458.713 
X184.519 Y458.676 
X184.55 Y458.639 
X184.582 Y458.602 
X184.614 Y458.564 
X184.645 Y458.527 
X184.677 Y458.49 
X184.709 Y458.452 
X184.741 Y458.415 
X184.772 Y458.378 
X184.804 Y458.341 
X184.836 Y458.303 
X184.867 Y458.266 
X184.899 Y458.229 
X184.949 Y458.207 
X184.981 Y458.17 
X185.013 Y458.133 
X185.045 Y458.096 
X185.076 Y458.058 
X185.108 Y458.021 
X185.14 Y457.984 
X185.171 Y457.946 
X185.203 Y457.909 
X185.235 Y457.872 
X185.266 Y457.835 
X185.317 Y457.813 
X185.349 Y457.776 
X185.38 Y457.739 
X185.412 Y457.701 
X185.444 Y457.664 
X185.475 Y457.627 
X185.507 Y457.589 
X185.557 Y457.568 
X185.589 Y457.531 
X185.621 Y457.493 
X185.653 Y457.456 
X185.684 Y457.419 
X185.716 Y457.382 
X185.766 Y457.36 
X185.798 Y457.323 
X185.83 Y457.286 
X185.861 Y457.248 
X185.893 Y457.211 
X185.925 Y457.174 
X185.975 Y457.152 
X186.007 Y457.115 
X186.039 Y457.078 
X186.07 Y457.041 
X186.102 Y457.003 
X186.152 Y456.982 
X186.184 Y456.945 
X186.216 Y456.907 
X186.247 Y456.87 
X186.298 Y456.849 
X186.33 Y456.811 
X186.361 Y456.774 
X186.393 Y456.737 
X186.443 Y456.715 
X186.475 Y456.678 
X186.507 Y456.641 
X186.538 Y456.603 
X186.589 Y456.582 
X186.62 Y456.545 
X186.652 Y456.507 
X186.684 Y456.47 
X186.734 Y456.449 
X186.766 Y456.411 
X186.782 Y456.393 
X186.832 Y456.371 
X186.864 Y456.334 
X186.896 Y456.297 
X186.927 Y456.26 
X186.978 Y456.238 
X187.009 Y456.201 
X187.041 Y456.164 
X187.091 Y456.142 
X187.123 Y456.105 
X187.155 Y456.068 
X187.205 Y456.046 
X187.237 Y456.009 
X187.269 Y455.972 
X187.319 Y455.95 
X187.351 Y455.913 
X187.382 Y455.876 
X187.433 Y455.854 
X187.464 Y455.817 
X187.496 Y455.78 
X187.546 Y455.758 
X187.578 Y455.721 
X187.628 Y455.699 
X187.66 Y455.662 
X187.692 Y455.625 
X187.742 Y455.603 
X187.774 Y455.566 
X187.806 Y455.529 
X187.856 Y455.507 
X187.888 Y455.47 
X187.938 Y455.449 
X187.97 Y455.411 
X187.986 Y455.393 
X188.036 Y455.371 
X188.068 Y455.334 
X188.118 Y455.313 
X188.15 Y455.275 
X188.2 Y455.254 
X188.232 Y455.217 
X188.263 Y455.179 
X188.314 Y455.158 
X188.345 Y455.121 
X188.396 Y455.099 
X188.428 Y455.062 
X188.478 Y455.041 
X188.51 Y455.003 
X188.56 Y454.982 
X188.592 Y454.945 
X188.642 Y454.923 
X188.674 Y454.886 
X188.724 Y454.864 
X188.74 Y454.846 
X188.79 Y454.824 
X188.822 Y454.787 
X188.872 Y454.766 
X188.904 Y454.728 
X188.954 Y454.707 
X188.986 Y454.67 
X189.036 Y454.648 
X189.068 Y454.611 
X189.118 Y454.59 
X189.15 Y454.552 
X189.201 Y454.531 
X189.232 Y454.494 
X189.283 Y454.472 
X189.314 Y454.435 
X189.349 Y454.432 
X189.38 Y454.395 
X189.431 Y454.373 
X189.481 Y454.352 
X189.513 Y454.315 
X189.563 Y454.293 
X189.595 Y454.256 
X189.645 Y454.234 
X189.677 Y454.197 
X189.727 Y454.176 
X189.743 Y454.157 
G00 Z5
(Sketch 0)
G90X214.068 Y458.42
Z2
G01 Z-3 F100
X214.117 Y458.417 F150
X214.165 Y458.413 
X214.214 Y458.41 
X214.263 Y458.407 
X214.312 Y458.403 
X214.361 Y458.4 
X214.41 Y458.397 
X214.458 Y458.393 
X214.507 Y458.39 
X214.556 Y458.386 
X214.605 Y458.383 
X214.654 Y458.38 
X214.702 Y458.376 
X214.751 Y458.373 
X214.8 Y458.37 
X214.849 Y458.366 
X214.898 Y458.363 
X214.947 Y458.359 
X214.995 Y458.356 
X215.046 Y458.377 
X215.095 Y458.374 
X215.144 Y458.37 
X215.192 Y458.367 
X215.241 Y458.364 
X215.29 Y458.36 
X215.339 Y458.357 
X215.388 Y458.353 
X215.437 Y458.35 
X215.485 Y458.347 
X215.534 Y458.343 
X215.585 Y458.364 
X215.634 Y458.361 
X215.682 Y458.358 
X215.731 Y458.354 
X215.78 Y458.351 
X215.829 Y458.347 
X215.878 Y458.344 
X215.928 Y458.365 
X215.977 Y458.362 
X216.026 Y458.358 
X216.075 Y458.355 
X216.123 Y458.352 
X216.172 Y458.348 
X216.223 Y458.369 
X216.272 Y458.366 
X216.32 Y458.363 
X216.369 Y458.359 
X216.418 Y458.356 
X216.467 Y458.352 
X216.517 Y458.373 
X216.566 Y458.37 
X216.615 Y458.367 
X216.664 Y458.363 
X216.713 Y458.36 
X216.763 Y458.381 
X216.812 Y458.378 
X216.861 Y458.374 
X216.91 Y458.371 
X216.96 Y458.392 
X217.009 Y458.388 
X217.058 Y458.385 
X217.107 Y458.382 
X217.157 Y458.403 
X217.206 Y458.399 
X217.255 Y458.396 
X217.304 Y458.393 
X217.354 Y458.414 
X217.403 Y458.41 
X217.452 Y458.407 
X217.501 Y458.404 
X217.551 Y458.425 
X217.6 Y458.421 
X217.624 Y458.42 
X217.675 Y458.441 
X217.724 Y458.437 
X217.773 Y458.434 
X217.821 Y458.43 
X217.872 Y458.451 
X217.921 Y458.448 
X217.97 Y458.445 
X218.02 Y458.466 
X218.069 Y458.462 
X218.118 Y458.459 
X218.168 Y458.48 
X218.217 Y458.477 
X218.266 Y458.473 
X218.316 Y458.494 
X218.365 Y458.491 
X218.414 Y458.488 
X218.465 Y458.509 
X218.513 Y458.505 
X218.562 Y458.502 
X218.613 Y458.523 
X218.662 Y458.52 
X218.712 Y458.541 
X218.761 Y458.537 
X218.81 Y458.534 
X218.86 Y458.555 
X218.909 Y458.551 
X218.958 Y458.548 
X219.008 Y458.569 
X219.057 Y458.566 
X219.108 Y458.587 
X219.156 Y458.583 
X219.181 Y458.582 
X219.231 Y458.603 
X219.28 Y458.599 
X219.331 Y458.62 
X219.38 Y458.617 
X219.43 Y458.638 
X219.479 Y458.635 
X219.528 Y458.631 
X219.578 Y458.652 
X219.627 Y458.649 
X219.678 Y458.67 
X219.726 Y458.667 
X219.777 Y458.688 
X219.826 Y458.684 
X219.876 Y458.705 
X219.925 Y458.702 
X219.976 Y458.723 
X220.024 Y458.72 
X220.075 Y458.741 
X220.099 Y458.739 
X220.15 Y458.76 
X220.199 Y458.757 
X220.249 Y458.778 
X220.298 Y458.774 
X220.349 Y458.795 
X220.397 Y458.792 
X220.448 Y458.813 
X220.497 Y458.81 
X220.547 Y458.831 
X220.596 Y458.827 
X220.647 Y458.848 
X220.695 Y458.845 
X220.746 Y458.866 
X220.795 Y458.863 
X220.821 Y458.885 
X220.87 Y458.882 
X220.92 Y458.903 
X220.971 Y458.924 
X221.019 Y458.921 
X221.07 Y458.942 
X221.119 Y458.938 
X221.169 Y458.959 
X221.218 Y458.956 
X221.269 Y458.977 
X221.293 Y458.975 
G00 Z5
X214.068 Y458.42
Z-3
G01 Z-6 F100
X214.117 Y458.417 F150
X214.165 Y458.413 
X214.214 Y458.41 
X214.263 Y458.407 
X214.312 Y458.403 
X214.361 Y458.4 
X214.41 Y458.397 
X214.458 Y458.393 
X214.507 Y458.39 
X214.556 Y458.386 
X214.605 Y458.383 
X214.654 Y458.38 
X214.702 Y458.376 
X214.751 Y458.373 
X214.8 Y458.37 
X214.849 Y458.366 
X214.898 Y458.363 
X214.947 Y458.359 
X214.995 Y458.356 
X215.046 Y458.377 
X215.095 Y458.374 
X215.144 Y458.37 
X215.192 Y458.367 
X215.241 Y458.364 
X215.29 Y458.36 
X215.339 Y458.357 
X215.388 Y458.353 
X215.437 Y458.35 
X215.485 Y458.347 
X215.534 Y458.343 
X215.585 Y458.364 
X215.634 Y458.361 
X215.682 Y458.358 
X215.731 Y458.354 
X215.78 Y458.351 
X215.829 Y458.347 
X215.878 Y458.344 
X215.928 Y458.365 
X215.977 Y458.362 
X216.026 Y458.358 
X216.075 Y458.355 
X216.123 Y458.352 
X216.172 Y458.348 
X216.223 Y458.369 
X216.272 Y458.366 
X216.32 Y458.363 
X216.369 Y458.359 
X216.418 Y458.356 
X216.467 Y458.352 
X216.517 Y458.373 
X216.566 Y458.37 
X216.615 Y458.367 
X216.664 Y458.363 
X216.713 Y458.36 
X216.763 Y458.381 
X216.812 Y458.378 
X216.861 Y458.374 
X216.91 Y458.371 
X216.96 Y458.392 
X217.009 Y458.388 
X217.058 Y458.385 
X217.107 Y458.382 
X217.157 Y458.403 
X217.206 Y458.399 
X217.255 Y458.396 
X217.304 Y458.393 
X217.354 Y458.414 
X217.403 Y458.41 
X217.452 Y458.407 
X217.501 Y458.404 
X217.551 Y458.425 
X217.6 Y458.421 
X217.624 Y458.42 
X217.675 Y458.441 
X217.724 Y458.437 
X217.773 Y458.434 
X217.821 Y458.43 
X217.872 Y458.451 
X217.921 Y458.448 
X217.97 Y458.445 
X218.02 Y458.466 
X218.069 Y458.462 
X218.118 Y458.459 
X218.168 Y458.48 
X218.217 Y458.477 
X218.266 Y458.473 
X218.316 Y458.494 
X218.365 Y458.491 
X218.414 Y458.488 
X218.465 Y458.509 
X218.513 Y458.505 
X218.562 Y458.502 
X218.613 Y458.523 
X218.662 Y458.52 
X218.712 Y458.541 
X218.761 Y458.537 
X218.81 Y458.534 
X218.86 Y458.555 
X218.909 Y458.551 
X218.958 Y458.548 
X219.008 Y458.569 
X219.057 Y458.566 
X219.108 Y458.587 
X219.156 Y458.583 
X219.181 Y458.582 
X219.231 Y458.603 
X219.28 Y458.599 
X219.331 Y458.62 
X219.38 Y458.617 
X219.43 Y458.638 
X219.479 Y458.635 
X219.528 Y458.631 
X219.578 Y458.652 
X219.627 Y458.649 
X219.678 Y458.67 
X219.726 Y458.667 
X219.777 Y458.688 
X219.826 Y458.684 
X219.876 Y458.705 
X219.925 Y458.702 
X219.976 Y458.723 
X220.024 Y458.72 
X220.075 Y458.741 
X220.099 Y458.739 
X220.15 Y458.76 
X220.199 Y458.757 
X220.249 Y458.778 
X220.298 Y458.774 
X220.349 Y458.795 
X220.397 Y458.792 
X220.448 Y458.813 
X220.497 Y458.81 
X220.547 Y458.831 
X220.596 Y458.827 
X220.647 Y458.848 
X220.695 Y458.845 
X220.746 Y458.866 
X220.795 Y458.863 
X220.821 Y458.885 
X220.87 Y458.882 
X220.92 Y458.903 
X220.971 Y458.924 
X221.019 Y458.921 
X221.07 Y458.942 
X221.119 Y458.938 
X221.169 Y458.959 
X221.218 Y458.956 
X221.269 Y458.977 
X221.293 Y458.975 
G00 Z5
X214.068 Y458.42
Z-6
G01 Z-9 F100
X214.117 Y458.417 F150
X214.165 Y458.413 
X214.214 Y458.41 
X214.263 Y458.407 
X214.312 Y458.403 
X214.361 Y458.4 
X214.41 Y458.397 
X214.458 Y458.393 
X214.507 Y458.39 
X214.556 Y458.386 
X214.605 Y458.383 
X214.654 Y458.38 
X214.702 Y458.376 
X214.751 Y458.373 
X214.8 Y458.37 
X214.849 Y458.366 
X214.898 Y458.363 
X214.947 Y458.359 
X214.995 Y458.356 
X215.046 Y458.377 
X215.095 Y458.374 
X215.144 Y458.37 
X215.192 Y458.367 
X215.241 Y458.364 
X215.29 Y458.36 
X215.339 Y458.357 
X215.388 Y458.353 
X215.437 Y458.35 
X215.485 Y458.347 
X215.534 Y458.343 
X215.585 Y458.364 
X215.634 Y458.361 
X215.682 Y458.358 
X215.731 Y458.354 
X215.78 Y458.351 
X215.829 Y458.347 
X215.878 Y458.344 
X215.928 Y458.365 
X215.977 Y458.362 
X216.026 Y458.358 
X216.075 Y458.355 
X216.123 Y458.352 
X216.172 Y458.348 
X216.223 Y458.369 
X216.272 Y458.366 
X216.32 Y458.363 
X216.369 Y458.359 
X216.418 Y458.356 
X216.467 Y458.352 
X216.517 Y458.373 
X216.566 Y458.37 
X216.615 Y458.367 
X216.664 Y458.363 
X216.713 Y458.36 
X216.763 Y458.381 
X216.812 Y458.378 
X216.861 Y458.374 
X216.91 Y458.371 
X216.96 Y458.392 
X217.009 Y458.388 
X217.058 Y458.385 
X217.107 Y458.382 
X217.157 Y458.403 
X217.206 Y458.399 
X217.255 Y458.396 
X217.304 Y458.393 
X217.354 Y458.414 
X217.403 Y458.41 
X217.452 Y458.407 
X217.501 Y458.404 
X217.551 Y458.425 
X217.6 Y458.421 
X217.624 Y458.42 
X217.675 Y458.441 
X217.724 Y458.437 
X217.773 Y458.434 
X217.821 Y458.43 
X217.872 Y458.451 
X217.921 Y458.448 
X217.97 Y458.445 
X218.02 Y458.466 
X218.069 Y458.462 
X218.118 Y458.459 
X218.168 Y458.48 
X218.217 Y458.477 
X218.266 Y458.473 
X218.316 Y458.494 
X218.365 Y458.491 
X218.414 Y458.488 
X218.465 Y458.509 
X218.513 Y458.505 
X218.562 Y458.502 
X218.613 Y458.523 
X218.662 Y458.52 
X218.712 Y458.541 
X218.761 Y458.537 
X218.81 Y458.534 
X218.86 Y458.555 
X218.909 Y458.551 
X218.958 Y458.548 
X219.008 Y458.569 
X219.057 Y458.566 
X219.108 Y458.587 
X219.156 Y458.583 
X219.181 Y458.582 
X219.231 Y458.603 
X219.28 Y458.599 
X219.331 Y458.62 
X219.38 Y458.617 
X219.43 Y458.638 
X219.479 Y458.635 
X219.528 Y458.631 
X219.578 Y458.652 
X219.627 Y458.649 
X219.678 Y458.67 
X219.726 Y458.667 
X219.777 Y458.688 
X219.826 Y458.684 
X219.876 Y458.705 
X219.925 Y458.702 
X219.976 Y458.723 
X220.024 Y458.72 
X220.075 Y458.741 
X220.099 Y458.739 
X220.15 Y458.76 
X220.199 Y458.757 
X220.249 Y458.778 
X220.298 Y458.774 
X220.349 Y458.795 
X220.397 Y458.792 
X220.448 Y458.813 
X220.497 Y458.81 
X220.547 Y458.831 
X220.596 Y458.827 
X220.647 Y458.848 
X220.695 Y458.845 
X220.746 Y458.866 
X220.795 Y458.863 
X220.821 Y458.885 
X220.87 Y458.882 
X220.92 Y458.903 
X220.971 Y458.924 
X221.019 Y458.921 
X221.07 Y458.942 
X221.119 Y458.938 
X221.169 Y458.959 
X221.218 Y458.956 
X221.269 Y458.977 
X221.293 Y458.975 
G00 Z5
X214.068 Y458.42
Z-9
G01 Z-12 F100
X214.117 Y458.417 F150
X214.165 Y458.413 
X214.214 Y458.41 
X214.263 Y458.407 
X214.312 Y458.403 
X214.361 Y458.4 
X214.41 Y458.397 
X214.458 Y458.393 
X214.507 Y458.39 
X214.556 Y458.386 
X214.605 Y458.383 
X214.654 Y458.38 
X214.702 Y458.376 
X214.751 Y458.373 
X214.8 Y458.37 
X214.849 Y458.366 
X214.898 Y458.363 
X214.947 Y458.359 
X214.995 Y458.356 
X215.046 Y458.377 
X215.095 Y458.374 
X215.144 Y458.37 
X215.192 Y458.367 
X215.241 Y458.364 
X215.29 Y458.36 
X215.339 Y458.357 
X215.388 Y458.353 
X215.437 Y458.35 
X215.485 Y458.347 
X215.534 Y458.343 
X215.585 Y458.364 
X215.634 Y458.361 
X215.682 Y458.358 
X215.731 Y458.354 
X215.78 Y458.351 
X215.829 Y458.347 
X215.878 Y458.344 
X215.928 Y458.365 
X215.977 Y458.362 
X216.026 Y458.358 
X216.075 Y458.355 
X216.123 Y458.352 
X216.172 Y458.348 
X216.223 Y458.369 
X216.272 Y458.366 
X216.32 Y458.363 
X216.369 Y458.359 
X216.418 Y458.356 
X216.467 Y458.352 
X216.517 Y458.373 
X216.566 Y458.37 
X216.615 Y458.367 
X216.664 Y458.363 
X216.713 Y458.36 
X216.763 Y458.381 
X216.812 Y458.378 
X216.861 Y458.374 
X216.91 Y458.371 
X216.96 Y458.392 
X217.009 Y458.388 
X217.058 Y458.385 
X217.107 Y458.382 
X217.157 Y458.403 
X217.206 Y458.399 
X217.255 Y458.396 
X217.304 Y458.393 
X217.354 Y458.414 
X217.403 Y458.41 
X217.452 Y458.407 
X217.501 Y458.404 
X217.551 Y458.425 
X217.6 Y458.421 
X217.624 Y458.42 
X217.675 Y458.441 
X217.724 Y458.437 
X217.773 Y458.434 
X217.821 Y458.43 
X217.872 Y458.451 
X217.921 Y458.448 
X217.97 Y458.445 
X218.02 Y458.466 
X218.069 Y458.462 
X218.118 Y458.459 
X218.168 Y458.48 
X218.217 Y458.477 
X218.266 Y458.473 
X218.316 Y458.494 
X218.365 Y458.491 
X218.414 Y458.488 
X218.465 Y458.509 
X218.513 Y458.505 
X218.562 Y458.502 
X218.613 Y458.523 
X218.662 Y458.52 
X218.712 Y458.541 
X218.761 Y458.537 
X218.81 Y458.534 
X218.86 Y458.555 
X218.909 Y458.551 
X218.958 Y458.548 
X219.008 Y458.569 
X219.057 Y458.566 
X219.108 Y458.587 
X219.156 Y458.583 
X219.181 Y458.582 
X219.231 Y458.603 
X219.28 Y458.599 
X219.331 Y458.62 
X219.38 Y458.617 
X219.43 Y458.638 
X219.479 Y458.635 
X219.528 Y458.631 
X219.578 Y458.652 
X219.627 Y458.649 
X219.678 Y458.67 
X219.726 Y458.667 
X219.777 Y458.688 
X219.826 Y458.684 
X219.876 Y458.705 
X219.925 Y458.702 
X219.976 Y458.723 
X220.024 Y458.72 
X220.075 Y458.741 
X220.099 Y458.739 
X220.15 Y458.76 
X220.199 Y458.757 
X220.249 Y458.778 
X220.298 Y458.774 
X220.349 Y458.795 
X220.397 Y458.792 
X220.448 Y458.813 
X220.497 Y458.81 
X220.547 Y458.831 
X220.596 Y458.827 
X220.647 Y458.848 
X220.695 Y458.845 
X220.746 Y458.866 
X220.795 Y458.863 
X220.821 Y458.885 
X220.87 Y458.882 
X220.92 Y458.903 
X220.971 Y458.924 
X221.019 Y458.921 
X221.07 Y458.942 
X221.119 Y458.938 
X221.169 Y458.959 
X221.218 Y458.956 
X221.269 Y458.977 
X221.293 Y458.975 
G00 Z5
X214.068 Y458.42
Z-12
G01 Z-15 F100
X214.117 Y458.417 F150
X214.165 Y458.413 
X214.214 Y458.41 
X214.263 Y458.407 
X214.312 Y458.403 
X214.361 Y458.4 
X214.41 Y458.397 
X214.458 Y458.393 
X214.507 Y458.39 
X214.556 Y458.386 
X214.605 Y458.383 
X214.654 Y458.38 
X214.702 Y458.376 
X214.751 Y458.373 
X214.8 Y458.37 
X214.849 Y458.366 
X214.898 Y458.363 
X214.947 Y458.359 
X214.995 Y458.356 
X215.046 Y458.377 
X215.095 Y458.374 
X215.144 Y458.37 
X215.192 Y458.367 
X215.241 Y458.364 
X215.29 Y458.36 
X215.339 Y458.357 
X215.388 Y458.353 
X215.437 Y458.35 
X215.485 Y458.347 
X215.534 Y458.343 
X215.585 Y458.364 
X215.634 Y458.361 
X215.682 Y458.358 
X215.731 Y458.354 
X215.78 Y458.351 
X215.829 Y458.347 
X215.878 Y458.344 
X215.928 Y458.365 
X215.977 Y458.362 
X216.026 Y458.358 
X216.075 Y458.355 
X216.123 Y458.352 
X216.172 Y458.348 
X216.223 Y458.369 
X216.272 Y458.366 
X216.32 Y458.363 
X216.369 Y458.359 
X216.418 Y458.356 
X216.467 Y458.352 
X216.517 Y458.373 
X216.566 Y458.37 
X216.615 Y458.367 
X216.664 Y458.363 
X216.713 Y458.36 
X216.763 Y458.381 
X216.812 Y458.378 
X216.861 Y458.374 
X216.91 Y458.371 
X216.96 Y458.392 
X217.009 Y458.388 
X217.058 Y458.385 
X217.107 Y458.382 
X217.157 Y458.403 
X217.206 Y458.399 
X217.255 Y458.396 
X217.304 Y458.393 
X217.354 Y458.414 
X217.403 Y458.41 
X217.452 Y458.407 
X217.501 Y458.404 
X217.551 Y458.425 
X217.6 Y458.421 
X217.624 Y458.42 
X217.675 Y458.441 
X217.724 Y458.437 
X217.773 Y458.434 
X217.821 Y458.43 
X217.872 Y458.451 
X217.921 Y458.448 
X217.97 Y458.445 
X218.02 Y458.466 
X218.069 Y458.462 
X218.118 Y458.459 
X218.168 Y458.48 
X218.217 Y458.477 
X218.266 Y458.473 
X218.316 Y458.494 
X218.365 Y458.491 
X218.414 Y458.488 
X218.465 Y458.509 
X218.513 Y458.505 
X218.562 Y458.502 
X218.613 Y458.523 
X218.662 Y458.52 
X218.712 Y458.541 
X218.761 Y458.537 
X218.81 Y458.534 
X218.86 Y458.555 
X218.909 Y458.551 
X218.958 Y458.548 
X219.008 Y458.569 
X219.057 Y458.566 
X219.108 Y458.587 
X219.156 Y458.583 
X219.181 Y458.582 
X219.231 Y458.603 
X219.28 Y458.599 
X219.331 Y458.62 
X219.38 Y458.617 
X219.43 Y458.638 
X219.479 Y458.635 
X219.528 Y458.631 
X219.578 Y458.652 
X219.627 Y458.649 
X219.678 Y458.67 
X219.726 Y458.667 
X219.777 Y458.688 
X219.826 Y458.684 
X219.876 Y458.705 
X219.925 Y458.702 
X219.976 Y458.723 
X220.024 Y458.72 
X220.075 Y458.741 
X220.099 Y458.739 
X220.15 Y458.76 
X220.199 Y458.757 
X220.249 Y458.778 
X220.298 Y458.774 
X220.349 Y458.795 
X220.397 Y458.792 
X220.448 Y458.813 
X220.497 Y458.81 
X220.547 Y458.831 
X220.596 Y458.827 
X220.647 Y458.848 
X220.695 Y458.845 
X220.746 Y458.866 
X220.795 Y458.863 
X220.821 Y458.885 
X220.87 Y458.882 
X220.92 Y458.903 
X220.971 Y458.924 
X221.019 Y458.921 
X221.07 Y458.942 
X221.119 Y458.938 
X221.169 Y458.959 
X221.218 Y458.956 
X221.269 Y458.977 
X221.293 Y458.975 
G00 Z5
X214.068 Y458.42
Z-15
G01 Z-18 F100
X214.117 Y458.417 F150
X214.165 Y458.413 
X214.214 Y458.41 
X214.263 Y458.407 
X214.312 Y458.403 
X214.361 Y458.4 
X214.41 Y458.397 
X214.458 Y458.393 
X214.507 Y458.39 
X214.556 Y458.386 
X214.605 Y458.383 
X214.654 Y458.38 
X214.702 Y458.376 
X214.751 Y458.373 
X214.8 Y458.37 
X214.849 Y458.366 
X214.898 Y458.363 
X214.947 Y458.359 
X214.995 Y458.356 
X215.046 Y458.377 
X215.095 Y458.374 
X215.144 Y458.37 
X215.192 Y458.367 
X215.241 Y458.364 
X215.29 Y458.36 
X215.339 Y458.357 
X215.388 Y458.353 
X215.437 Y458.35 
X215.485 Y458.347 
X215.534 Y458.343 
X215.585 Y458.364 
X215.634 Y458.361 
X215.682 Y458.358 
X215.731 Y458.354 
X215.78 Y458.351 
X215.829 Y458.347 
X215.878 Y458.344 
X215.928 Y458.365 
X215.977 Y458.362 
X216.026 Y458.358 
X216.075 Y458.355 
X216.123 Y458.352 
X216.172 Y458.348 
X216.223 Y458.369 
X216.272 Y458.366 
X216.32 Y458.363 
X216.369 Y458.359 
X216.418 Y458.356 
X216.467 Y458.352 
X216.517 Y458.373 
X216.566 Y458.37 
X216.615 Y458.367 
X216.664 Y458.363 
X216.713 Y458.36 
X216.763 Y458.381 
X216.812 Y458.378 
X216.861 Y458.374 
X216.91 Y458.371 
X216.96 Y458.392 
X217.009 Y458.388 
X217.058 Y458.385 
X217.107 Y458.382 
X217.157 Y458.403 
X217.206 Y458.399 
X217.255 Y458.396 
X217.304 Y458.393 
X217.354 Y458.414 
X217.403 Y458.41 
X217.452 Y458.407 
X217.501 Y458.404 
X217.551 Y458.425 
X217.6 Y458.421 
X217.624 Y458.42 
X217.675 Y458.441 
X217.724 Y458.437 
X217.773 Y458.434 
X217.821 Y458.43 
X217.872 Y458.451 
X217.921 Y458.448 
X217.97 Y458.445 
X218.02 Y458.466 
X218.069 Y458.462 
X218.118 Y458.459 
X218.168 Y458.48 
X218.217 Y458.477 
X218.266 Y458.473 
X218.316 Y458.494 
X218.365 Y458.491 
X218.414 Y458.488 
X218.465 Y458.509 
X218.513 Y458.505 
X218.562 Y458.502 
X218.613 Y458.523 
X218.662 Y458.52 
X218.712 Y458.541 
X218.761 Y458.537 
X218.81 Y458.534 
X218.86 Y458.555 
X218.909 Y458.551 
X218.958 Y458.548 
X219.008 Y458.569 
X219.057 Y458.566 
X219.108 Y458.587 
X219.156 Y458.583 
X219.181 Y458.582 
X219.231 Y458.603 
X219.28 Y458.599 
X219.331 Y458.62 
X219.38 Y458.617 
X219.43 Y458.638 
X219.479 Y458.635 
X219.528 Y458.631 
X219.578 Y458.652 
X219.627 Y458.649 
X219.678 Y458.67 
X219.726 Y458.667 
X219.777 Y458.688 
X219.826 Y458.684 
X219.876 Y458.705 
X219.925 Y458.702 
X219.976 Y458.723 
X220.024 Y458.72 
X220.075 Y458.741 
X220.099 Y458.739 
X220.15 Y458.76 
X220.199 Y458.757 
X220.249 Y458.778 
X220.298 Y458.774 
X220.349 Y458.795 
X220.397 Y458.792 
X220.448 Y458.813 
X220.497 Y458.81 
X220.547 Y458.831 
X220.596 Y458.827 
X220.647 Y458.848 
X220.695 Y458.845 
X220.746 Y458.866 
X220.795 Y458.863 
X220.821 Y458.885 
X220.87 Y458.882 
X220.92 Y458.903 
X220.971 Y458.924 
X221.019 Y458.921 
X221.07 Y458.942 
X221.119 Y458.938 
X221.169 Y458.959 
X221.218 Y458.956 
X221.269 Y458.977 
X221.293 Y458.975 
G00 Z5
G90
(frame_drills_4mm)
X117.806 Y508.977 S7000 M03
Z2
G01 Z-3 F100
G02 X117.559 Y506.992 I-0.123 J-0.992 F150
G01 X117.407 Y507.011 
X117.346 Y507.027 
X117.286 Y507.05 
X117.234 Y507.079 
X117.184 Y507.116 
X117.137 Y507.16 
X117.096 Y507.208 
X117.063 Y507.26 
X117.038 Y507.314 
X117.019 Y507.375 
X117.006 Y507.438 
X117.003 Y507.5 
X117.006 Y507.561 
X117.019 Y507.624 
X117.038 Y507.685 
X117.063 Y507.739 
X117.096 Y507.791 
X117.137 Y507.839 
X117.184 Y507.883 
X117.234 Y507.92 
X117.286 Y507.949 
X117.346 Y507.972 
X117.407 Y507.988 
X117.467 Y507.996 
X117.532 Y507.996 
X117.592 Y507.988 
X117.653 Y507.972 
X117.713 Y507.949 
X117.765 Y507.92 
X117.815 Y507.883 
X117.862 Y507.839 
X117.903 Y507.791 
X117.936 Y507.739 
X117.961 Y507.685 
X117.98 Y507.624 
X117.993 Y507.561 
X117.996 Y507.5 
X117.993 Y507.438 
X117.98 Y507.375 
X117.961 Y507.314 
X117.936 Y507.26 
X117.903 Y507.208 
X117.862 Y507.16 
X117.815 Y507.116 
X117.765 Y507.079 
X117.713 Y507.05 
X117.653 Y507.027 
X117.592 Y507.011 
X117.532 Y507.004 
X117.374 Y507.004 
G03 X117.374 Y504.004 I0 J-1.5 
G01 X282.125 Y504.035 
G03 X282.501 Y506.986 I0 J1.499 
G01 X282.346 Y507.027 
X282.286 Y507.05 
X282.234 Y507.079 
X282.184 Y507.116 
X282.137 Y507.16 
X282.096 Y507.208 
X282.063 Y507.26 
X282.038 Y507.314 
X282.019 Y507.375 
X282.006 Y507.438 
X282.003 Y507.5 
X282.006 Y507.561 
X282.019 Y507.624 
X282.038 Y507.685 
X282.063 Y507.739 
X282.096 Y507.791 
X282.137 Y507.839 
X282.184 Y507.883 
X282.234 Y507.92 
X282.286 Y507.949 
X282.346 Y507.972 
X282.407 Y507.988 
X282.467 Y507.996 
X282.532 Y507.996 
X282.592 Y507.988 
X282.653 Y507.972 
X282.713 Y507.949 
X282.765 Y507.92 
X282.815 Y507.883 
X282.862 Y507.839 
X282.903 Y507.791 
X282.936 Y507.739 
X282.961 Y507.685 
X282.98 Y507.624 
X282.993 Y507.561 
X282.996 Y507.5 
X282.993 Y507.438 
X282.98 Y507.375 
X282.961 Y507.314 
X282.936 Y507.26 
X282.903 Y507.208 
X282.862 Y507.16 
X282.815 Y507.116 
X282.765 Y507.079 
X282.713 Y507.05 
X282.653 Y507.027 
X282.592 Y507.011 
X282.532 Y507.004 
X282.374 Y507.004 
G03 X281.946 Y504.066 I0 J-1.5 
G01 X364.197 Y479.597 
G03 X365.001 Y482.486 I0.427 J1.437 
G01 X364.846 Y482.527 
X364.786 Y482.55 
X364.734 Y482.579 
X364.684 Y482.616 
X364.637 Y482.66 
X364.596 Y482.708 
X364.563 Y482.76 
X364.538 Y482.814 
X364.519 Y482.875 
X364.506 Y482.938 
X364.503 Y483 
X364.506 Y483.061 
X364.519 Y483.124 
X364.538 Y483.185 
X364.563 Y483.239 
X364.596 Y483.291 
X364.637 Y483.339 
X364.684 Y483.383 
X364.734 Y483.42 
X364.786 Y483.449 
X364.846 Y483.472 
X364.907 Y483.488 
X364.967 Y483.496 
X365.032 Y483.496 
X365.092 Y483.488 
X365.153 Y483.472 
X365.213 Y483.449 
X365.265 Y483.42 
X365.315 Y483.383 
X365.362 Y483.339 
X365.403 Y483.291 
X365.436 Y483.239 
X365.461 Y483.185 
X365.48 Y483.124 
X365.493 Y483.061 
X365.496 Y483 
X365.493 Y482.938 
X365.48 Y482.875 
X365.461 Y482.814 
X365.436 Y482.76 
X365.403 Y482.708 
X365.362 Y482.66 
X365.315 Y482.616 
X365.265 Y482.579 
X365.213 Y482.55 
X365.153 Y482.527 
X365.092 Y482.511 
X365.032 Y482.504 
X364.874 Y482.504 
G03 X364.606 Y482.479 I0 J-1.5 
G01 X34.734 Y422.579 
X34.684 Y422.616 
X34.637 Y422.66 
X34.597 Y422.708 
X34.564 Y422.759 
X34.538 Y422.816 
X34.518 Y422.876 
X34.506 Y422.937 
X34.502 Y423 
X34.506 Y423.062 
X34.518 Y423.123 
X34.538 Y423.183 
X34.564 Y423.24 
X34.597 Y423.291 
X34.637 Y423.339 
X34.684 Y423.383 
X34.734 Y423.42 
X34.787 Y423.449 
X34.846 Y423.472 
X34.907 Y423.488 
X34.967 Y423.496 
X35.032 Y423.496 
X35.092 Y423.488 
X35.153 Y423.472 
X35.212 Y423.449 
X35.265 Y423.42 
X35.316 Y423.383 
X35.362 Y423.339 
X35.402 Y423.291 
X35.435 Y423.24 
X35.461 Y423.183 
X35.481 Y423.122 
X35.493 Y423.062 
X35.497 Y423 
X35.493 Y422.937 
X35.481 Y422.877 
X35.461 Y422.816 
X35.435 Y422.759 
X35.402 Y422.708 
X35.362 Y422.66 
X35.316 Y422.616 
X35.265 Y422.579 
X35.212 Y422.55 
X35.153 Y422.527 
X35.092 Y422.511 
X35.032 Y422.504 
X34.874 Y422.504 
G03 X34.874 Y419.504 I0 J-1.5 
G01 X364.625 Y419.535 
G03 X365.001 Y422.486 I0 J1.499 
G01 X364.846 Y422.527 
X364.786 Y422.55 
X364.734 Y422.579 
X364.684 Y422.616 
X364.637 Y422.66 
X364.596 Y422.708 
X364.563 Y422.76 
X364.538 Y422.814 
X364.519 Y422.875 
X364.506 Y422.938 
X364.503 Y423 
X364.506 Y423.061 
X364.519 Y423.124 
X364.538 Y423.185 
X364.563 Y423.239 
X364.596 Y423.291 
X364.637 Y423.339 
X364.684 Y423.383 
X364.734 Y423.42 
X364.786 Y423.449 
X364.846 Y423.472 
X364.907 Y423.488 
X364.967 Y423.496 
X365.032 Y423.496 
X365.092 Y423.488 
X365.153 Y423.472 
X365.213 Y423.449 
X365.265 Y423.42 
X365.315 Y423.383 
X365.362 Y423.339 
X365.403 Y423.291 
X365.436 Y423.239 
X365.461 Y423.185 
X365.48 Y423.124 
X365.493 Y423.061 
X365.496 Y423 
X365.493 Y422.938 
X365.48 Y422.875 
X365.461 Y422.814 
X365.436 Y422.76 
X365.403 Y422.708 
X365.362 Y422.66 
X365.315 Y422.616 
X365.265 Y422.579 
X365.213 Y422.55 
X365.153 Y422.527 
X365.092 Y422.511 
X365.032 Y422.504 
X364.874 Y422.504 
G03 X363.69 Y421.925 I0 J-1.5 
G01 X115.941 Y103.456 
G03 X117.501 Y103.986 I1.183 J-0.921 
G01 X117.346 Y104.027 
X117.286 Y104.05 
X117.234 Y104.079 
X117.184 Y104.116 
X117.137 Y104.16 
X117.096 Y104.208 
X117.063 Y104.26 
X117.038 Y104.314 
X117.019 Y104.375 
X117.006 Y104.438 
X117.003 Y104.5 
X117.006 Y104.561 
X117.019 Y104.624 
X117.038 Y104.685 
X117.063 Y104.739 
X117.096 Y104.791 
X117.137 Y104.839 
X117.184 Y104.883 
X117.234 Y104.92 
X117.286 Y104.949 
X117.346 Y104.972 
X117.407 Y104.988 
X117.467 Y104.996 
X117.532 Y104.996 
X117.592 Y104.988 
X117.653 Y104.972 
X117.713 Y104.949 
X117.765 Y104.92 
X117.815 Y104.883 
X117.862 Y104.839 
X117.903 Y104.791 
X117.936 Y104.739 
X117.961 Y104.685 
X117.98 Y104.624 
X117.993 Y104.561 
X117.996 Y104.5 
X117.993 Y104.438 
X117.98 Y104.375 
X117.961 Y104.314 
X117.936 Y104.26 
X117.903 Y104.208 
X117.862 Y104.16 
X117.815 Y104.116 
X117.765 Y104.079 
X117.713 Y104.05 
X117.653 Y104.027 
X117.592 Y104.011 
X117.532 Y104.004 
X117.374 Y104.004 
G03 X117.374 Y101.004 I0 J-1.5 
G01 X282.125 Y101.035 
G03 X282.501 Y103.986 I0 J1.499 
G01 X282.346 Y104.027 
X282.286 Y104.05 
X282.234 Y104.079 
X282.184 Y104.116 
X282.137 Y104.16 
X282.096 Y104.208 
X282.063 Y104.26 
X282.038 Y104.314 
X282.019 Y104.375 
X282.006 Y104.438 
X282.003 Y104.5 
X282.006 Y104.561 
X282.019 Y104.624 
X282.038 Y104.685 
X282.063 Y104.739 
X282.096 Y104.791 
X282.137 Y104.839 
X282.184 Y104.883 
X282.234 Y104.92 
X282.286 Y104.949 
X282.346 Y104.972 
X282.407 Y104.988 
X282.467 Y104.996 
X282.532 Y104.996 
X282.535 Y104.995 
X35.88 Y481.856 
G03 X35.001 Y482.487 I-1.255 J-0.821 
G01 X34.846 Y482.527 
X34.787 Y482.55 
X34.734 Y482.579 
X34.684 Y482.616 
X34.637 Y482.66 
X34.597 Y482.708 
X34.564 Y482.759 
X34.538 Y482.816 
X34.518 Y482.876 
X34.506 Y482.937 
X34.502 Y483 
X34.506 Y483.062 
X34.518 Y483.123 
X34.538 Y483.183 
X34.564 Y483.24 
X34.597 Y483.291 
X34.637 Y483.339 
X34.684 Y483.383 
X34.734 Y483.42 
X34.787 Y483.449 
X34.846 Y483.472 
X34.907 Y483.488 
X34.967 Y483.496 
X35.032 Y483.496 
X35.092 Y483.488 
X35.153 Y483.472 
X35.212 Y483.449 
X35.265 Y483.42 
X35.316 Y483.383 
X35.362 Y483.339 
X35.402 Y483.291 
X35.435 Y483.24 
X35.461 Y483.183 
X35.481 Y483.122 
X35.493 Y483.062 
X35.497 Y483 
X35.493 Y482.937 
X35.481 Y482.877 
X35.461 Y482.816 
X35.435 Y482.759 
X35.402 Y482.708 
X35.362 Y482.66 
X35.316 Y482.616 
X35.265 Y482.579 
X35.212 Y482.55 
X35.153 Y482.527 
X35.092 Y482.511 
X35.032 Y482.504 
X34.874 Y482.504 
G02 X34.874 Y484.504 I0 J1 
G00 Z5
X117.806 Y508.977
Z-3
G01 Z-6 F100
G02 X117.559 Y506.992 I-0.123 J-0.992 F150
G01 X117.407 Y507.011 
X117.346 Y507.027 
X117.286 Y507.05 
X117.234 Y507.079 
X117.184 Y507.116 
X117.137 Y507.16 
X117.096 Y507.208 
X117.063 Y507.26 
X117.038 Y507.314 
X117.019 Y507.375 
X117.006 Y507.438 
X117.003 Y507.5 
X117.006 Y507.561 
X117.019 Y507.624 
X117.038 Y507.685 
X117.063 Y507.739 
X117.096 Y507.791 
X117.137 Y507.839 
X117.184 Y507.883 
X117.234 Y507.92 
X117.286 Y507.949 
X117.346 Y507.972 
X117.407 Y507.988 
X117.467 Y507.996 
X117.532 Y507.996 
X117.592 Y507.988 
X117.653 Y507.972 
X117.713 Y507.949 
X117.765 Y507.92 
X117.815 Y507.883 
X117.862 Y507.839 
X117.903 Y507.791 
X117.936 Y507.739 
X117.961 Y507.685 
X117.98 Y507.624 
X117.993 Y507.561 
X117.996 Y507.5 
X117.993 Y507.438 
X117.98 Y507.375 
X117.961 Y507.314 
X117.936 Y507.26 
X117.903 Y507.208 
X117.862 Y507.16 
X117.815 Y507.116 
X117.765 Y507.079 
X117.713 Y507.05 
X117.653 Y507.027 
X117.592 Y507.011 
X117.532 Y507.004 
X117.374 Y507.004 
G03 X117.374 Y504.004 I0 J-1.5 
G01 X282.125 Y504.035 
G03 X282.501 Y506.986 I0 J1.499 
G01 X282.346 Y507.027 
X282.286 Y507.05 
X282.234 Y507.079 
X282.184 Y507.116 
X282.137 Y507.16 
X282.096 Y507.208 
X282.063 Y507.26 
X282.038 Y507.314 
X282.019 Y507.375 
X282.006 Y507.438 
X282.003 Y507.5 
X282.006 Y507.561 
X282.019 Y507.624 
X282.038 Y507.685 
X282.063 Y507.739 
X282.096 Y507.791 
X282.137 Y507.839 
X282.184 Y507.883 
X282.234 Y507.92 
X282.286 Y507.949 
X282.346 Y507.972 
X282.407 Y507.988 
X282.467 Y507.996 
X282.532 Y507.996 
X282.592 Y507.988 
X282.653 Y507.972 
X282.713 Y507.949 
X282.765 Y507.92 
X282.815 Y507.883 
X282.862 Y507.839 
X282.903 Y507.791 
X282.936 Y507.739 
X282.961 Y507.685 
X282.98 Y507.624 
X282.993 Y507.561 
X282.996 Y507.5 
X282.993 Y507.438 
X282.98 Y507.375 
X282.961 Y507.314 
X282.936 Y507.26 
X282.903 Y507.208 
X282.862 Y507.16 
X282.815 Y507.116 
X282.765 Y507.079 
X282.713 Y507.05 
X282.653 Y507.027 
X282.592 Y507.011 
X282.532 Y507.004 
X282.374 Y507.004 
G03 X281.946 Y504.066 I0 J-1.5 
G01 X364.197 Y479.597 
G03 X365.001 Y482.486 I0.427 J1.437 
G01 X364.846 Y482.527 
X364.786 Y482.55 
X364.734 Y482.579 
X364.684 Y482.616 
X364.637 Y482.66 
X364.596 Y482.708 
X364.563 Y482.76 
X364.538 Y482.814 
X364.519 Y482.875 
X364.506 Y482.938 
X364.503 Y483 
X364.506 Y483.061 
X364.519 Y483.124 
X364.538 Y483.185 
X364.563 Y483.239 
X364.596 Y483.291 
X364.637 Y483.339 
X364.684 Y483.383 
X364.734 Y483.42 
X364.786 Y483.449 
X364.846 Y483.472 
X364.907 Y483.488 
X364.967 Y483.496 
X365.032 Y483.496 
X365.092 Y483.488 
X365.153 Y483.472 
X365.213 Y483.449 
X365.265 Y483.42 
X365.315 Y483.383 
X365.362 Y483.339 
X365.403 Y483.291 
X365.436 Y483.239 
X365.461 Y483.185 
X365.48 Y483.124 
X365.493 Y483.061 
X365.496 Y483 
X365.493 Y482.938 
X365.48 Y482.875 
X365.461 Y482.814 
X365.436 Y482.76 
X365.403 Y482.708 
X365.362 Y482.66 
X365.315 Y482.616 
X365.265 Y482.579 
X365.213 Y482.55 
X365.153 Y482.527 
X365.092 Y482.511 
X365.032 Y482.504 
X364.874 Y482.504 
G03 X364.606 Y482.479 I0 J-1.5 
G01 X34.734 Y422.579 
X34.684 Y422.616 
X34.637 Y422.66 
X34.597 Y422.708 
X34.564 Y422.759 
X34.538 Y422.816 
X34.518 Y422.876 
X34.506 Y422.937 
X34.502 Y423 
X34.506 Y423.062 
X34.518 Y423.123 
X34.538 Y423.183 
X34.564 Y423.24 
X34.597 Y423.291 
X34.637 Y423.339 
X34.684 Y423.383 
X34.734 Y423.42 
X34.787 Y423.449 
X34.846 Y423.472 
X34.907 Y423.488 
X34.967 Y423.496 
X35.032 Y423.496 
X35.092 Y423.488 
X35.153 Y423.472 
X35.212 Y423.449 
X35.265 Y423.42 
X35.316 Y423.383 
X35.362 Y423.339 
X35.402 Y423.291 
X35.435 Y423.24 
X35.461 Y423.183 
X35.481 Y423.122 
X35.493 Y423.062 
X35.497 Y423 
X35.493 Y422.937 
X35.481 Y422.877 
X35.461 Y422.816 
X35.435 Y422.759 
X35.402 Y422.708 
X35.362 Y422.66 
X35.316 Y422.616 
X35.265 Y422.579 
X35.212 Y422.55 
X35.153 Y422.527 
X35.092 Y422.511 
X35.032 Y422.504 
X34.874 Y422.504 
G03 X34.874 Y419.504 I0 J-1.5 
G01 X364.625 Y419.535 
G03 X365.001 Y422.486 I0 J1.499 
G01 X364.846 Y422.527 
X364.786 Y422.55 
X364.734 Y422.579 
X364.684 Y422.616 
X364.637 Y422.66 
X364.596 Y422.708 
X364.563 Y422.76 
X364.538 Y422.814 
X364.519 Y422.875 
X364.506 Y422.938 
X364.503 Y423 
X364.506 Y423.061 
X364.519 Y423.124 
X364.538 Y423.185 
X364.563 Y423.239 
X364.596 Y423.291 
X364.637 Y423.339 
X364.684 Y423.383 
X364.734 Y423.42 
X364.786 Y423.449 
X364.846 Y423.472 
X364.907 Y423.488 
X364.967 Y423.496 
X365.032 Y423.496 
X365.092 Y423.488 
X365.153 Y423.472 
X365.213 Y423.449 
X365.265 Y423.42 
X365.315 Y423.383 
X365.362 Y423.339 
X365.403 Y423.291 
X365.436 Y423.239 
X365.461 Y423.185 
X365.48 Y423.124 
X365.493 Y423.061 
X365.496 Y423 
X365.493 Y422.938 
X365.48 Y422.875 
X365.461 Y422.814 
X365.436 Y422.76 
X365.403 Y422.708 
X365.362 Y422.66 
X365.315 Y422.616 
X365.265 Y422.579 
X365.213 Y422.55 
X365.153 Y422.527 
X365.092 Y422.511 
X365.032 Y422.504 
X364.874 Y422.504 
G03 X363.69 Y421.925 I0 J-1.5 
G01 X115.941 Y103.456 
G03 X117.501 Y103.986 I1.183 J-0.921 
G01 X117.346 Y104.027 
X117.286 Y104.05 
X117.234 Y104.079 
X117.184 Y104.116 
X117.137 Y104.16 
X117.096 Y104.208 
X117.063 Y104.26 
X117.038 Y104.314 
X117.019 Y104.375 
X117.006 Y104.438 
X117.003 Y104.5 
X117.006 Y104.561 
X117.019 Y104.624 
X117.038 Y104.685 
X117.063 Y104.739 
X117.096 Y104.791 
X117.137 Y104.839 
X117.184 Y104.883 
X117.234 Y104.92 
X117.286 Y104.949 
X117.346 Y104.972 
X117.407 Y104.988 
X117.467 Y104.996 
X117.532 Y104.996 
X117.592 Y104.988 
X117.653 Y104.972 
X117.713 Y104.949 
X117.765 Y104.92 
X117.815 Y104.883 
X117.862 Y104.839 
X117.903 Y104.791 
X117.936 Y104.739 
X117.961 Y104.685 
X117.98 Y104.624 
X117.993 Y104.561 
X117.996 Y104.5 
X117.993 Y104.438 
X117.98 Y104.375 
X117.961 Y104.314 
X117.936 Y104.26 
X117.903 Y104.208 
X117.862 Y104.16 
X117.815 Y104.116 
X117.765 Y104.079 
X117.713 Y104.05 
X117.653 Y104.027 
X117.592 Y104.011 
X117.532 Y104.004 
X117.374 Y104.004 
G03 X117.374 Y101.004 I0 J-1.5 
G01 X282.125 Y101.035 
G03 X282.501 Y103.986 I0 J1.499 
G01 X282.346 Y104.027 
X282.286 Y104.05 
X282.234 Y104.079 
X282.184 Y104.116 
X282.137 Y104.16 
X282.096 Y104.208 
X282.063 Y104.26 
X282.038 Y104.314 
X282.019 Y104.375 
X282.006 Y104.438 
X282.003 Y104.5 
X282.006 Y104.561 
X282.019 Y104.624 
X282.038 Y104.685 
X282.063 Y104.739 
X282.096 Y104.791 
X282.137 Y104.839 
X282.184 Y104.883 
X282.234 Y104.92 
X282.286 Y104.949 
X282.346 Y104.972 
X282.407 Y104.988 
X282.467 Y104.996 
X282.532 Y104.996 
X282.535 Y104.995 
X35.88 Y481.856 
G03 X35.001 Y482.487 I-1.255 J-0.821 
G01 X34.846 Y482.527 
X34.787 Y482.55 
X34.734 Y482.579 
X34.684 Y482.616 
X34.637 Y482.66 
X34.597 Y482.708 
X34.564 Y482.759 
X34.538 Y482.816 
X34.518 Y482.876 
X34.506 Y482.937 
X34.502 Y483 
X34.506 Y483.062 
X34.518 Y483.123 
X34.538 Y483.183 
X34.564 Y483.24 
X34.597 Y483.291 
X34.637 Y483.339 
X34.684 Y483.383 
X34.734 Y483.42 
X34.787 Y483.449 
X34.846 Y483.472 
X34.907 Y483.488 
X34.967 Y483.496 
X35.032 Y483.496 
X35.092 Y483.488 
X35.153 Y483.472 
X35.212 Y483.449 
X35.265 Y483.42 
X35.316 Y483.383 
X35.362 Y483.339 
X35.402 Y483.291 
X35.435 Y483.24 
X35.461 Y483.183 
X35.481 Y483.122 
X35.493 Y483.062 
X35.497 Y483 
X35.493 Y482.937 
X35.481 Y482.877 
X35.461 Y482.816 
X35.435 Y482.759 
X35.402 Y482.708 
X35.362 Y482.66 
X35.316 Y482.616 
X35.265 Y482.579 
X35.212 Y482.55 
X35.153 Y482.527 
X35.092 Y482.511 
X35.032 Y482.504 
X34.874 Y482.504 
G02 X34.874 Y484.504 I0 J1 
G00 Z5
X117.806 Y508.977
Z-6
G01 Z-9 F100
G02 X117.559 Y506.992 I-0.123 J-0.992 F150
G01 X117.407 Y507.011 
X117.346 Y507.027 
X117.286 Y507.05 
X117.234 Y507.079 
X117.184 Y507.116 
X117.137 Y507.16 
X117.096 Y507.208 
X117.063 Y507.26 
X117.038 Y507.314 
X117.019 Y507.375 
X117.006 Y507.438 
X117.003 Y507.5 
X117.006 Y507.561 
X117.019 Y507.624 
X117.038 Y507.685 
X117.063 Y507.739 
X117.096 Y507.791 
X117.137 Y507.839 
X117.184 Y507.883 
X117.234 Y507.92 
X117.286 Y507.949 
X117.346 Y507.972 
X117.407 Y507.988 
X117.467 Y507.996 
X117.532 Y507.996 
X117.592 Y507.988 
X117.653 Y507.972 
X117.713 Y507.949 
X117.765 Y507.92 
X117.815 Y507.883 
X117.862 Y507.839 
X117.903 Y507.791 
X117.936 Y507.739 
X117.961 Y507.685 
X117.98 Y507.624 
X117.993 Y507.561 
X117.996 Y507.5 
X117.993 Y507.438 
X117.98 Y507.375 
X117.961 Y507.314 
X117.936 Y507.26 
X117.903 Y507.208 
X117.862 Y507.16 
X117.815 Y507.116 
X117.765 Y507.079 
X117.713 Y507.05 
X117.653 Y507.027 
X117.592 Y507.011 
X117.532 Y507.004 
X117.374 Y507.004 
G03 X117.374 Y504.004 I0 J-1.5 
G01 X282.125 Y504.035 
G03 X282.501 Y506.986 I0 J1.499 
G01 X282.346 Y507.027 
X282.286 Y507.05 
X282.234 Y507.079 
X282.184 Y507.116 
X282.137 Y507.16 
X282.096 Y507.208 
X282.063 Y507.26 
X282.038 Y507.314 
X282.019 Y507.375 
X282.006 Y507.438 
X282.003 Y507.5 
X282.006 Y507.561 
X282.019 Y507.624 
X282.038 Y507.685 
X282.063 Y507.739 
X282.096 Y507.791 
X282.137 Y507.839 
X282.184 Y507.883 
X282.234 Y507.92 
X282.286 Y507.949 
X282.346 Y507.972 
X282.407 Y507.988 
X282.467 Y507.996 
X282.532 Y507.996 
X282.592 Y507.988 
X282.653 Y507.972 
X282.713 Y507.949 
X282.765 Y507.92 
X282.815 Y507.883 
X282.862 Y507.839 
X282.903 Y507.791 
X282.936 Y507.739 
X282.961 Y507.685 
X282.98 Y507.624 
X282.993 Y507.561 
X282.996 Y507.5 
X282.993 Y507.438 
X282.98 Y507.375 
X282.961 Y507.314 
X282.936 Y507.26 
X282.903 Y507.208 
X282.862 Y507.16 
X282.815 Y507.116 
X282.765 Y507.079 
X282.713 Y507.05 
X282.653 Y507.027 
X282.592 Y507.011 
X282.532 Y507.004 
X282.374 Y507.004 
G03 X281.946 Y504.066 I0 J-1.5 
G01 X364.197 Y479.597 
G03 X365.001 Y482.486 I0.427 J1.437 
G01 X364.846 Y482.527 
X364.786 Y482.55 
X364.734 Y482.579 
X364.684 Y482.616 
X364.637 Y482.66 
X364.596 Y482.708 
X364.563 Y482.76 
X364.538 Y482.814 
X364.519 Y482.875 
X364.506 Y482.938 
X364.503 Y483 
X364.506 Y483.061 
X364.519 Y483.124 
X364.538 Y483.185 
X364.563 Y483.239 
X364.596 Y483.291 
X364.637 Y483.339 
X364.684 Y483.383 
X364.734 Y483.42 
X364.786 Y483.449 
X364.846 Y483.472 
X364.907 Y483.488 
X364.967 Y483.496 
X365.032 Y483.496 
X365.092 Y483.488 
X365.153 Y483.472 
X365.213 Y483.449 
X365.265 Y483.42 
X365.315 Y483.383 
X365.362 Y483.339 
X365.403 Y483.291 
X365.436 Y483.239 
X365.461 Y483.185 
X365.48 Y483.124 
X365.493 Y483.061 
X365.496 Y483 
X365.493 Y482.938 
X365.48 Y482.875 
X365.461 Y482.814 
X365.436 Y482.76 
X365.403 Y482.708 
X365.362 Y482.66 
X365.315 Y482.616 
X365.265 Y482.579 
X365.213 Y482.55 
X365.153 Y482.527 
X365.092 Y482.511 
X365.032 Y482.504 
X364.874 Y482.504 
G03 X364.606 Y482.479 I0 J-1.5 
G01 X34.734 Y422.579 
X34.684 Y422.616 
X34.637 Y422.66 
X34.597 Y422.708 
X34.564 Y422.759 
X34.538 Y422.816 
X34.518 Y422.876 
X34.506 Y422.937 
X34.502 Y423 
X34.506 Y423.062 
X34.518 Y423.123 
X34.538 Y423.183 
X34.564 Y423.24 
X34.597 Y423.291 
X34.637 Y423.339 
X34.684 Y423.383 
X34.734 Y423.42 
X34.787 Y423.449 
X34.846 Y423.472 
X34.907 Y423.488 
