(Created with emc2b post processor 2016/07/26 01:24)
(tool change to 3 mm Slot Cutter)
T1 M06 G43
G17 G90 G21
(Sketch 171)
G00 X184.576 Y390.914 S7000 M03
Z2
G01 Z-3 F100
X184.573 Y390.862 F150
X184.57 Y390.811 
X184.567 Y390.76 
X184.564 Y390.708 
X184.561 Y390.657 
X184.558 Y390.605 
X184.555 Y390.554 
X184.552 Y390.503 
X184.549 Y390.451 
X184.546 Y390.4 
X184.543 Y390.349 
X184.54 Y390.297 
X184.538 Y390.246 
X184.535 Y390.195 
X184.532 Y390.143 
X184.529 Y390.092 
X184.526 Y390.04 
X184.523 Y389.989 
X184.52 Y389.938 
X184.543 Y389.885 
X184.54 Y389.833 
X184.537 Y389.782 
X184.534 Y389.731 
X184.531 Y389.679 
X184.528 Y389.628 
X184.525 Y389.577 
X184.522 Y389.525 
X184.519 Y389.474 
X184.516 Y389.422 
X184.513 Y389.371 
X184.536 Y389.318 
X184.533 Y389.267 
X184.53 Y389.216 
X184.527 Y389.164 
X184.524 Y389.113 
X184.521 Y389.061 
X184.518 Y389.01 
X184.541 Y388.957 
X184.538 Y388.906 
X184.535 Y388.854 
X184.532 Y388.803 
X184.529 Y388.752 
X184.527 Y388.7 
X184.549 Y388.647 
X184.546 Y388.596 
X184.543 Y388.545 
X184.541 Y388.493 
X184.538 Y388.442 
X184.535 Y388.391 
X184.557 Y388.338 
X184.554 Y388.286 
X184.552 Y388.235 
X184.549 Y388.184 
X184.546 Y388.132 
X184.568 Y388.079 
X184.565 Y388.028 
X184.563 Y387.977 
X184.56 Y387.925 
X184.582 Y387.872 
X184.579 Y387.821 
X184.576 Y387.77 
X184.574 Y387.718 
X184.596 Y387.666 
X184.593 Y387.614 
X184.59 Y387.563 
X184.587 Y387.511 
X184.61 Y387.459 
X184.607 Y387.407 
X184.604 Y387.356 
X184.601 Y387.304 
X184.624 Y387.252 
X184.621 Y387.2 
X184.62 Y387.175 
X184.643 Y387.122 
X184.64 Y387.07 
X184.637 Y387.019 
X184.634 Y386.968 
X184.656 Y386.915 
X184.654 Y386.863 
X184.651 Y386.812 
X184.673 Y386.759 
X184.67 Y386.708 
X184.668 Y386.656 
X184.69 Y386.604 
X184.687 Y386.552 
X184.684 Y386.501 
X184.707 Y386.448 
X184.704 Y386.397 
X184.701 Y386.345 
X184.724 Y386.292 
X184.721 Y386.241 
X184.718 Y386.19 
X184.741 Y386.137 
X184.738 Y386.085 
X184.761 Y386.033 
X184.758 Y385.981 
X184.755 Y385.93 
X184.778 Y385.877 
X184.775 Y385.826 
X184.772 Y385.774 
X184.795 Y385.721 
X184.792 Y385.67 
X184.814 Y385.617 
X184.811 Y385.566 
X184.81 Y385.54 
X184.833 Y385.487 
X184.83 Y385.436 
X184.852 Y385.383 
X184.85 Y385.332 
X184.872 Y385.279 
X184.869 Y385.228 
X184.866 Y385.176 
X184.889 Y385.123 
X184.886 Y385.072 
X184.909 Y385.019 
X184.906 Y384.968 
X184.929 Y384.915 
X184.926 Y384.864 
X184.949 Y384.811 
X184.946 Y384.759 
X184.968 Y384.706 
X184.966 Y384.655 
X184.988 Y384.602 
X184.987 Y384.577 
X185.01 Y384.524 
X185.007 Y384.472 
X185.029 Y384.42 
X185.026 Y384.368 
X185.049 Y384.315 
X185.046 Y384.264 
X185.069 Y384.211 
X185.066 Y384.16 
X185.089 Y384.107 
X185.086 Y384.056 
X185.109 Y384.003 
X185.106 Y383.951 
X185.128 Y383.898 
X185.126 Y383.847 
X185.15 Y383.82 
X185.147 Y383.769 
X185.17 Y383.716 
X185.192 Y383.663 
X185.189 Y383.612 
X185.212 Y383.559 
X185.209 Y383.507 
X185.232 Y383.454 
X185.229 Y383.403 
X185.252 Y383.35 
X185.25 Y383.325 
G00 Z5
X184.576 Y390.914
Z-3
G01 Z-6 F100
X184.573 Y390.862 F150
X184.57 Y390.811 
X184.567 Y390.76 
X184.564 Y390.708 
X184.561 Y390.657 
X184.558 Y390.605 
X184.555 Y390.554 
X184.552 Y390.503 
X184.549 Y390.451 
X184.546 Y390.4 
X184.543 Y390.349 
X184.54 Y390.297 
X184.538 Y390.246 
X184.535 Y390.195 
X184.532 Y390.143 
X184.529 Y390.092 
X184.526 Y390.04 
X184.523 Y389.989 
X184.52 Y389.938 
X184.543 Y389.885 
X184.54 Y389.833 
X184.537 Y389.782 
X184.534 Y389.731 
X184.531 Y389.679 
X184.528 Y389.628 
X184.525 Y389.577 
X184.522 Y389.525 
X184.519 Y389.474 
X184.516 Y389.422 
X184.513 Y389.371 
X184.536 Y389.318 
X184.533 Y389.267 
X184.53 Y389.216 
X184.527 Y389.164 
X184.524 Y389.113 
X184.521 Y389.061 
X184.518 Y389.01 
X184.541 Y388.957 
X184.538 Y388.906 
X184.535 Y388.854 
X184.532 Y388.803 
X184.529 Y388.752 
X184.527 Y388.7 
X184.549 Y388.647 
X184.546 Y388.596 
X184.543 Y388.545 
X184.541 Y388.493 
X184.538 Y388.442 
X184.535 Y388.391 
X184.557 Y388.338 
X184.554 Y388.286 
X184.552 Y388.235 
X184.549 Y388.184 
X184.546 Y388.132 
X184.568 Y388.079 
X184.565 Y388.028 
X184.563 Y387.977 
X184.56 Y387.925 
X184.582 Y387.872 
X184.579 Y387.821 
X184.576 Y387.77 
X184.574 Y387.718 
X184.596 Y387.666 
X184.593 Y387.614 
X184.59 Y387.563 
X184.587 Y387.511 
X184.61 Y387.459 
X184.607 Y387.407 
X184.604 Y387.356 
X184.601 Y387.304 
X184.624 Y387.252 
X184.621 Y387.2 
X184.62 Y387.175 
X184.643 Y387.122 
X184.64 Y387.07 
X184.637 Y387.019 
X184.634 Y386.968 
X184.656 Y386.915 
X184.654 Y386.863 
X184.651 Y386.812 
X184.673 Y386.759 
X184.67 Y386.708 
X184.668 Y386.656 
X184.69 Y386.604 
X184.687 Y386.552 
X184.684 Y386.501 
X184.707 Y386.448 
X184.704 Y386.397 
X184.701 Y386.345 
X184.724 Y386.292 
X184.721 Y386.241 
X184.718 Y386.19 
X184.741 Y386.137 
X184.738 Y386.085 
X184.761 Y386.033 
X184.758 Y385.981 
X184.755 Y385.93 
X184.778 Y385.877 
X184.775 Y385.826 
X184.772 Y385.774 
X184.795 Y385.721 
X184.792 Y385.67 
X184.814 Y385.617 
X184.811 Y385.566 
X184.81 Y385.54 
X184.833 Y385.487 
X184.83 Y385.436 
X184.852 Y385.383 
X184.85 Y385.332 
X184.872 Y385.279 
X184.869 Y385.228 
X184.866 Y385.176 
X184.889 Y385.123 
X184.886 Y385.072 
X184.909 Y385.019 
X184.906 Y384.968 
X184.929 Y384.915 
X184.926 Y384.864 
X184.949 Y384.811 
X184.946 Y384.759 
X184.968 Y384.706 
X184.966 Y384.655 
X184.988 Y384.602 
X184.987 Y384.577 
X185.01 Y384.524 
X185.007 Y384.472 
X185.029 Y384.42 
X185.026 Y384.368 
X185.049 Y384.315 
X185.046 Y384.264 
X185.069 Y384.211 
X185.066 Y384.16 
X185.089 Y384.107 
X185.086 Y384.056 
X185.109 Y384.003 
X185.106 Y383.951 
X185.128 Y383.898 
X185.126 Y383.847 
X185.15 Y383.82 
X185.147 Y383.769 
X185.17 Y383.716 
X185.192 Y383.663 
X185.189 Y383.612 
X185.212 Y383.559 
X185.209 Y383.507 
X185.232 Y383.454 
X185.229 Y383.403 
X185.252 Y383.35 
X185.25 Y383.325 
G00 Z5
X184.576 Y390.914
Z-6
G01 Z-9 F100
X184.573 Y390.862 F150
X184.57 Y390.811 
X184.567 Y390.76 
X184.564 Y390.708 
X184.561 Y390.657 
X184.558 Y390.605 
X184.555 Y390.554 
X184.552 Y390.503 
X184.549 Y390.451 
X184.546 Y390.4 
X184.543 Y390.349 
X184.54 Y390.297 
X184.538 Y390.246 
X184.535 Y390.195 
X184.532 Y390.143 
X184.529 Y390.092 
X184.526 Y390.04 
X184.523 Y389.989 
X184.52 Y389.938 
X184.543 Y389.885 
X184.54 Y389.833 
X184.537 Y389.782 
X184.534 Y389.731 
X184.531 Y389.679 
X184.528 Y389.628 
X184.525 Y389.577 
X184.522 Y389.525 
X184.519 Y389.474 
X184.516 Y389.422 
X184.513 Y389.371 
X184.536 Y389.318 
X184.533 Y389.267 
X184.53 Y389.216 
X184.527 Y389.164 
X184.524 Y389.113 
X184.521 Y389.061 
X184.518 Y389.01 
X184.541 Y388.957 
X184.538 Y388.906 
X184.535 Y388.854 
X184.532 Y388.803 
X184.529 Y388.752 
X184.527 Y388.7 
X184.549 Y388.647 
X184.546 Y388.596 
X184.543 Y388.545 
X184.541 Y388.493 
X184.538 Y388.442 
X184.535 Y388.391 
X184.557 Y388.338 
X184.554 Y388.286 
X184.552 Y388.235 
X184.549 Y388.184 
X184.546 Y388.132 
X184.568 Y388.079 
X184.565 Y388.028 
X184.563 Y387.977 
X184.56 Y387.925 
X184.582 Y387.872 
X184.579 Y387.821 
X184.576 Y387.77 
X184.574 Y387.718 
X184.596 Y387.666 
X184.593 Y387.614 
X184.59 Y387.563 
X184.587 Y387.511 
X184.61 Y387.459 
X184.607 Y387.407 
X184.604 Y387.356 
X184.601 Y387.304 
X184.624 Y387.252 
X184.621 Y387.2 
X184.62 Y387.175 
X184.643 Y387.122 
X184.64 Y387.07 
X184.637 Y387.019 
X184.634 Y386.968 
X184.656 Y386.915 
X184.654 Y386.863 
X184.651 Y386.812 
X184.673 Y386.759 
X184.67 Y386.708 
X184.668 Y386.656 
X184.69 Y386.604 
X184.687 Y386.552 
X184.684 Y386.501 
X184.707 Y386.448 
X184.704 Y386.397 
X184.701 Y386.345 
X184.724 Y386.292 
X184.721 Y386.241 
X184.718 Y386.19 
X184.741 Y386.137 
X184.738 Y386.085 
X184.761 Y386.033 
X184.758 Y385.981 
X184.755 Y385.93 
X184.778 Y385.877 
X184.775 Y385.826 
X184.772 Y385.774 
X184.795 Y385.721 
X184.792 Y385.67 
X184.814 Y385.617 
X184.811 Y385.566 
X184.81 Y385.54 
X184.833 Y385.487 
X184.83 Y385.436 
X184.852 Y385.383 
X184.85 Y385.332 
X184.872 Y385.279 
X184.869 Y385.228 
X184.866 Y385.176 
X184.889 Y385.123 
X184.886 Y385.072 
X184.909 Y385.019 
X184.906 Y384.968 
X184.929 Y384.915 
X184.926 Y384.864 
X184.949 Y384.811 
X184.946 Y384.759 
X184.968 Y384.706 
X184.966 Y384.655 
X184.988 Y384.602 
X184.987 Y384.577 
X185.01 Y384.524 
X185.007 Y384.472 
X185.029 Y384.42 
X185.026 Y384.368 
X185.049 Y384.315 
X185.046 Y384.264 
X185.069 Y384.211 
X185.066 Y384.16 
X185.089 Y384.107 
X185.086 Y384.056 
X185.109 Y384.003 
X185.106 Y383.951 
X185.128 Y383.898 
X185.126 Y383.847 
X185.15 Y383.82 
X185.147 Y383.769 
X185.17 Y383.716 
X185.192 Y383.663 
X185.189 Y383.612 
X185.212 Y383.559 
X185.209 Y383.507 
X185.232 Y383.454 
X185.229 Y383.403 
X185.252 Y383.35 
X185.25 Y383.325 
G00 Z5
X184.576 Y390.914
Z-9
G01 Z-12 F100
X184.573 Y390.862 F150
X184.57 Y390.811 
X184.567 Y390.76 
X184.564 Y390.708 
X184.561 Y390.657 
X184.558 Y390.605 
X184.555 Y390.554 
X184.552 Y390.503 
X184.549 Y390.451 
X184.546 Y390.4 
X184.543 Y390.349 
X184.54 Y390.297 
X184.538 Y390.246 
X184.535 Y390.195 
X184.532 Y390.143 
X184.529 Y390.092 
X184.526 Y390.04 
X184.523 Y389.989 
X184.52 Y389.938 
X184.543 Y389.885 
X184.54 Y389.833 
X184.537 Y389.782 
X184.534 Y389.731 
X184.531 Y389.679 
X184.528 Y389.628 
X184.525 Y389.577 
X184.522 Y389.525 
X184.519 Y389.474 
X184.516 Y389.422 
X184.513 Y389.371 
X184.536 Y389.318 
X184.533 Y389.267 
X184.53 Y389.216 
X184.527 Y389.164 
X184.524 Y389.113 
X184.521 Y389.061 
X184.518 Y389.01 
X184.541 Y388.957 
X184.538 Y388.906 
X184.535 Y388.854 
X184.532 Y388.803 
X184.529 Y388.752 
X184.527 Y388.7 
X184.549 Y388.647 
X184.546 Y388.596 
X184.543 Y388.545 
X184.541 Y388.493 
X184.538 Y388.442 
X184.535 Y388.391 
X184.557 Y388.338 
X184.554 Y388.286 
X184.552 Y388.235 
X184.549 Y388.184 
X184.546 Y388.132 
X184.568 Y388.079 
X184.565 Y388.028 
X184.563 Y387.977 
X184.56 Y387.925 
X184.582 Y387.872 
X184.579 Y387.821 
X184.576 Y387.77 
X184.574 Y387.718 
X184.596 Y387.666 
X184.593 Y387.614 
X184.59 Y387.563 
X184.587 Y387.511 
X184.61 Y387.459 
X184.607 Y387.407 
X184.604 Y387.356 
X184.601 Y387.304 
X184.624 Y387.252 
X184.621 Y387.2 
X184.62 Y387.175 
X184.643 Y387.122 
X184.64 Y387.07 
X184.637 Y387.019 
X184.634 Y386.968 
X184.656 Y386.915 
X184.654 Y386.863 
X184.651 Y386.812 
X184.673 Y386.759 
X184.67 Y386.708 
X184.668 Y386.656 
X184.69 Y386.604 
X184.687 Y386.552 
X184.684 Y386.501 
X184.707 Y386.448 
X184.704 Y386.397 
X184.701 Y386.345 
X184.724 Y386.292 
X184.721 Y386.241 
X184.718 Y386.19 
X184.741 Y386.137 
X184.738 Y386.085 
X184.761 Y386.033 
X184.758 Y385.981 
X184.755 Y385.93 
X184.778 Y385.877 
X184.775 Y385.826 
X184.772 Y385.774 
X184.795 Y385.721 
X184.792 Y385.67 
X184.814 Y385.617 
X184.811 Y385.566 
X184.81 Y385.54 
X184.833 Y385.487 
X184.83 Y385.436 
X184.852 Y385.383 
X184.85 Y385.332 
X184.872 Y385.279 
X184.869 Y385.228 
X184.866 Y385.176 
X184.889 Y385.123 
X184.886 Y385.072 
X184.909 Y385.019 
X184.906 Y384.968 
X184.929 Y384.915 
X184.926 Y384.864 
X184.949 Y384.811 
X184.946 Y384.759 
X184.968 Y384.706 
X184.966 Y384.655 
X184.988 Y384.602 
X184.987 Y384.577 
X185.01 Y384.524 
X185.007 Y384.472 
X185.029 Y384.42 
X185.026 Y384.368 
X185.049 Y384.315 
X185.046 Y384.264 
X185.069 Y384.211 
X185.066 Y384.16 
X185.089 Y384.107 
X185.086 Y384.056 
X185.109 Y384.003 
X185.106 Y383.951 
X185.128 Y383.898 
X185.126 Y383.847 
X185.15 Y383.82 
X185.147 Y383.769 
X185.17 Y383.716 
X185.192 Y383.663 
X185.189 Y383.612 
X185.212 Y383.559 
X185.209 Y383.507 
X185.232 Y383.454 
X185.229 Y383.403 
X185.252 Y383.35 
X185.25 Y383.325 
G00 Z5
X184.576 Y390.914
Z-12
G01 Z-15 F100
X184.573 Y390.862 F150
X184.57 Y390.811 
X184.567 Y390.76 
X184.564 Y390.708 
X184.561 Y390.657 
X184.558 Y390.605 
X184.555 Y390.554 
X184.552 Y390.503 
X184.549 Y390.451 
X184.546 Y390.4 
X184.543 Y390.349 
X184.54 Y390.297 
X184.538 Y390.246 
X184.535 Y390.195 
X184.532 Y390.143 
X184.529 Y390.092 
X184.526 Y390.04 
X184.523 Y389.989 
X184.52 Y389.938 
X184.543 Y389.885 
X184.54 Y389.833 
X184.537 Y389.782 
X184.534 Y389.731 
X184.531 Y389.679 
X184.528 Y389.628 
X184.525 Y389.577 
X184.522 Y389.525 
X184.519 Y389.474 
X184.516 Y389.422 
X184.513 Y389.371 
X184.536 Y389.318 
X184.533 Y389.267 
X184.53 Y389.216 
X184.527 Y389.164 
X184.524 Y389.113 
X184.521 Y389.061 
X184.518 Y389.01 
X184.541 Y388.957 
X184.538 Y388.906 
X184.535 Y388.854 
X184.532 Y388.803 
X184.529 Y388.752 
X184.527 Y388.7 
X184.549 Y388.647 
X184.546 Y388.596 
X184.543 Y388.545 
X184.541 Y388.493 
X184.538 Y388.442 
X184.535 Y388.391 
X184.557 Y388.338 
X184.554 Y388.286 
X184.552 Y388.235 
X184.549 Y388.184 
X184.546 Y388.132 
X184.568 Y388.079 
X184.565 Y388.028 
X184.563 Y387.977 
X184.56 Y387.925 
X184.582 Y387.872 
X184.579 Y387.821 
X184.576 Y387.77 
X184.574 Y387.718 
X184.596 Y387.666 
X184.593 Y387.614 
X184.59 Y387.563 
X184.587 Y387.511 
X184.61 Y387.459 
X184.607 Y387.407 
X184.604 Y387.356 
X184.601 Y387.304 
X184.624 Y387.252 
X184.621 Y387.2 
X184.62 Y387.175 
X184.643 Y387.122 
X184.64 Y387.07 
X184.637 Y387.019 
X184.634 Y386.968 
X184.656 Y386.915 
X184.654 Y386.863 
X184.651 Y386.812 
X184.673 Y386.759 
X184.67 Y386.708 
X184.668 Y386.656 
X184.69 Y386.604 
X184.687 Y386.552 
X184.684 Y386.501 
X184.707 Y386.448 
X184.704 Y386.397 
X184.701 Y386.345 
X184.724 Y386.292 
X184.721 Y386.241 
X184.718 Y386.19 
X184.741 Y386.137 
X184.738 Y386.085 
X184.761 Y386.033 
X184.758 Y385.981 
X184.755 Y385.93 
X184.778 Y385.877 
X184.775 Y385.826 
X184.772 Y385.774 
X184.795 Y385.721 
X184.792 Y385.67 
X184.814 Y385.617 
X184.811 Y385.566 
X184.81 Y385.54 
X184.833 Y385.487 
X184.83 Y385.436 
X184.852 Y385.383 
X184.85 Y385.332 
X184.872 Y385.279 
X184.869 Y385.228 
X184.866 Y385.176 
X184.889 Y385.123 
X184.886 Y385.072 
X184.909 Y385.019 
X184.906 Y384.968 
X184.929 Y384.915 
X184.926 Y384.864 
X184.949 Y384.811 
X184.946 Y384.759 
X184.968 Y384.706 
X184.966 Y384.655 
X184.988 Y384.602 
X184.987 Y384.577 
X185.01 Y384.524 
X185.007 Y384.472 
X185.029 Y384.42 
X185.026 Y384.368 
X185.049 Y384.315 
X185.046 Y384.264 
X185.069 Y384.211 
X185.066 Y384.16 
X185.089 Y384.107 
X185.086 Y384.056 
X185.109 Y384.003 
X185.106 Y383.951 
X185.128 Y383.898 
X185.126 Y383.847 
X185.15 Y383.82 
X185.147 Y383.769 
X185.17 Y383.716 
X185.192 Y383.663 
X185.189 Y383.612 
X185.212 Y383.559 
X185.209 Y383.507 
X185.232 Y383.454 
X185.229 Y383.403 
X185.252 Y383.35 
X185.25 Y383.325 
G00 Z5
X184.576 Y390.914
Z-15
G01 Z-18 F100
X184.573 Y390.862 F150
X184.57 Y390.811 
X184.567 Y390.76 
X184.564 Y390.708 
X184.561 Y390.657 
X184.558 Y390.605 
X184.555 Y390.554 
X184.552 Y390.503 
X184.549 Y390.451 
X184.546 Y390.4 
X184.543 Y390.349 
X184.54 Y390.297 
X184.538 Y390.246 
X184.535 Y390.195 
X184.532 Y390.143 
X184.529 Y390.092 
X184.526 Y390.04 
X184.523 Y389.989 
X184.52 Y389.938 
X184.543 Y389.885 
X184.54 Y389.833 
X184.537 Y389.782 
X184.534 Y389.731 
X184.531 Y389.679 
X184.528 Y389.628 
X184.525 Y389.577 
X184.522 Y389.525 
X184.519 Y389.474 
X184.516 Y389.422 
X184.513 Y389.371 
X184.536 Y389.318 
X184.533 Y389.267 
X184.53 Y389.216 
X184.527 Y389.164 
X184.524 Y389.113 
X184.521 Y389.061 
X184.518 Y389.01 
X184.541 Y388.957 
X184.538 Y388.906 
X184.535 Y388.854 
X184.532 Y388.803 
X184.529 Y388.752 
X184.527 Y388.7 
X184.549 Y388.647 
X184.546 Y388.596 
X184.543 Y388.545 
X184.541 Y388.493 
X184.538 Y388.442 
X184.535 Y388.391 
X184.557 Y388.338 
X184.554 Y388.286 
X184.552 Y388.235 
X184.549 Y388.184 
X184.546 Y388.132 
X184.568 Y388.079 
X184.565 Y388.028 
X184.563 Y387.977 
X184.56 Y387.925 
X184.582 Y387.872 
X184.579 Y387.821 
X184.576 Y387.77 
X184.574 Y387.718 
X184.596 Y387.666 
X184.593 Y387.614 
X184.59 Y387.563 
X184.587 Y387.511 
X184.61 Y387.459 
X184.607 Y387.407 
X184.604 Y387.356 
X184.601 Y387.304 
X184.624 Y387.252 
X184.621 Y387.2 
X184.62 Y387.175 
X184.643 Y387.122 
X184.64 Y387.07 
X184.637 Y387.019 
X184.634 Y386.968 
X184.656 Y386.915 
X184.654 Y386.863 
X184.651 Y386.812 
X184.673 Y386.759 
X184.67 Y386.708 
X184.668 Y386.656 
X184.69 Y386.604 
X184.687 Y386.552 
X184.684 Y386.501 
X184.707 Y386.448 
X184.704 Y386.397 
X184.701 Y386.345 
X184.724 Y386.292 
X184.721 Y386.241 
X184.718 Y386.19 
X184.741 Y386.137 
X184.738 Y386.085 
X184.761 Y386.033 
X184.758 Y385.981 
X184.755 Y385.93 
X184.778 Y385.877 
X184.775 Y385.826 
X184.772 Y385.774 
X184.795 Y385.721 
X184.792 Y385.67 
X184.814 Y385.617 
X184.811 Y385.566 
X184.81 Y385.54 
X184.833 Y385.487 
X184.83 Y385.436 
X184.852 Y385.383 
X184.85 Y385.332 
X184.872 Y385.279 
X184.869 Y385.228 
X184.866 Y385.176 
X184.889 Y385.123 
X184.886 Y385.072 
X184.909 Y385.019 
X184.906 Y384.968 
X184.929 Y384.915 
X184.926 Y384.864 
X184.949 Y384.811 
X184.946 Y384.759 
X184.968 Y384.706 
X184.966 Y384.655 
X184.988 Y384.602 
X184.987 Y384.577 
X185.01 Y384.524 
X185.007 Y384.472 
X185.029 Y384.42 
X185.026 Y384.368 
X185.049 Y384.315 
X185.046 Y384.264 
X185.069 Y384.211 
X185.066 Y384.16 
X185.089 Y384.107 
X185.086 Y384.056 
X185.109 Y384.003 
X185.106 Y383.951 
X185.128 Y383.898 
X185.126 Y383.847 
X185.15 Y383.82 
X185.147 Y383.769 
X185.17 Y383.716 
X185.192 Y383.663 
X185.189 Y383.612 
X185.212 Y383.559 
X185.209 Y383.507 
X185.232 Y383.454 
X185.229 Y383.403 
X185.252 Y383.35 
X185.25 Y383.325 
G00 Z5
G90
(Sketch 172)
X184.231 Y358.975 S7000 M03
Z2
G01 Z-3 F100
X184.264 Y358.935 F150
X184.296 Y358.895 
X184.328 Y358.855 
X184.36 Y358.815 
X184.393 Y358.775 
X184.425 Y358.735 
X184.457 Y358.695 
X184.489 Y358.654 
X184.522 Y358.614 
X184.554 Y358.574 
X184.586 Y358.534 
X184.618 Y358.494 
X184.651 Y358.454 
X184.683 Y358.414 
X184.715 Y358.374 
X184.747 Y358.334 
X184.78 Y358.294 
X184.812 Y358.254 
X184.844 Y358.213 
X184.897 Y358.189 
X184.929 Y358.149 
X184.961 Y358.109 
X184.993 Y358.069 
X185.026 Y358.029 
X185.058 Y357.989 
X185.09 Y357.949 
X185.122 Y357.909 
X185.155 Y357.869 
X185.187 Y357.829 
X185.219 Y357.789 
X185.271 Y357.765 
X185.304 Y357.724 
X185.336 Y357.684 
X185.368 Y357.644 
X185.4 Y357.604 
X185.433 Y357.564 
X185.465 Y357.524 
X185.517 Y357.5 
X185.549 Y357.46 
X185.582 Y357.42 
X185.614 Y357.38 
X185.646 Y357.34 
X185.678 Y357.3 
X185.731 Y357.276 
X185.763 Y357.236 
X185.795 Y357.195 
X185.828 Y357.155 
X185.86 Y357.115 
X185.892 Y357.075 
X185.944 Y357.051 
X185.977 Y357.011 
X186.009 Y356.971 
X186.041 Y356.931 
X186.073 Y356.891 
X186.126 Y356.867 
X186.158 Y356.827 
X186.19 Y356.787 
X186.222 Y356.747 
X186.275 Y356.723 
X186.307 Y356.683 
X186.339 Y356.642 
X186.371 Y356.602 
X186.424 Y356.578 
X186.456 Y356.538 
X186.488 Y356.498 
X186.521 Y356.458 
X186.573 Y356.434 
X186.605 Y356.394 
X186.637 Y356.354 
X186.67 Y356.314 
X186.722 Y356.29 
X186.754 Y356.25 
X186.77 Y356.23 
X186.823 Y356.206 
X186.855 Y356.166 
X186.887 Y356.126 
X186.919 Y356.086 
X186.972 Y356.062 
X187.004 Y356.021 
X187.036 Y355.981 
X187.088 Y355.957 
X187.121 Y355.917 
X187.153 Y355.877 
X187.205 Y355.853 
X187.238 Y355.813 
X187.27 Y355.773 
X187.322 Y355.749 
X187.354 Y355.709 
X187.387 Y355.669 
X187.439 Y355.645 
X187.471 Y355.605 
X187.503 Y355.565 
X187.556 Y355.541 
X187.588 Y355.501 
X187.64 Y355.477 
X187.673 Y355.437 
X187.705 Y355.397 
X187.757 Y355.373 
X187.789 Y355.332 
X187.822 Y355.292 
X187.874 Y355.268 
X187.906 Y355.228 
X187.958 Y355.204 
X187.991 Y355.164 
X188.007 Y355.144 
X188.059 Y355.12 
X188.091 Y355.08 
X188.144 Y355.056 
X188.176 Y355.016 
X188.228 Y354.992 
X188.26 Y354.952 
X188.293 Y354.912 
X188.345 Y354.888 
X188.377 Y354.848 
X188.43 Y354.824 
X188.462 Y354.784 
X188.514 Y354.76 
X188.546 Y354.72 
X188.599 Y354.696 
X188.631 Y354.656 
X188.683 Y354.632 
X188.716 Y354.592 
X188.768 Y354.568 
X188.784 Y354.548 
X188.836 Y354.524 
X188.868 Y354.484 
X188.921 Y354.46 
X188.953 Y354.42 
X189.005 Y354.396 
X189.038 Y354.356 
X189.09 Y354.332 
X189.122 Y354.291 
X189.174 Y354.267 
X189.207 Y354.227 
X189.259 Y354.203 
X189.291 Y354.163 
X189.344 Y354.139 
X189.376 Y354.099 
X189.412 Y354.095 
X189.444 Y354.055 
X189.497 Y354.031 
X189.549 Y354.007 
X189.581 Y353.967 
X189.633 Y353.943 
X189.666 Y353.903 
X189.718 Y353.879 
X189.75 Y353.839 
X189.803 Y353.815 
X189.819 Y353.795 
G00 Z5
X184.231 Y358.975
Z-3
G01 Z-6 F100
X184.264 Y358.935 F150
X184.296 Y358.895 
X184.328 Y358.855 
X184.36 Y358.815 
X184.393 Y358.775 
X184.425 Y358.735 
X184.457 Y358.695 
X184.489 Y358.654 
X184.522 Y358.614 
X184.554 Y358.574 
X184.586 Y358.534 
X184.618 Y358.494 
X184.651 Y358.454 
X184.683 Y358.414 
X184.715 Y358.374 
X184.747 Y358.334 
X184.78 Y358.294 
X184.812 Y358.254 
X184.844 Y358.213 
X184.897 Y358.189 
X184.929 Y358.149 
X184.961 Y358.109 
X184.993 Y358.069 
X185.026 Y358.029 
X185.058 Y357.989 
X185.09 Y357.949 
X185.122 Y357.909 
X185.155 Y357.869 
X185.187 Y357.829 
X185.219 Y357.789 
X185.271 Y357.765 
X185.304 Y357.724 
X185.336 Y357.684 
X185.368 Y357.644 
X185.4 Y357.604 
X185.433 Y357.564 
X185.465 Y357.524 
X185.517 Y357.5 
X185.549 Y357.46 
X185.582 Y357.42 
X185.614 Y357.38 
X185.646 Y357.34 
X185.678 Y357.3 
X185.731 Y357.276 
X185.763 Y357.236 
X185.795 Y357.195 
X185.828 Y357.155 
X185.86 Y357.115 
X185.892 Y357.075 
X185.944 Y357.051 
X185.977 Y357.011 
X186.009 Y356.971 
X186.041 Y356.931 
X186.073 Y356.891 
X186.126 Y356.867 
X186.158 Y356.827 
X186.19 Y356.787 
X186.222 Y356.747 
X186.275 Y356.723 
X186.307 Y356.683 
X186.339 Y356.642 
X186.371 Y356.602 
X186.424 Y356.578 
X186.456 Y356.538 
X186.488 Y356.498 
X186.521 Y356.458 
X186.573 Y356.434 
X186.605 Y356.394 
X186.637 Y356.354 
X186.67 Y356.314 
X186.722 Y356.29 
X186.754 Y356.25 
X186.77 Y356.23 
X186.823 Y356.206 
X186.855 Y356.166 
X186.887 Y356.126 
X186.919 Y356.086 
X186.972 Y356.062 
X187.004 Y356.021 
X187.036 Y355.981 
X187.088 Y355.957 
X187.121 Y355.917 
X187.153 Y355.877 
X187.205 Y355.853 
X187.238 Y355.813 
X187.27 Y355.773 
X187.322 Y355.749 
X187.354 Y355.709 
X187.387 Y355.669 
X187.439 Y355.645 
X187.471 Y355.605 
X187.503 Y355.565 
X187.556 Y355.541 
X187.588 Y355.501 
X187.64 Y355.477 
X187.673 Y355.437 
X187.705 Y355.397 
X187.757 Y355.373 
X187.789 Y355.332 
X187.822 Y355.292 
X187.874 Y355.268 
X187.906 Y355.228 
X187.958 Y355.204 
X187.991 Y355.164 
X188.007 Y355.144 
X188.059 Y355.12 
X188.091 Y355.08 
X188.144 Y355.056 
X188.176 Y355.016 
X188.228 Y354.992 
X188.26 Y354.952 
X188.293 Y354.912 
X188.345 Y354.888 
X188.377 Y354.848 
X188.43 Y354.824 
X188.462 Y354.784 
X188.514 Y354.76 
X188.546 Y354.72 
X188.599 Y354.696 
X188.631 Y354.656 
X188.683 Y354.632 
X188.716 Y354.592 
X188.768 Y354.568 
X188.784 Y354.548 
X188.836 Y354.524 
X188.868 Y354.484 
X188.921 Y354.46 
X188.953 Y354.42 
X189.005 Y354.396 
X189.038 Y354.356 
X189.09 Y354.332 
X189.122 Y354.291 
X189.174 Y354.267 
X189.207 Y354.227 
X189.259 Y354.203 
X189.291 Y354.163 
X189.344 Y354.139 
X189.376 Y354.099 
X189.412 Y354.095 
X189.444 Y354.055 
X189.497 Y354.031 
X189.549 Y354.007 
X189.581 Y353.967 
X189.633 Y353.943 
X189.666 Y353.903 
X189.718 Y353.879 
X189.75 Y353.839 
X189.803 Y353.815 
X189.819 Y353.795 
G00 Z5
X184.231 Y358.975
Z-6
G01 Z-9 F100
X184.264 Y358.935 F150
X184.296 Y358.895 
X184.328 Y358.855 
X184.36 Y358.815 
X184.393 Y358.775 
X184.425 Y358.735 
X184.457 Y358.695 
X184.489 Y358.654 
X184.522 Y358.614 
X184.554 Y358.574 
X184.586 Y358.534 
X184.618 Y358.494 
X184.651 Y358.454 
X184.683 Y358.414 
X184.715 Y358.374 
X184.747 Y358.334 
X184.78 Y358.294 
X184.812 Y358.254 
X184.844 Y358.213 
X184.897 Y358.189 
X184.929 Y358.149 
X184.961 Y358.109 
X184.993 Y358.069 
X185.026 Y358.029 
X185.058 Y357.989 
X185.09 Y357.949 
X185.122 Y357.909 
X185.155 Y357.869 
X185.187 Y357.829 
X185.219 Y357.789 
X185.271 Y357.765 
X185.304 Y357.724 
X185.336 Y357.684 
X185.368 Y357.644 
X185.4 Y357.604 
X185.433 Y357.564 
X185.465 Y357.524 
X185.517 Y357.5 
X185.549 Y357.46 
X185.582 Y357.42 
X185.614 Y357.38 
X185.646 Y357.34 
X185.678 Y357.3 
X185.731 Y357.276 
X185.763 Y357.236 
X185.795 Y357.195 
X185.828 Y357.155 
X185.86 Y357.115 
X185.892 Y357.075 
X185.944 Y357.051 
X185.977 Y357.011 
X186.009 Y356.971 
X186.041 Y356.931 
X186.073 Y356.891 
X186.126 Y356.867 
X186.158 Y356.827 
X186.19 Y356.787 
X186.222 Y356.747 
X186.275 Y356.723 
X186.307 Y356.683 
X186.339 Y356.642 
X186.371 Y356.602 
X186.424 Y356.578 
X186.456 Y356.538 
X186.488 Y356.498 
X186.521 Y356.458 
X186.573 Y356.434 
X186.605 Y356.394 
X186.637 Y356.354 
X186.67 Y356.314 
X186.722 Y356.29 
X186.754 Y356.25 
X186.77 Y356.23 
X186.823 Y356.206 
X186.855 Y356.166 
X186.887 Y356.126 
X186.919 Y356.086 
X186.972 Y356.062 
X187.004 Y356.021 
X187.036 Y355.981 
X187.088 Y355.957 
X187.121 Y355.917 
X187.153 Y355.877 
X187.205 Y355.853 
X187.238 Y355.813 
X187.27 Y355.773 
X187.322 Y355.749 
X187.354 Y355.709 
X187.387 Y355.669 
X187.439 Y355.645 
X187.471 Y355.605 
X187.503 Y355.565 
X187.556 Y355.541 
X187.588 Y355.501 
X187.64 Y355.477 
X187.673 Y355.437 
X187.705 Y355.397 
X187.757 Y355.373 
X187.789 Y355.332 
X187.822 Y355.292 
X187.874 Y355.268 
X187.906 Y355.228 
X187.958 Y355.204 
X187.991 Y355.164 
X188.007 Y355.144 
X188.059 Y355.12 
X188.091 Y355.08 
X188.144 Y355.056 
X188.176 Y355.016 
X188.228 Y354.992 
X188.26 Y354.952 
X188.293 Y354.912 
X188.345 Y354.888 
X188.377 Y354.848 
X188.43 Y354.824 
X188.462 Y354.784 
X188.514 Y354.76 
X188.546 Y354.72 
X188.599 Y354.696 
X188.631 Y354.656 
X188.683 Y354.632 
X188.716 Y354.592 
X188.768 Y354.568 
X188.784 Y354.548 
X188.836 Y354.524 
X188.868 Y354.484 
X188.921 Y354.46 
X188.953 Y354.42 
X189.005 Y354.396 
X189.038 Y354.356 
X189.09 Y354.332 
X189.122 Y354.291 
X189.174 Y354.267 
X189.207 Y354.227 
X189.259 Y354.203 
X189.291 Y354.163 
X189.344 Y354.139 
X189.376 Y354.099 
X189.412 Y354.095 
X189.444 Y354.055 
X189.497 Y354.031 
X189.549 Y354.007 
X189.581 Y353.967 
X189.633 Y353.943 
X189.666 Y353.903 
X189.718 Y353.879 
X189.75 Y353.839 
X189.803 Y353.815 
X189.819 Y353.795 
G00 Z5
X184.231 Y358.975
Z-9
G01 Z-12 F100
X184.264 Y358.935 F150
X184.296 Y358.895 
X184.328 Y358.855 
X184.36 Y358.815 
X184.393 Y358.775 
X184.425 Y358.735 
X184.457 Y358.695 
X184.489 Y358.654 
X184.522 Y358.614 
X184.554 Y358.574 
X184.586 Y358.534 
X184.618 Y358.494 
X184.651 Y358.454 
X184.683 Y358.414 
X184.715 Y358.374 
X184.747 Y358.334 
X184.78 Y358.294 
X184.812 Y358.254 
X184.844 Y358.213 
X184.897 Y358.189 
X184.929 Y358.149 
X184.961 Y358.109 
X184.993 Y358.069 
X185.026 Y358.029 
X185.058 Y357.989 
X185.09 Y357.949 
X185.122 Y357.909 
X185.155 Y357.869 
X185.187 Y357.829 
X185.219 Y357.789 
X185.271 Y357.765 
X185.304 Y357.724 
X185.336 Y357.684 
X185.368 Y357.644 
X185.4 Y357.604 
X185.433 Y357.564 
X185.465 Y357.524 
X185.517 Y357.5 
X185.549 Y357.46 
X185.582 Y357.42 
X185.614 Y357.38 
X185.646 Y357.34 
X185.678 Y357.3 
X185.731 Y357.276 
X185.763 Y357.236 
X185.795 Y357.195 
X185.828 Y357.155 
X185.86 Y357.115 
X185.892 Y357.075 
X185.944 Y357.051 
X185.977 Y357.011 
X186.009 Y356.971 
X186.041 Y356.931 
X186.073 Y356.891 
X186.126 Y356.867 
X186.158 Y356.827 
X186.19 Y356.787 
X186.222 Y356.747 
X186.275 Y356.723 
X186.307 Y356.683 
X186.339 Y356.642 
X186.371 Y356.602 
X186.424 Y356.578 
X186.456 Y356.538 
X186.488 Y356.498 
X186.521 Y356.458 
X186.573 Y356.434 
X186.605 Y356.394 
X186.637 Y356.354 
X186.67 Y356.314 
X186.722 Y356.29 
X186.754 Y356.25 
X186.77 Y356.23 
X186.823 Y356.206 
X186.855 Y356.166 
X186.887 Y356.126 
X186.919 Y356.086 
X186.972 Y356.062 
X187.004 Y356.021 
X187.036 Y355.981 
X187.088 Y355.957 
X187.121 Y355.917 
X187.153 Y355.877 
X187.205 Y355.853 
X187.238 Y355.813 
X187.27 Y355.773 
X187.322 Y355.749 
X187.354 Y355.709 
X187.387 Y355.669 
X187.439 Y355.645 
X187.471 Y355.605 
X187.503 Y355.565 
X187.556 Y355.541 
X187.588 Y355.501 
X187.64 Y355.477 
X187.673 Y355.437 
X187.705 Y355.397 
X187.757 Y355.373 
X187.789 Y355.332 
X187.822 Y355.292 
X187.874 Y355.268 
X187.906 Y355.228 
X187.958 Y355.204 
X187.991 Y355.164 
X188.007 Y355.144 
X188.059 Y355.12 
X188.091 Y355.08 
X188.144 Y355.056 
X188.176 Y355.016 
X188.228 Y354.992 
X188.26 Y354.952 
X188.293 Y354.912 
X188.345 Y354.888 
X188.377 Y354.848 
X188.43 Y354.824 
X188.462 Y354.784 
X188.514 Y354.76 
X188.546 Y354.72 
X188.599 Y354.696 
X188.631 Y354.656 
X188.683 Y354.632 
X188.716 Y354.592 
X188.768 Y354.568 
X188.784 Y354.548 
X188.836 Y354.524 
X188.868 Y354.484 
X188.921 Y354.46 
X188.953 Y354.42 
X189.005 Y354.396 
X189.038 Y354.356 
X189.09 Y354.332 
X189.122 Y354.291 
X189.174 Y354.267 
X189.207 Y354.227 
X189.259 Y354.203 
X189.291 Y354.163 
X189.344 Y354.139 
X189.376 Y354.099 
X189.412 Y354.095 
X189.444 Y354.055 
X189.497 Y354.031 
X189.549 Y354.007 
X189.581 Y353.967 
X189.633 Y353.943 
X189.666 Y353.903 
X189.718 Y353.879 
X189.75 Y353.839 
X189.803 Y353.815 
X189.819 Y353.795 
G00 Z5
X184.231 Y358.975
Z-12
G01 Z-15 F100
X184.264 Y358.935 F150
X184.296 Y358.895 
X184.328 Y358.855 
X184.36 Y358.815 
X184.393 Y358.775 
X184.425 Y358.735 
X184.457 Y358.695 
X184.489 Y358.654 
X184.522 Y358.614 
X184.554 Y358.574 
X184.586 Y358.534 
X184.618 Y358.494 
X184.651 Y358.454 
X184.683 Y358.414 
X184.715 Y358.374 
X184.747 Y358.334 
X184.78 Y358.294 
X184.812 Y358.254 
X184.844 Y358.213 
X184.897 Y358.189 
X184.929 Y358.149 
X184.961 Y358.109 
X184.993 Y358.069 
X185.026 Y358.029 
X185.058 Y357.989 
X185.09 Y357.949 
X185.122 Y357.909 
X185.155 Y357.869 
X185.187 Y357.829 
X185.219 Y357.789 
X185.271 Y357.765 
X185.304 Y357.724 
X185.336 Y357.684 
X185.368 Y357.644 
X185.4 Y357.604 
X185.433 Y357.564 
X185.465 Y357.524 
X185.517 Y357.5 
X185.549 Y357.46 
X185.582 Y357.42 
X185.614 Y357.38 
X185.646 Y357.34 
X185.678 Y357.3 
X185.731 Y357.276 
X185.763 Y357.236 
X185.795 Y357.195 
X185.828 Y357.155 
X185.86 Y357.115 
X185.892 Y357.075 
X185.944 Y357.051 
X185.977 Y357.011 
X186.009 Y356.971 
X186.041 Y356.931 
X186.073 Y356.891 
X186.126 Y356.867 
X186.158 Y356.827 
X186.19 Y356.787 
X186.222 Y356.747 
X186.275 Y356.723 
X186.307 Y356.683 
X186.339 Y356.642 
X186.371 Y356.602 
X186.424 Y356.578 
X186.456 Y356.538 
X186.488 Y356.498 
X186.521 Y356.458 
X186.573 Y356.434 
X186.605 Y356.394 
X186.637 Y356.354 
X186.67 Y356.314 
X186.722 Y356.29 
X186.754 Y356.25 
X186.77 Y356.23 
X186.823 Y356.206 
X186.855 Y356.166 
X186.887 Y356.126 
X186.919 Y356.086 
X186.972 Y356.062 
X187.004 Y356.021 
X187.036 Y355.981 
X187.088 Y355.957 
X187.121 Y355.917 
X187.153 Y355.877 
X187.205 Y355.853 
X187.238 Y355.813 
X187.27 Y355.773 
X187.322 Y355.749 
X187.354 Y355.709 
X187.387 Y355.669 
X187.439 Y355.645 
X187.471 Y355.605 
X187.503 Y355.565 
X187.556 Y355.541 
X187.588 Y355.501 
X187.64 Y355.477 
X187.673 Y355.437 
X187.705 Y355.397 
X187.757 Y355.373 
X187.789 Y355.332 
X187.822 Y355.292 
X187.874 Y355.268 
X187.906 Y355.228 
X187.958 Y355.204 
X187.991 Y355.164 
X188.007 Y355.144 
X188.059 Y355.12 
X188.091 Y355.08 
X188.144 Y355.056 
X188.176 Y355.016 
X188.228 Y354.992 
X188.26 Y354.952 
X188.293 Y354.912 
X188.345 Y354.888 
X188.377 Y354.848 
X188.43 Y354.824 
X188.462 Y354.784 
X188.514 Y354.76 
X188.546 Y354.72 
X188.599 Y354.696 
X188.631 Y354.656 
X188.683 Y354.632 
X188.716 Y354.592 
X188.768 Y354.568 
X188.784 Y354.548 
X188.836 Y354.524 
X188.868 Y354.484 
X188.921 Y354.46 
X188.953 Y354.42 
X189.005 Y354.396 
X189.038 Y354.356 
X189.09 Y354.332 
X189.122 Y354.291 
X189.174 Y354.267 
X189.207 Y354.227 
X189.259 Y354.203 
X189.291 Y354.163 
X189.344 Y354.139 
X189.376 Y354.099 
X189.412 Y354.095 
X189.444 Y354.055 
X189.497 Y354.031 
X189.549 Y354.007 
X189.581 Y353.967 
X189.633 Y353.943 
X189.666 Y353.903 
X189.718 Y353.879 
X189.75 Y353.839 
X189.803 Y353.815 
X189.819 Y353.795 
G00 Z5
X184.231 Y358.975
Z-15
G01 Z-18 F100
X184.264 Y358.935 F150
X184.296 Y358.895 
X184.328 Y358.855 
X184.36 Y358.815 
X184.393 Y358.775 
X184.425 Y358.735 
X184.457 Y358.695 
X184.489 Y358.654 
X184.522 Y358.614 
X184.554 Y358.574 
X184.586 Y358.534 
X184.618 Y358.494 
X184.651 Y358.454 
X184.683 Y358.414 
X184.715 Y358.374 
X184.747 Y358.334 
X184.78 Y358.294 
X184.812 Y358.254 
X184.844 Y358.213 
X184.897 Y358.189 
X184.929 Y358.149 
X184.961 Y358.109 
X184.993 Y358.069 
X185.026 Y358.029 
X185.058 Y357.989 
X185.09 Y357.949 
X185.122 Y357.909 
X185.155 Y357.869 
X185.187 Y357.829 
X185.219 Y357.789 
X185.271 Y357.765 
X185.304 Y357.724 
X185.336 Y357.684 
X185.368 Y357.644 
X185.4 Y357.604 
X185.433 Y357.564 
X185.465 Y357.524 
X185.517 Y357.5 
X185.549 Y357.46 
X185.582 Y357.42 
X185.614 Y357.38 
X185.646 Y357.34 
X185.678 Y357.3 
X185.731 Y357.276 
X185.763 Y357.236 
X185.795 Y357.195 
X185.828 Y357.155 
X185.86 Y357.115 
X185.892 Y357.075 
X185.944 Y357.051 
X185.977 Y357.011 
X186.009 Y356.971 
X186.041 Y356.931 
X186.073 Y356.891 
X186.126 Y356.867 
X186.158 Y356.827 
X186.19 Y356.787 
X186.222 Y356.747 
X186.275 Y356.723 
X186.307 Y356.683 
X186.339 Y356.642 
X186.371 Y356.602 
X186.424 Y356.578 
X186.456 Y356.538 
X186.488 Y356.498 
X186.521 Y356.458 
X186.573 Y356.434 
X186.605 Y356.394 
X186.637 Y356.354 
X186.67 Y356.314 
X186.722 Y356.29 
X186.754 Y356.25 
X186.77 Y356.23 
X186.823 Y356.206 
X186.855 Y356.166 
X186.887 Y356.126 
X186.919 Y356.086 
X186.972 Y356.062 
X187.004 Y356.021 
X187.036 Y355.981 
X187.088 Y355.957 
X187.121 Y355.917 
X187.153 Y355.877 
X187.205 Y355.853 
X187.238 Y355.813 
X187.27 Y355.773 
X187.322 Y355.749 
X187.354 Y355.709 
X187.387 Y355.669 
X187.439 Y355.645 
X187.471 Y355.605 
X187.503 Y355.565 
X187.556 Y355.541 
X187.588 Y355.501 
X187.64 Y355.477 
X187.673 Y355.437 
X187.705 Y355.397 
X187.757 Y355.373 
X187.789 Y355.332 
X187.822 Y355.292 
X187.874 Y355.268 
X187.906 Y355.228 
X187.958 Y355.204 
X187.991 Y355.164 
X188.007 Y355.144 
X188.059 Y355.12 
X188.091 Y355.08 
X188.144 Y355.056 
X188.176 Y355.016 
X188.228 Y354.992 
X188.26 Y354.952 
X188.293 Y354.912 
X188.345 Y354.888 
X188.377 Y354.848 
X188.43 Y354.824 
X188.462 Y354.784 
X188.514 Y354.76 
X188.546 Y354.72 
X188.599 Y354.696 
X188.631 Y354.656 
X188.683 Y354.632 
X188.716 Y354.592 
X188.768 Y354.568 
X188.784 Y354.548 
X188.836 Y354.524 
X188.868 Y354.484 
X188.921 Y354.46 
X188.953 Y354.42 
X189.005 Y354.396 
X189.038 Y354.356 
X189.09 Y354.332 
X189.122 Y354.291 
X189.174 Y354.267 
X189.207 Y354.227 
X189.259 Y354.203 
X189.291 Y354.163 
X189.344 Y354.139 
X189.376 Y354.099 
X189.412 Y354.095 
X189.444 Y354.055 
X189.497 Y354.031 
X189.549 Y354.007 
X189.581 Y353.967 
X189.633 Y353.943 
X189.666 Y353.903 
X189.718 Y353.879 
X189.75 Y353.839 
X189.803 Y353.815 
X189.819 Y353.795 
G00 Z5
G90
(Sketch 173)
X212.93 Y358.377 S7000 M03
Z2
G01 Z-3 F100
X212.982 Y358.373 F150
X213.033 Y358.369 
X213.084 Y358.365 
X213.135 Y358.361 
X213.187 Y358.357 
X213.238 Y358.353 
X213.289 Y358.349 
X213.341 Y358.345 
X213.392 Y358.341 
X213.443 Y358.337 
X213.495 Y358.333 
X213.546 Y358.329 
X213.597 Y358.326 
X213.649 Y358.322 
X213.7 Y358.318 
X213.751 Y358.314 
X213.802 Y358.31 
X213.854 Y358.306 
X213.905 Y358.302 
X213.958 Y358.324 
X214.01 Y358.32 
X214.061 Y358.316 
X214.112 Y358.312 
X214.164 Y358.308 
X214.215 Y358.304 
X214.266 Y358.3 
X214.317 Y358.296 
X214.369 Y358.292 
X214.42 Y358.288 
X214.471 Y358.284 
X214.525 Y358.306 
X214.576 Y358.302 
X214.627 Y358.298 
X214.679 Y358.294 
X214.73 Y358.29 
X214.781 Y358.287 
X214.832 Y358.283 
X214.886 Y358.304 
X214.937 Y358.3 
X214.988 Y358.296 
X215.04 Y358.293 
X215.091 Y358.289 
X215.142 Y358.285 
X215.196 Y358.306 
X215.247 Y358.302 
X215.298 Y358.299 
X215.349 Y358.295 
X215.401 Y358.291 
X215.452 Y358.287 
X215.505 Y358.308 
X215.557 Y358.305 
X215.608 Y358.301 
X215.659 Y358.297 
X215.711 Y358.293 
X215.764 Y358.314 
X215.815 Y358.311 
X215.866 Y358.307 
X215.918 Y358.303 
X215.971 Y358.324 
X216.022 Y358.32 
X216.074 Y358.317 
X216.125 Y358.313 
X216.178 Y358.334 
X216.23 Y358.33 
X216.281 Y358.327 
X216.332 Y358.323 
X216.385 Y358.344 
X216.437 Y358.34 
X216.488 Y358.336 
X216.539 Y358.333 
X216.593 Y358.354 
X216.644 Y358.35 
X216.67 Y358.348 
X216.723 Y358.37 
X216.774 Y358.366 
X216.825 Y358.362 
X216.877 Y358.358 
X216.93 Y358.38 
X216.981 Y358.376 
X217.033 Y358.372 
X217.086 Y358.394 
X217.137 Y358.39 
X217.189 Y358.386 
X217.242 Y358.408 
X217.293 Y358.404 
X217.344 Y358.4 
X217.398 Y358.422 
X217.449 Y358.418 
X217.5 Y358.414 
X217.554 Y358.435 
X217.605 Y358.432 
X217.656 Y358.428 
X217.709 Y358.449 
X217.761 Y358.445 
X217.814 Y358.467 
X217.865 Y358.463 
X217.917 Y358.459 
X217.97 Y358.481 
X218.021 Y358.477 
X218.073 Y358.473 
X218.126 Y358.495 
X218.177 Y358.491 
X218.23 Y358.513 
X218.282 Y358.509 
X218.307 Y358.507 
X218.361 Y358.529 
X218.412 Y358.525 
X218.465 Y358.546 
X218.516 Y358.542 
X218.57 Y358.564 
X218.621 Y358.56 
X218.672 Y358.556 
X218.726 Y358.578 
X218.777 Y358.574 
X218.83 Y358.596 
X218.881 Y358.592 
X218.935 Y358.614 
X218.986 Y358.61 
X219.039 Y358.631 
X219.091 Y358.627 
X219.144 Y358.649 
X219.195 Y358.645 
X219.248 Y358.667 
X219.274 Y358.665 
X219.327 Y358.687 
X219.379 Y358.683 
X219.432 Y358.705 
X219.483 Y358.701 
X219.537 Y358.722 
X219.588 Y358.718 
X219.641 Y358.74 
X219.692 Y358.736 
X219.746 Y358.758 
X219.797 Y358.754 
X219.85 Y358.776 
X219.902 Y358.772 
X219.955 Y358.794 
X220.006 Y358.79 
X220.034 Y358.813 
X220.085 Y358.809 
X220.138 Y358.831 
X220.192 Y358.853 
X220.243 Y358.849 
X220.296 Y358.871 
X220.348 Y358.867 
X220.401 Y358.888 
X220.452 Y358.884 
X220.505 Y358.906 
X220.531 Y358.904 
G00 Z5
X212.93 Y358.377
Z-3
G01 Z-6 F100
X212.982 Y358.373 F150
X213.033 Y358.369 
X213.084 Y358.365 
X213.135 Y358.361 
X213.187 Y358.357 
X213.238 Y358.353 
X213.289 Y358.349 
X213.341 Y358.345 
X213.392 Y358.341 
X213.443 Y358.337 
X213.495 Y358.333 
X213.546 Y358.329 
X213.597 Y358.326 
X213.649 Y358.322 
X213.7 Y358.318 
X213.751 Y358.314 
X213.802 Y358.31 
X213.854 Y358.306 
X213.905 Y358.302 
X213.958 Y358.324 
X214.01 Y358.32 
X214.061 Y358.316 
X214.112 Y358.312 
X214.164 Y358.308 
X214.215 Y358.304 
X214.266 Y358.3 
X214.317 Y358.296 
X214.369 Y358.292 
X214.42 Y358.288 
X214.471 Y358.284 
X214.525 Y358.306 
X214.576 Y358.302 
X214.627 Y358.298 
X214.679 Y358.294 
X214.73 Y358.29 
X214.781 Y358.287 
X214.832 Y358.283 
X214.886 Y358.304 
X214.937 Y358.3 
X214.988 Y358.296 
X215.04 Y358.293 
X215.091 Y358.289 
X215.142 Y358.285 
X215.196 Y358.306 
X215.247 Y358.302 
X215.298 Y358.299 
X215.349 Y358.295 
X215.401 Y358.291 
X215.452 Y358.287 
X215.505 Y358.308 
X215.557 Y358.305 
X215.608 Y358.301 
X215.659 Y358.297 
X215.711 Y358.293 
X215.764 Y358.314 
X215.815 Y358.311 
X215.866 Y358.307 
X215.918 Y358.303 
X215.971 Y358.324 
X216.022 Y358.32 
X216.074 Y358.317 
X216.125 Y358.313 
X216.178 Y358.334 
X216.23 Y358.33 
X216.281 Y358.327 
X216.332 Y358.323 
X216.385 Y358.344 
X216.437 Y358.34 
X216.488 Y358.336 
X216.539 Y358.333 
X216.593 Y358.354 
X216.644 Y358.35 
X216.67 Y358.348 
X216.723 Y358.37 
X216.774 Y358.366 
X216.825 Y358.362 
X216.877 Y358.358 
X216.93 Y358.38 
X216.981 Y358.376 
X217.033 Y358.372 
X217.086 Y358.394 
X217.137 Y358.39 
X217.189 Y358.386 
X217.242 Y358.408 
X217.293 Y358.404 
X217.344 Y358.4 
X217.398 Y358.422 
X217.449 Y358.418 
X217.5 Y358.414 
X217.554 Y358.435 
X217.605 Y358.432 
X217.656 Y358.428 
X217.709 Y358.449 
X217.761 Y358.445 
X217.814 Y358.467 
X217.865 Y358.463 
X217.917 Y358.459 
X217.97 Y358.481 
X218.021 Y358.477 
X218.073 Y358.473 
X218.126 Y358.495 
X218.177 Y358.491 
X218.23 Y358.513 
X218.282 Y358.509 
X218.307 Y358.507 
X218.361 Y358.529 
X218.412 Y358.525 
X218.465 Y358.546 
X218.516 Y358.542 
X218.57 Y358.564 
X218.621 Y358.56 
X218.672 Y358.556 
X218.726 Y358.578 
X218.777 Y358.574 
X218.83 Y358.596 
X218.881 Y358.592 
X218.935 Y358.614 
X218.986 Y358.61 
X219.039 Y358.631 
X219.091 Y358.627 
X219.144 Y358.649 
X219.195 Y358.645 
X219.248 Y358.667 
X219.274 Y358.665 
X219.327 Y358.687 
X219.379 Y358.683 
X219.432 Y358.705 
X219.483 Y358.701 
X219.537 Y358.722 
X219.588 Y358.718 
X219.641 Y358.74 
X219.692 Y358.736 
X219.746 Y358.758 
X219.797 Y358.754 
X219.85 Y358.776 
X219.902 Y358.772 
X219.955 Y358.794 
X220.006 Y358.79 
X220.034 Y358.813 
X220.085 Y358.809 
X220.138 Y358.831 
X220.192 Y358.853 
X220.243 Y358.849 
X220.296 Y358.871 
X220.348 Y358.867 
X220.401 Y358.888 
X220.452 Y358.884 
X220.505 Y358.906 
X220.531 Y358.904 
G00 Z5
X212.93 Y358.377
Z-6
G01 Z-9 F100
X212.982 Y358.373 F150
X213.033 Y358.369 
X213.084 Y358.365 
X213.135 Y358.361 
X213.187 Y358.357 
X213.238 Y358.353 
X213.289 Y358.349 
X213.341 Y358.345 
X213.392 Y358.341 
X213.443 Y358.337 
X213.495 Y358.333 
X213.546 Y358.329 
X213.597 Y358.326 
X213.649 Y358.322 
X213.7 Y358.318 
X213.751 Y358.314 
X213.802 Y358.31 
X213.854 Y358.306 
X213.905 Y358.302 
X213.958 Y358.324 
X214.01 Y358.32 
X214.061 Y358.316 
X214.112 Y358.312 
X214.164 Y358.308 
X214.215 Y358.304 
X214.266 Y358.3 
X214.317 Y358.296 
X214.369 Y358.292 
X214.42 Y358.288 
X214.471 Y358.284 
X214.525 Y358.306 
X214.576 Y358.302 
X214.627 Y358.298 
X214.679 Y358.294 
X214.73 Y358.29 
X214.781 Y358.287 
X214.832 Y358.283 
X214.886 Y358.304 
X214.937 Y358.3 
X214.988 Y358.296 
X215.04 Y358.293 
X215.091 Y358.289 
X215.142 Y358.285 
X215.196 Y358.306 
X215.247 Y358.302 
X215.298 Y358.299 
X215.349 Y358.295 
X215.401 Y358.291 
X215.452 Y358.287 
X215.505 Y358.308 
X215.557 Y358.305 
X215.608 Y358.301 
X215.659 Y358.297 
X215.711 Y358.293 
X215.764 Y358.314 
X215.815 Y358.311 
X215.866 Y358.307 
X215.918 Y358.303 
X215.971 Y358.324 
X216.022 Y358.32 
X216.074 Y358.317 
X216.125 Y358.313 
X216.178 Y358.334 
X216.23 Y358.33 
X216.281 Y358.327 
X216.332 Y358.323 
X216.385 Y358.344 
X216.437 Y358.34 
X216.488 Y358.336 
X216.539 Y358.333 
X216.593 Y358.354 
X216.644 Y358.35 
X216.67 Y358.348 
X216.723 Y358.37 
X216.774 Y358.366 
X216.825 Y358.362 
X216.877 Y358.358 
X216.93 Y358.38 
X216.981 Y358.376 
X217.033 Y358.372 
X217.086 Y358.394 
X217.137 Y358.39 
X217.189 Y358.386 
X217.242 Y358.408 
X217.293 Y358.404 
X217.344 Y358.4 
X217.398 Y358.422 
X217.449 Y358.418 
X217.5 Y358.414 
X217.554 Y358.435 
X217.605 Y358.432 
X217.656 Y358.428 
X217.709 Y358.449 
X217.761 Y358.445 
X217.814 Y358.467 
X217.865 Y358.463 
X217.917 Y358.459 
X217.97 Y358.481 
X218.021 Y358.477 
X218.073 Y358.473 
X218.126 Y358.495 
X218.177 Y358.491 
X218.23 Y358.513 
X218.282 Y358.509 
X218.307 Y358.507 
X218.361 Y358.529 
X218.412 Y358.525 
X218.465 Y358.546 
X218.516 Y358.542 
X218.57 Y358.564 
X218.621 Y358.56 
X218.672 Y358.556 
X218.726 Y358.578 
X218.777 Y358.574 
X218.83 Y358.596 
X218.881 Y358.592 
X218.935 Y358.614 
X218.986 Y358.61 
X219.039 Y358.631 
X219.091 Y358.627 
X219.144 Y358.649 
X219.195 Y358.645 
X219.248 Y358.667 
X219.274 Y358.665 
X219.327 Y358.687 
X219.379 Y358.683 
X219.432 Y358.705 
X219.483 Y358.701 
X219.537 Y358.722 
X219.588 Y358.718 
X219.641 Y358.74 
X219.692 Y358.736 
X219.746 Y358.758 
X219.797 Y358.754 
X219.85 Y358.776 
X219.902 Y358.772 
X219.955 Y358.794 
X220.006 Y358.79 
X220.034 Y358.813 
X220.085 Y358.809 
X220.138 Y358.831 
X220.192 Y358.853 
X220.243 Y358.849 
X220.296 Y358.871 
X220.348 Y358.867 
X220.401 Y358.888 
X220.452 Y358.884 
X220.505 Y358.906 
X220.531 Y358.904 
G00 Z5
X212.93 Y358.377
Z-9
G01 Z-12 F100
X212.982 Y358.373 F150
X213.033 Y358.369 
X213.084 Y358.365 
X213.135 Y358.361 
X213.187 Y358.357 
X213.238 Y358.353 
X213.289 Y358.349 
X213.341 Y358.345 
X213.392 Y358.341 
X213.443 Y358.337 
X213.495 Y358.333 
X213.546 Y358.329 
X213.597 Y358.326 
X213.649 Y358.322 
X213.7 Y358.318 
X213.751 Y358.314 
X213.802 Y358.31 
X213.854 Y358.306 
X213.905 Y358.302 
X213.958 Y358.324 
X214.01 Y358.32 
X214.061 Y358.316 
X214.112 Y358.312 
X214.164 Y358.308 
X214.215 Y358.304 
X214.266 Y358.3 
X214.317 Y358.296 
X214.369 Y358.292 
X214.42 Y358.288 
X214.471 Y358.284 
X214.525 Y358.306 
X214.576 Y358.302 
X214.627 Y358.298 
X214.679 Y358.294 
X214.73 Y358.29 
X214.781 Y358.287 
X214.832 Y358.283 
X214.886 Y358.304 
X214.937 Y358.3 
X214.988 Y358.296 
X215.04 Y358.293 
X215.091 Y358.289 
X215.142 Y358.285 
X215.196 Y358.306 
X215.247 Y358.302 
X215.298 Y358.299 
X215.349 Y358.295 
X215.401 Y358.291 
X215.452 Y358.287 
X215.505 Y358.308 
X215.557 Y358.305 
X215.608 Y358.301 
X215.659 Y358.297 
X215.711 Y358.293 
X215.764 Y358.314 
X215.815 Y358.311 
X215.866 Y358.307 
X215.918 Y358.303 
X215.971 Y358.324 
X216.022 Y358.32 
X216.074 Y358.317 
X216.125 Y358.313 
X216.178 Y358.334 
X216.23 Y358.33 
X216.281 Y358.327 
X216.332 Y358.323 
X216.385 Y358.344 
X216.437 Y358.34 
X216.488 Y358.336 
X216.539 Y358.333 
X216.593 Y358.354 
X216.644 Y358.35 
X216.67 Y358.348 
X216.723 Y358.37 
X216.774 Y358.366 
X216.825 Y358.362 
X216.877 Y358.358 
X216.93 Y358.38 
X216.981 Y358.376 
X217.033 Y358.372 
X217.086 Y358.394 
X217.137 Y358.39 
X217.189 Y358.386 
X217.242 Y358.408 
X217.293 Y358.404 
X217.344 Y358.4 
X217.398 Y358.422 
X217.449 Y358.418 
X217.5 Y358.414 
X217.554 Y358.435 
X217.605 Y358.432 
X217.656 Y358.428 
X217.709 Y358.449 
X217.761 Y358.445 
X217.814 Y358.467 
X217.865 Y358.463 
X217.917 Y358.459 
X217.97 Y358.481 
X218.021 Y358.477 
X218.073 Y358.473 
X218.126 Y358.495 
X218.177 Y358.491 
X218.23 Y358.513 
X218.282 Y358.509 
X218.307 Y358.507 
X218.361 Y358.529 
X218.412 Y358.525 
X218.465 Y358.546 
X218.516 Y358.542 
X218.57 Y358.564 
X218.621 Y358.56 
X218.672 Y358.556 
X218.726 Y358.578 
X218.777 Y358.574 
X218.83 Y358.596 
X218.881 Y358.592 
X218.935 Y358.614 
X218.986 Y358.61 
X219.039 Y358.631 
X219.091 Y358.627 
X219.144 Y358.649 
X219.195 Y358.645 
X219.248 Y358.667 
X219.274 Y358.665 
X219.327 Y358.687 
X219.379 Y358.683 
X219.432 Y358.705 
X219.483 Y358.701 
X219.537 Y358.722 
X219.588 Y358.718 
X219.641 Y358.74 
X219.692 Y358.736 
X219.746 Y358.758 
X219.797 Y358.754 
X219.85 Y358.776 
X219.902 Y358.772 
X219.955 Y358.794 
X220.006 Y358.79 
X220.034 Y358.813 
X220.085 Y358.809 
X220.138 Y358.831 
X220.192 Y358.853 
X220.243 Y358.849 
X220.296 Y358.871 
X220.348 Y358.867 
X220.401 Y358.888 
X220.452 Y358.884 
X220.505 Y358.906 
X220.531 Y358.904 
G00 Z5
X212.93 Y358.377
Z-12
G01 Z-15 F100
X212.982 Y358.373 F150
X213.033 Y358.369 
X213.084 Y358.365 
X213.135 Y358.361 
X213.187 Y358.357 
X213.238 Y358.353 
X213.289 Y358.349 
X213.341 Y358.345 
X213.392 Y358.341 
X213.443 Y358.337 
X213.495 Y358.333 
X213.546 Y358.329 
X213.597 Y358.326 
X213.649 Y358.322 
X213.7 Y358.318 
X213.751 Y358.314 
X213.802 Y358.31 
X213.854 Y358.306 
X213.905 Y358.302 
X213.958 Y358.324 
X214.01 Y358.32 
X214.061 Y358.316 
X214.112 Y358.312 
X214.164 Y358.308 
X214.215 Y358.304 
X214.266 Y358.3 
X214.317 Y358.296 
X214.369 Y358.292 
X214.42 Y358.288 
X214.471 Y358.284 
X214.525 Y358.306 
X214.576 Y358.302 
X214.627 Y358.298 
X214.679 Y358.294 
X214.73 Y358.29 
X214.781 Y358.287 
X214.832 Y358.283 
X214.886 Y358.304 
X214.937 Y358.3 
X214.988 Y358.296 
X215.04 Y358.293 
X215.091 Y358.289 
X215.142 Y358.285 
X215.196 Y358.306 
X215.247 Y358.302 
X215.298 Y358.299 
X215.349 Y358.295 
X215.401 Y358.291 
X215.452 Y358.287 
X215.505 Y358.308 
X215.557 Y358.305 
X215.608 Y358.301 
X215.659 Y358.297 
X215.711 Y358.293 
X215.764 Y358.314 
X215.815 Y358.311 
X215.866 Y358.307 
X215.918 Y358.303 
X215.971 Y358.324 
X216.022 Y358.32 
X216.074 Y358.317 
X216.125 Y358.313 
X216.178 Y358.334 
X216.23 Y358.33 
X216.281 Y358.327 
X216.332 Y358.323 
X216.385 Y358.344 
X216.437 Y358.34 
X216.488 Y358.336 
X216.539 Y358.333 
X216.593 Y358.354 
X216.644 Y358.35 
X216.67 Y358.348 
X216.723 Y358.37 
X216.774 Y358.366 
X216.825 Y358.362 
X216.877 Y358.358 
X216.93 Y358.38 
X216.981 Y358.376 
X217.033 Y358.372 
X217.086 Y358.394 
X217.137 Y358.39 
X217.189 Y358.386 
X217.242 Y358.408 
X217.293 Y358.404 
X217.344 Y358.4 
X217.398 Y358.422 
X217.449 Y358.418 
X217.5 Y358.414 
X217.554 Y358.435 
X217.605 Y358.432 
X217.656 Y358.428 
X217.709 Y358.449 
X217.761 Y358.445 
X217.814 Y358.467 
X217.865 Y358.463 
X217.917 Y358.459 
X217.97 Y358.481 
X218.021 Y358.477 
X218.073 Y358.473 
X218.126 Y358.495 
X218.177 Y358.491 
X218.23 Y358.513 
X218.282 Y358.509 
X218.307 Y358.507 
X218.361 Y358.529 
X218.412 Y358.525 
X218.465 Y358.546 
X218.516 Y358.542 
X218.57 Y358.564 
X218.621 Y358.56 
X218.672 Y358.556 
X218.726 Y358.578 
X218.777 Y358.574 
X218.83 Y358.596 
X218.881 Y358.592 
X218.935 Y358.614 
X218.986 Y358.61 
X219.039 Y358.631 
X219.091 Y358.627 
X219.144 Y358.649 
X219.195 Y358.645 
X219.248 Y358.667 
X219.274 Y358.665 
X219.327 Y358.687 
X219.379 Y358.683 
X219.432 Y358.705 
X219.483 Y358.701 
X219.537 Y358.722 
X219.588 Y358.718 
X219.641 Y358.74 
X219.692 Y358.736 
X219.746 Y358.758 
X219.797 Y358.754 
X219.85 Y358.776 
X219.902 Y358.772 
X219.955 Y358.794 
X220.006 Y358.79 
X220.034 Y358.813 
X220.085 Y358.809 
X220.138 Y358.831 
X220.192 Y358.853 
X220.243 Y358.849 
X220.296 Y358.871 
X220.348 Y358.867 
X220.401 Y358.888 
X220.452 Y358.884 
X220.505 Y358.906 
X220.531 Y358.904 
G00 Z5
X212.93 Y358.377
Z-15
G01 Z-18 F100
X212.982 Y358.373 F150
X213.033 Y358.369 
X213.084 Y358.365 
X213.135 Y358.361 
X213.187 Y358.357 
X213.238 Y358.353 
X213.289 Y358.349 
X213.341 Y358.345 
X213.392 Y358.341 
X213.443 Y358.337 
X213.495 Y358.333 
X213.546 Y358.329 
X213.597 Y358.326 
X213.649 Y358.322 
X213.7 Y358.318 
X213.751 Y358.314 
X213.802 Y358.31 
X213.854 Y358.306 
X213.905 Y358.302 
X213.958 Y358.324 
X214.01 Y358.32 
X214.061 Y358.316 
X214.112 Y358.312 
X214.164 Y358.308 
X214.215 Y358.304 
X214.266 Y358.3 
X214.317 Y358.296 
X214.369 Y358.292 
X214.42 Y358.288 
X214.471 Y358.284 
X214.525 Y358.306 
X214.576 Y358.302 
X214.627 Y358.298 
X214.679 Y358.294 
X214.73 Y358.29 
X214.781 Y358.287 
X214.832 Y358.283 
X214.886 Y358.304 
X214.937 Y358.3 
X214.988 Y358.296 
X215.04 Y358.293 
X215.091 Y358.289 
X215.142 Y358.285 
X215.196 Y358.306 
X215.247 Y358.302 
X215.298 Y358.299 
X215.349 Y358.295 
X215.401 Y358.291 
X215.452 Y358.287 
X215.505 Y358.308 
X215.557 Y358.305 
X215.608 Y358.301 
X215.659 Y358.297 
X215.711 Y358.293 
X215.764 Y358.314 
X215.815 Y358.311 
X215.866 Y358.307 
X215.918 Y358.303 
X215.971 Y358.324 
X216.022 Y358.32 
X216.074 Y358.317 
X216.125 Y358.313 
X216.178 Y358.334 
X216.23 Y358.33 
X216.281 Y358.327 
X216.332 Y358.323 
X216.385 Y358.344 
X216.437 Y358.34 
X216.488 Y358.336 
X216.539 Y358.333 
X216.593 Y358.354 
X216.644 Y358.35 
X216.67 Y358.348 
X216.723 Y358.37 
X216.774 Y358.366 
X216.825 Y358.362 
X216.877 Y358.358 
X216.93 Y358.38 
X216.981 Y358.376 
X217.033 Y358.372 
X217.086 Y358.394 
X217.137 Y358.39 
X217.189 Y358.386 
X217.242 Y358.408 
X217.293 Y358.404 
X217.344 Y358.4 
X217.398 Y358.422 
X217.449 Y358.418 
X217.5 Y358.414 
X217.554 Y358.435 
X217.605 Y358.432 
X217.656 Y358.428 
X217.709 Y358.449 
X217.761 Y358.445 
X217.814 Y358.467 
X217.865 Y358.463 
X217.917 Y358.459 
X217.97 Y358.481 
X218.021 Y358.477 
X218.073 Y358.473 
X218.126 Y358.495 
X218.177 Y358.491 
X218.23 Y358.513 
X218.282 Y358.509 
X218.307 Y358.507 
X218.361 Y358.529 
X218.412 Y358.525 
X218.465 Y358.546 
X218.516 Y358.542 
X218.57 Y358.564 
X218.621 Y358.56 
X218.672 Y358.556 
X218.726 Y358.578 
X218.777 Y358.574 
X218.83 Y358.596 
X218.881 Y358.592 
X218.935 Y358.614 
X218.986 Y358.61 
X219.039 Y358.631 
X219.091 Y358.627 
X219.144 Y358.649 
X219.195 Y358.645 
X219.248 Y358.667 
X219.274 Y358.665 
X219.327 Y358.687 
X219.379 Y358.683 
X219.432 Y358.705 
X219.483 Y358.701 
X219.537 Y358.722 
X219.588 Y358.718 
X219.641 Y358.74 
X219.692 Y358.736 
X219.746 Y358.758 
X219.797 Y358.754 
X219.85 Y358.776 
X219.902 Y358.772 
X219.955 Y358.794 
X220.006 Y358.79 
X220.034 Y358.813 
X220.085 Y358.809 
X220.138 Y358.831 
X220.192 Y358.853 
X220.243 Y358.849 
X220.296 Y358.871 
X220.348 Y358.867 
X220.401 Y358.888 
X220.452 Y358.884 
X220.505 Y358.906 
X220.531 Y358.904 
G00 Z5
T0 M06 M02
