(Created with emc2b post processor 2016/07/25 16:28)
(tool change to 3 mm Slot Cutter)
T1 M06 G43
G17 G90 G21
G00 X45 Y515.5 S2500 M03
Z5
G83 Q1 G98 X45 Y515.5 Z-1 R202 F700
X65 Y499.5 
X65 Y515.5 
X45 Y499.5 
X190 Y515.5 
X210 Y515.5 
X210 Y499.5 
X190 Y499.5 
X335 Y515.5 
X355 Y515.5 
X355 Y499.5 
X335 Y499.5 
X27 Y463 
X43 Y463 
X43 Y443 
X27 Y443 
X357 Y463 
X373 Y463 
X373 Y443 
X357 Y443 
X355 Y388 
X355 Y372 
X45 Y388 
X45 Y372 
X45 Y112.5 
X65 Y112.5 
X65 Y96.5 
X45 Y96.5 
X190 Y112.5 
X210 Y112.5 
X210 Y96.5 
X190 Y96.5 
X335 Y112.5 
X355 Y112.5 
X355 Y96.5 
X335 Y96.5 
X45 Y65 
X65 Y65 
X190 Y65 
X210 Y65 
X335 Y65 
X355 Y65 
X267 Y210 
X117.5 Y507.5 
X282.5 Y507.5 
X247 Y496 
X153 Y496 
X137 Y496 
X215.5 Y489.5 
X95.5 Y369.5 
X304.5 Y369.5 
X243 Y320 
X133 Y320 
X157 Y320 
X267 Y320 
X106.5 Y274 
X202 Y273 
X106.5 Y268 
X304.5 Y265 
X106.5 Y262 
X202 Y257 
X157 Y210 
X133 Y210 
X243 Y210 
X200 Y160.5 
X304.5 Y160.5 
X365 Y483 
X94 Y435.8 
X103.5 Y435.8 
X35 Y423 
X365 Y423 
X50.5 Y358.5 
X349.5 Y358.5 
X19.5 Y358.5 
X380.5 Y358.5 
X19.5 Y327.5 
X50.5 Y327.5 
X349.5 Y327.5 
X380.5 Y327.5 
X200 Y138 
X137 Y116 
X153 Y116 
X247 Y116 
X117.5 Y104.5 
X263 Y116 
X282.5 Y104.5 
X263 Y496 
X106.5 Y256 
X95.5 Y160.5 
X267 Y210 
X35 Y483 
G80
G00 X145.3 Y122.3 S7000 M03
Z2
G01 Z6 F100
X145.3 Y109.7 F200
X144.7 Y109.7 
X144.7 Y122.3 
X145.3 Y122.3 
X146.3 Y123.3 
X146.3 Y108.7 
X143.7 Y108.7 
X143.7 Y123.3 
X146.3 Y123.3 
G00 Z5
X255.3 Y122.3
Z2
G01 Z6 F100
X255.3 Y109.7 F200
X254.7 Y109.7 
X254.7 Y122.3 
X255.3 Y122.3 
X256.3 Y123.3 
X256.3 Y108.7 
X253.7 Y108.7 
X253.7 Y123.3 
X256.3 Y123.3 
G00 Z5
X200.292 Y138.3
Z2
G01 Z6 F100
G02 X200.273 Y137.955 I-1.203 J-0.106 F200
X199.726 Y137.999 I-0.271 J0.042 
G01 X199.711 Y138.3 
X200.292 Y138.3 
X201.3 Y139.3 
G02 X201.29 Y137.984 I-21.653 J-0.493 
X200.505 Y136.822 I-1.34 J0.059 
X198.732 Y137.868 I-0.506 J1.166 
X198.699 Y139.3 I13.804 J1.034 
G01 X201.3 Y139.3 
X202.3 Y140.3 
X202.3 Y138.299 
G02 X202.085 Y137.081 I-2.804 J-0.133 
X197.738 Y137.742 I-2.085 J0.906 
G01 X197.699 Y138.479 
X197.699 Y140.3 
X202.3 Y140.3 
X203.3 Y141.3 
X203.3 Y138.274 
G02 X203.171 Y137.158 I-4.383 J-0.058 
X196.743 Y137.623 I-3.17 J0.83 
G01 X196.699 Y138.453 
X196.699 Y141.3 
X203.3 Y141.3 
X204.3 Y142.3 
X204.3 Y138.242 
X204.249 Y137.458 
G02 X195.748 Y137.509 I-4.247 J0.532 
G01 X195.699 Y138.427 
X195.699 Y142.3 
X204.3 Y142.3 
X205.3 Y143.3 
X205.3 Y138.21 
X205.243 Y137.333 
G02 X194.72 Y138.035 I-5.24 J0.658 
G01 X194.7 Y138.401 
X194.7 Y143.3 
X205.3 Y143.3 
X206.3 Y144.3 
X206.3 Y138.178 
X206.238 Y137.211 
G02 X202.673 Y132.307 I-6.237 J0.786 
X199.795 Y131.715 I-2.665 J5.668 
X195.693 Y133.413 I0.181 J6.242 
X193.724 Y137.586 I4.29 J4.575 
G03 X193.7 Y138.374 I-7.518 J0.165 
G01 X193.7 Y144.3 
X206.3 Y144.3 
X207.31 Y145.3 
G03 X207.3 Y144.999 I3.983 J-0.283 
G01 X207.3 Y138.146 
X207.232 Y137.085 
X207.06 Y136.185 
X206.777 Y135.313 
X206.389 Y134.486 
X205.896 Y133.712 
X205.312 Y133.004 
X204.646 Y132.38 
X203.906 Y131.843 
X203.101 Y131.401 
X202.251 Y131.063 
X201.366 Y130.838 
X200.443 Y130.72 
G02 X199.088 Y130.763 I-0.402 J8.672 
G01 X198.184 Y130.936 
X197.313 Y131.218 
X196.486 Y131.606 
X195.713 Y132.099 
X195.007 Y132.683 
X194.382 Y133.35 
X193.842 Y134.091 
X193.401 Y134.894 
X193.065 Y135.745 
X192.838 Y136.63 
X192.725 Y137.522 
G03 X192.7 Y138.345 I-7.037 J0.198 
G01 X192.7 Y145 
G03 X192.688 Y145.3 I-7.981 J-0.169 
G01 X207.31 Y145.3 
X208.409 Y146.3 
G03 X208.3 Y144.999 I6.896 J-1.232 
G01 X208.3 Y138.115 
X208.226 Y136.959 
X208.031 Y135.936 
X207.709 Y134.945 
X207.267 Y134.004 
X206.707 Y133.124 
X206.043 Y132.319 
X205.285 Y131.608 
X204.443 Y130.997 
X203.529 Y130.495 
X202.561 Y130.111 
X201.554 Y129.854 
X200.511 Y129.721 
G02 X198.959 Y129.771 I-0.463 J9.738 
G01 X197.935 Y129.966 
X196.945 Y130.287 
X196.004 Y130.73 
X195.124 Y131.289 
X194.321 Y131.953 
X193.61 Y132.712 
X192.997 Y133.554 
X192.495 Y134.468 
X192.112 Y135.436 
X191.854 Y136.443 
X191.725 Y137.462 
G03 X191.7 Y138.314 I-5.972 J0.251 
G01 X191.7 Y145 
G03 X191.587 Y146.3 I-7.238 J0.025 
G01 X208.409 Y146.3 
X209.654 Y147.3 
G03 X209.3 Y144.999 I7.435 J-2.321 
G01 X209.3 Y138.084 
X209.22 Y136.834 
X209.002 Y135.688 
X208.641 Y134.577 
X208.145 Y133.522 
X207.518 Y132.536 
X206.774 Y131.634 
X205.924 Y130.837 
X204.98 Y130.152 
X203.956 Y129.589 
X202.871 Y129.159 
X201.742 Y128.87 
X200.583 Y128.724 
G03 X199.886 Y128.712 I-0.143 J-11.923 
G01 X198.834 Y128.778 
X197.687 Y128.996 
X196.577 Y129.356 
X195.522 Y129.853 
X194.536 Y130.479 
X193.635 Y131.223 
X192.838 Y132.074 
X192.152 Y133.018 
X191.589 Y134.042 
X191.159 Y135.127 
X190.87 Y136.256 
X190.725 Y137.405 
G03 X190.7 Y138.28 I-5.211 J0.288 
G01 X190.7 Y145 
G03 X190.343 Y147.3 I-7.866 J-0.043 
G01 X209.654 Y147.3 
G00 Z5
X199.858 Y164.787
Z2
G01 Z6 F100
G02 X200.643 Y164.732 I0.137 J-3.671 F200
G03 X199.994 Y162.566 I9.387 J-3.992 
X199.349 Y164.736 I-10.502 J-1.94 
G02 X199.858 Y164.787 I0.551 J-2.939 
G01 X199.832 Y165.788 
G02 X202.054 Y165.373 I0.157 J-5.313 
G03 X200.849 Y161.479 I8.62 J-4.8 
G01 X200.784 Y160.426 
G02 X199.213 Y160.415 I-0.786 J0.074 
G03 X198.192 Y164.896 I-10.529 J-0.042 
G01 X197.94 Y165.372 
G02 X199.832 Y165.788 I2.048 J-4.806 
G01 X200.393 Y166.78 
G02 X201.943 Y166.485 I-0.439 J-6.527 
X203.371 Y165.81 I-2.031 J-6.146 
G01 X203.459 Y165.747 
G03 X201.848 Y161.418 I7.352 J-5.2 
G01 X201.778 Y160.283 
G02 X198.218 Y160.283 I-1.78 J0.217 
G03 X198.14 Y161.503 I-14.053 J-0.285 
X196.537 Y165.745 I-8.971 J-0.966 
G01 X196.626 Y165.81 
G02 X198.054 Y166.485 I3.459 J-5.471 
X200.393 Y166.78 I1.944 J-5.997 
G01 X200.457 Y167.78 
X201.367 Y167.664 
X202.253 Y167.438 
X203.104 Y167.099 
X203.908 Y166.657 
X204.649 Y166.119 
X204.861 Y165.92 
G03 X202.847 Y161.356 I6.054 J-5.398 
G01 X202.772 Y160.149 
G02 X197.225 Y160.151 I-2.773 J0.35 
G01 X197.151 Y161.356 
G03 X195.136 Y165.919 I-8.072 J-0.838 
G01 X195.349 Y166.119 
X196.09 Y166.657 
X196.894 Y167.099 
X197.745 Y167.438 
X198.631 Y167.664 
X199.541 Y167.78 
X200.457 Y167.78 
G00 Z5
X296.047 Y170.074
Z2
G01 Z6 F100
X305.02 Y161.104 F200
G02 X303.973 Y159.907 I-0.526 J-0.595 
G01 X303.762 Y160.106 
X294.922 Y168.95 
X295.174 Y169.254 
X296.047 Y170.074 
X296.136 Y171.438 
G03 X296.381 Y171.155 I6.578 J5.447 
G01 X305.764 Y161.775 
G02 X303.346 Y159.125 I-1.267 J-1.271 
G01 X303.066 Y159.389 
X293.842 Y168.616 
G03 X293.553 Y168.864 I-2.965 J-3.163 
G01 X294.444 Y169.941 
X295.706 Y171.125 
X296.136 Y171.438 
X296.45 Y172.902 
G03 X297.089 Y171.863 I2.524 J0.836 
G01 X306.508 Y162.446 
G02 X302.715 Y158.348 I-2.009 J-1.944 
G01 X302.37 Y158.672 
X293.135 Y167.909 
G03 X292.115 Y168.541 I-1.903 J-1.932 
G01 X292.53 Y169.195 
X293.714 Y170.627 
X295.068 Y171.898 
X296.45 Y172.902 
G00 Z5
X103.947 Y170.073
Z2
G01 Z6 F100
X104.823 Y169.252 F200
X105.074 Y168.949 
X96.211 Y160.085 
G02 X95.403 Y159.711 I-0.712 J0.479 
X94.97 Y161.099 I0.114 J0.797 
G01 X103.947 Y170.073 
X103.859 Y171.437 
X104.29 Y171.124 
X105.553 Y169.939 
X106.443 Y168.865 
G03 X106.155 Y168.616 I5.048 J-6.13 
G01 X96.919 Y159.378 
G02 X94.058 Y161.564 I-1.408 J1.121 
G01 X94.229 Y161.772 
X103.615 Y171.155 
G03 X103.859 Y171.437 I-2.796 J2.666 
G01 X103.548 Y172.902 
X104.929 Y171.897 
X106.284 Y170.626 
X107.468 Y169.195 
X107.882 Y168.542 
G03 X106.863 Y167.909 I0.882 J-2.557 
G01 X97.624 Y158.669 
G02 X93.242 Y162.146 I-2.118 J1.83 
G01 X93.488 Y162.445 
X102.909 Y171.863 
G03 X103.548 Y172.902 I-1.912 J1.892 
G00 Z5
X300.261 Y265.644
Z2
G01 Z6 F100
G03 X302.414 Y264.998 I3.961 J9.291 F200
X300.261 Y264.348 I1.888 J-10.145 
G02 X300.261 Y265.644 I3.894 J0.647 
G01 X299.624 Y267.053 
G03 X303.519 Y265.849 I4.81 J8.661 
G01 X304.566 Y265.785 
G02 X304.569 Y264.211 I-0.073 J-0.787 
G03 X302.583 Y264.013 I0.23 J-12.374 
X299.624 Y262.94 I1.822 J-9.642 
G02 X299.624 Y267.053 I4.858 J2.056 
G01 X299.254 Y268.455 
G03 X303.58 Y266.848 I5.207 J7.392 
G01 X304.71 Y266.779 
G02 X304.712 Y263.218 I-0.214 J-1.78 
G01 X303.58 Y263.149 
G03 X299.254 Y261.54 I0.895 J-9.027 
G01 X298.984 Y261.965 
G02 X298.984 Y268.031 I5.523 J3.033 
G01 X299.254 Y268.455 
X299.075 Y269.863 
G03 X303.642 Y267.847 I5.403 J6.06 
G01 X304.844 Y267.773 
G02 X304.845 Y262.225 I-0.346 J-2.774 
G01 X303.642 Y262.151 
G03 X299.075 Y260.134 I0.842 J-8.086 
G01 X298.598 Y260.71 
X298.106 Y261.484 
X297.716 Y262.314 
X297.433 Y263.185 
X297.262 Y264.085 
X297.204 Y264.999 
X297.262 Y265.913 
X297.433 Y266.813 
X297.716 Y267.684 
X298.107 Y268.514 
X298.597 Y269.286 
X299.075 Y269.863 
G00 Z5
X95.54 Y370.282
Z2
G01 Z6 F100
G02 X96.22 Y369.901 I-0.094 J-0.965 F200
G01 X105.074 Y361.047 
X104.822 Y360.741 
X103.949 Y359.921 
X94.971 Y368.897 
G02 X95.54 Y370.282 I0.529 J0.591 
G01 X95.612 Y371.286 
G02 X96.922 Y370.615 I-0.148 J-1.903 
G01 X106.155 Y361.381 
G03 X106.442 Y361.132 I4.121 J4.46 
G01 X105.553 Y360.056 
X104.291 Y358.871 
X103.86 Y358.558 
G03 X103.615 Y358.842 I-2.9 J-2.254 
G01 X94.228 Y368.226 
G02 X95.612 Y371.286 I1.272 J1.267 
G01 X95.677 Y372.288 
G02 X97.623 Y371.329 I-0.194 J-2.848 
G01 X106.863 Y362.089 
G03 X107.882 Y361.456 I1.894 J1.913 
G01 X107.468 Y360.803 
X106.284 Y359.371 
X104.93 Y358.1 
X103.548 Y357.095 
G03 X102.909 Y358.135 I-2.563 J-0.858 
G01 X93.488 Y367.553 
G02 X95.677 Y372.288 I2.012 J1.943 
G00 Z5
X304.539 Y370.282
Z2
G01 Z6 F100
G02 X305.02 Y368.893 I-0.053 J-0.796 F200
G01 X296.047 Y359.922 
X295.174 Y360.742 
X294.922 Y361.046 
X303.962 Y370.089 
G02 X304.539 Y370.282 I0.535 J-0.642 
G01 X304.606 Y371.286 
G02 X305.766 Y368.225 I-0.113 J-1.793 
G01 X296.381 Y358.842 
G03 X296.137 Y358.559 I5.088 J-4.633 
G01 X295.706 Y358.872 
X294.444 Y360.056 
X293.554 Y361.132 
G03 X293.842 Y361.381 I-3.449 J4.281 
G01 X303.078 Y370.619 
G02 X304.606 Y371.286 I1.424 J-1.18 
G01 X304.671 Y372.288 
G02 X306.508 Y367.553 I-0.174 J-2.791 
G01 X297.089 Y358.135 
G03 X296.45 Y357.096 I1.907 J-1.889 
G01 X295.068 Y358.1 
X293.714 Y359.371 
X292.53 Y360.803 
X292.116 Y361.456 
G03 X293.135 Y362.089 I-0.875 J2.546 
G01 X302.375 Y371.331 
G02 X304.671 Y372.288 I2.125 J-1.866 
G00 Z5
X94.697 Y436.45
Z2
G01 Z6 F100
G03 X97 Y436.3 I2.254 J16.865 F200
G01 X103.751 Y436.3 
G02 X104.257 Y435.884 I-0.019 J-0.539 
X103.824 Y435.315 I-0.477 J-0.086 
G01 X103.563 Y435.3 
X97.313 Y435.302 
G03 X94.697 Y435.138 I-0.309 J-16.003 
G01 X94.697 Y436.45 
X93.698 Y437.635 
G03 X97 Y437.3 I3.251 J15.612 
G01 X103.522 Y437.3 
G02 X104.978 Y436.688 I0.171 J-1.63 
X103.974 Y434.322 I-1.193 J-0.889 
G01 X103.592 Y434.3 
X97.326 Y434.303 
G03 X93.698 Y433.955 I-0.278 J-16.183 
G01 X93.698 Y437.635 
X92.699 Y438.909 
G03 X97 Y438.3 I4.269 J14.662 
G01 X103.531 Y438.3 
G02 X105.498 Y437.61 I0.174 J-2.65 
X104.114 Y433.329 I-1.711 J-1.81 
G01 X103.622 Y433.3 
X97.339 Y433.304 
G03 X92.699 Y432.684 I-0.271 J-15.643 
G01 X92.699 Y438.909 
X91.7 Y431.306 
X91.7 Y440.294 
G03 X97 Y439.3 I5.301 J13.641 
G01 X103.542 Y439.3 
G02 X105.33 Y438.936 I0.155 J-3.809 
X104.249 Y432.336 I-1.544 J-3.135 
G01 X103.652 Y432.3 
X97.355 Y432.305 
G03 X91.7 Y431.306 I-0.256 J-15.054 
G01 X90.7 Y429.755 
X90.7 Y441.844 
G03 X91.864 Y441.3 I7.354 J14.219 
X97 Y440.3 I5.162 J12.826 
G01 X103.56 Y440.3 
G03 X104.102 Y440.281 I0.4 J3.681 
G02 X108.275 Y435.601 I-0.292 J-4.46 
X105.849 Y431.801 I-4.441 J0.16 
X104.371 Y431.342 I-2.032 J3.936 
G01 X103.683 Y431.3 
X97.371 Y431.306 
G03 X95.066 Y431.156 I-0.166 J-15.225 
X93.368 Y430.803 I1.727 J-12.568 
X92.049 Y430.37 I4.971 J-17.371 
X90.7 Y429.755 I5.741 J-14.381 
G01 X89.7 Y427.985 
X89.7 Y443.613 
G03 X90.791 Y442.923 I8.905 J12.873 
X91.03 Y442.794 I3.275 J5.783 
X92.225 Y442.233 I11.786 J23.552 
X92.484 Y442.133 I1.589 J3.73 
X93.738 Y441.728 I6.685 J18.556 
X94.006 Y441.661 I1.26 J4.471 
X95.3 Y441.417 I3.56 J15.329 
X97 Y441.3 I2.065 J17.599 
G01 X103.598 Y441.3 
G03 X104.159 Y441.282 I0.389 J3.391 
G02 X109.276 Y435.601 I-0.346 J-5.456 
X109.215 Y434.866 I-2.907 J-0.128 
X104.494 Y430.348 I-5.417 J0.935 
G01 X103.714 Y430.3 
X98.316 Y430.3 
G03 X95.578 Y430.215 I-0.655 J-23.04 
X95.239 Y430.172 I0.697 J-6.858 
X93.944 Y429.923 I3.04 J-19.303 
X93.679 Y429.853 I1.085 J-4.647 
X92.425 Y429.444 I6.674 J-22.59 
X92.166 Y429.339 I1.219 J-3.381 
X90.978 Y428.777 I6.649 J-15.592 
X90.734 Y428.642 I2.529 J-4.86 
G01 X89.7 Y427.985 
G00 Z5
X200.278 Y464.722
Z2
G01 Z6 F100
X200.287 Y464.699 F200
X200.266 Y464.699 
X200.278 Y464.722 
X200.523 Y467.786 
G03 X201.805 Y463.699 I13.276 J1.919 
G01 X198.536 Y463.699 
G03 X200.523 Y467.786 I-15.893 J10.253 
G01 X200.56 Y472.497 
G03 X201.525 Y471.698 I9.764 J10.81 
X203.532 Y462.699 I12.54 J-1.926 
G01 X196.617 Y462.699 
G03 X200.56 Y472.497 I-14.905 J11.69 
G01 X199.98 Y474.265 
G02 X200.196 Y474.179 I-0.019 J-0.362 
G03 X202.468 Y472.219 I20.721 J21.722 
G02 X202.534 Y471.702 I-0.371 J-0.31 
G03 X205.599 Y461.7 I11.603 J-1.914 
G01 X194.406 Y461.7 
G03 X199.599 Y472.883 I-12.774 J12.729 
X199.715 Y473.983 I-10.368 J1.649 
G02 X199.98 Y474.265 I0.291 J-0.008 
G01 X199.961 Y475.274 
G02 X200.811 Y474.974 I0.006 J-1.336 
G03 X203.188 Y472.924 I21.188 J22.165 
G02 X203.513 Y471.497 I-1.023 J-0.983 
G03 X207.338 Y461.432 I10.674 J-1.702 
X208.253 Y460.7 I6.418 J7.085 
G01 X191.735 Y460.7 
G03 X198.607 Y473.007 I-10.148 J13.738 
X198.724 Y474.139 I-10.259 J1.632 
G02 X199.961 Y475.274 I1.278 J-0.151 
G01 X199.942 Y476.279 
G02 X201.437 Y475.759 I0.024 J-2.339 
G03 X203.592 Y473.897 I16.105 J16.461 
G02 X204.496 Y471.313 I-1.395 J-1.938 
G03 X207.971 Y462.207 I9.692 J-1.517 
X211.939 Y459.7 I10.19 J11.735 
G01 X188.048 Y459.7 
G03 X197.615 Y473.13 I-6.493 J14.747 
X197.733 Y474.285 I-10.149 J1.62 
G02 X199.942 Y476.279 I2.27 J-0.294 
G01 X199.925 Y477.282 
G02 X202.07 Y476.538 I0.042 J-3.34 
G03 X204.231 Y474.667 I16.177 J16.5 
G02 X205.481 Y471.138 I-2.002 J-2.695 
G03 X208.6 Y462.986 I8.697 J-1.345 
X216.298 Y459.476 I9.813 J11.326 
G01 X216.298 Y458.7 
X183.7 Y458.7 
X183.7 Y459.479 
G03 X196.623 Y473.253 I-2.158 J14.974 
X196.741 Y474.422 I-9.864 J1.586 
G02 X199.925 Y477.282 I3.26 J-0.427 
G01 X199.903 Y478.284 
G02 X202.709 Y477.311 I0.072 J-4.323 
G03 X204.871 Y475.436 I16.302 J16.613 
G02 X206.588 Y471.965 I-2.613 J-3.452 
X206.466 Y470.964 I-4.57 J0.049 
G03 X207.608 Y465.579 I7.801 J-1.159 
X209.23 Y463.765 I6.537 J4.213 
X217.298 Y460.366 I9.209 J10.585 
G01 X217.298 Y457.7 
X182.7 Y457.7 
X182.7 Y460.367 
G03 X195.631 Y473.376 I-1.165 J14.089 
X195.748 Y474.554 I-9.137 J1.502 
G02 X199.903 Y478.284 I4.253 J-0.558 
G01 X199.884 Y479.286 
G02 X203.35 Y478.083 I0.096 J-5.316 
G03 X205.517 Y476.202 I15.694 J15.891 
G02 X206.472 Y475.246 I-3.616 J-4.567 
X207.451 Y470.791 I-4.16 J-3.249 
G03 X207.619 Y467.976 I7.238 J-0.98 
X209.862 Y464.541 I6.482 J1.782 
X218.298 Y461.321 I8.58 J9.819 
G01 X218.298 Y456.7 
X181.7 Y456.7 
X181.7 Y461.319 
G03 X194.639 Y473.497 I-0.166 J13.139 
X194.755 Y474.681 I-8.511 J1.431 
G02 X199.884 Y479.286 I5.246 J-0.684 
G01 X200.389 Y480.276 
G02 X203.369 Y479.307 I-0.417 J-6.35 
G01 X203.992 Y478.854 
G03 X206.166 Y476.965 I15.225 J15.326 
G01 X206.829 Y476.36 
G02 X208.532 Y472.865 I-4.495 J-4.353 
X208.556 Y471.305 I-5.94 J-0.871 
G03 X208.448 Y468.871 I6.672 J-1.515 
X210.493 Y465.318 I5.651 J0.887 
X219.298 Y462.35 I7.953 J9.051 
G01 X219.298 Y455.7 
X180.7 Y455.7 
X180.7 Y462.347 
G03 X193.647 Y473.618 I0.834 J12.112 
X193.761 Y474.801 I-8.214 J1.388 
G02 X198.82 Y480.174 I6.231 J-0.798 
X200.389 Y480.276 I1.177 J-5.994 
G01 X200.454 Y481.276 
X201.365 Y481.158 
X202.251 Y480.931 
X203.102 Y480.595 
X203.906 Y480.153 
X204.634 Y479.624 
G03 X206.816 Y477.728 I14.974 J15.03 
G01 X207.551 Y477.056 
X208.144 Y476.358 
X208.646 Y475.592 
X209.047 Y474.771 
X209.341 Y473.904 
X209.525 Y473.006 
X209.597 Y472.093 
X209.552 Y471.188 
G03 X209.379 Y469.659 I6.905 J-1.555 
X211.125 Y466.094 I4.713 J0.098 
X220.298 Y463.469 I7.34 J8.31 
G01 X220.298 Y454.7 
X179.7 Y454.7 
X179.7 Y463.466 
G03 X192.655 Y473.738 I1.829 J10.998 
X192.767 Y474.924 I-7.881 J1.342 
G01 X192.936 Y475.812 
X193.219 Y476.683 
X193.607 Y477.51 
X194.1 Y478.284 
X194.683 Y478.99 
X195.35 Y479.614 
X196.091 Y480.154 
X196.894 Y480.595 
X197.745 Y480.931 
X198.631 Y481.158 
X199.542 Y481.276 
X200.454 Y481.276 
X200.518 Y482.276 
X201.554 Y482.143 
X202.561 Y481.885 
X203.529 Y481.502 
X204.443 Y480.999 
X205.276 Y480.394 
G03 X207.465 Y478.49 I14.99 J15.024 
G01 X208.272 Y477.752 
X208.947 Y476.959 
X209.517 Y476.088 
X209.974 Y475.153 
X210.309 Y474.167 
X210.518 Y473.146 
X210.599 Y472.108 
X210.548 Y471.075 
G03 X210.377 Y469.73 I6.5 J-1.509 
X211.757 Y466.871 I3.713 J0.029 
X221.299 Y464.711 I6.731 J7.579 
G01 X221.299 Y453.7 
X178.7 Y453.7 
X178.7 Y464.708 
G03 X191.662 Y473.857 I2.818 J9.762 
X191.773 Y475.045 I-7.224 J1.274 
G01 X191.966 Y476.061 
X192.288 Y477.052 
X192.73 Y477.993 
X193.29 Y478.873 
X193.953 Y479.677 
X194.712 Y480.387 
X195.554 Y481 
X196.468 Y481.502 
X197.436 Y481.885 
X198.443 Y482.143 
X199.479 Y482.276 
X200.518 Y482.276 
X200.582 Y483.276 
X201.742 Y483.128 
X202.871 Y482.839 
X203.956 Y482.409 
X204.98 Y481.846 
X205.919 Y481.164 
G03 X208.114 Y479.252 I14.88 J14.867 
G01 X208.993 Y478.449 
X209.75 Y477.56 
X210.389 Y476.584 
X210.901 Y475.535 
X211.277 Y474.43 
X211.511 Y473.286 
X211.601 Y472.123 
X211.544 Y470.956 
G03 X211.376 Y469.792 I6.181 J-1.486 
X212.391 Y467.645 I2.707 J-0.033 
X222.3 Y466.135 I6.11 J6.834 
G01 X222.3 Y452.7 
X193.665 Y452.7 
X192.432 Y452.7 
X177.7 Y452.7 
X177.7 Y466.132 
X177.703 Y466.13 
G03 X190.669 Y473.977 I3.804 J8.349 
X190.778 Y475.163 I-6.417 J1.187 
G01 X190.996 Y476.31 
X191.357 Y477.421 
X191.853 Y478.476 
X192.48 Y479.462 
X193.223 Y480.363 
X194.074 Y481.16 
X195.018 Y481.846 
X196.042 Y482.409 
X197.127 Y482.839 
X198.256 Y483.128 
X199.416 Y483.276 
X200.582 Y483.276 
G00 Z5
X145.3 Y502.3
Z2
G01 Z6 F100
X145.3 Y489.7 F200
X144.7 Y489.7 
X144.7 Y502.3 
X145.3 Y502.3 
X146.3 Y503.3 
X146.3 Y488.7 
X143.7 Y488.7 
X143.7 Y503.3 
X146.3 Y503.3 
G00 Z5
X254.7 Y489.7
Z2
G01 Z6 F100
X254.7 Y502.299 F200
X255.297 Y502.299 
X255.297 Y489.7 
X254.7 Y489.7 
X253.7 Y503.028 
X253.7 Y503.3 
X256.297 Y503.299 
X256.297 Y502.162 
X256.297 Y500.845 
X256.297 Y498.39 
X256.297 Y496.582 
X256.297 Y488.7 
X255.276 Y488.7 
X255.147 Y488.7 
X254.658 Y488.7 
X254.488 Y488.7 
X253.7 Y488.7 
X253.7 Y491.87 
X253.7 Y494.469 
X253.7 Y496.607 
X253.7 Y500.571 
X253.7 Y501.382 
X253.7 Y502.159 
X253.7 Y502.625 
X253.7 Y502.674 
X253.7 Y503.028 
X257.299 Y504.3 
X257.299 Y502.328 
X257.299 Y500.127 
X257.299 Y495.709 
X257.299 Y495.051 
X257.299 Y487.7 
X256.158 Y487.7 
X255.976 Y487.7 
X255.894 Y487.7 
X255.696 Y487.7 
X253.702 Y487.7 
X253.21 Y487.7 
X252.7 Y487.7 
X252.7 Y488.721 
X252.7 Y492.393 
X252.7 Y498.19 
X252.7 Y498.588 
X252.7 Y499.849 
X252.7 Y500.163 
X252.7 Y501.917 
X252.7 Y502.784 
X252.7 Y504.3 
X255.669 Y504.3 
X257.165 Y504.3 
X257.258 Y504.3 
X257.299 Y504.3 
G00 Z5
X147.3 Y504.3
Z2
G01 Z6 F100
X147.3 Y487.7 F200
X142.7 Y487.7 
X142.7 Y504.3 
X147.3 Y504.3 
G00 Z5
X200.646 Y484.276
Z2
G01 Z6 F100
X201.93 Y484.113 F200
X203.181 Y483.792 
X204.383 Y483.316 
X205.517 Y482.693 
X206.563 Y481.933 
G03 X208.059 Y480.557 I17.581 J17.613 
X208.758 Y480.019 I7.342 J8.816 
G02 X209.714 Y479.146 I-182.289 J-200.581 
G01 X210.553 Y478.161 
X211.261 Y477.079 
X211.828 Y475.917 
X212.244 Y474.693 
X212.504 Y473.426 
X212.603 Y472.137 
X212.54 Y470.845 
X212.4 Y470.051 
G03 X212.91 Y468.518 I1.672 J-0.295 
X223.3 Y467.867 I5.589 J5.977 
G01 X223.3 Y451.7 
X203.375 Y451.7 
X201.634 Y451.7 
X176.7 Y451.7 
X176.7 Y463.129 
X176.7 Y463.997 
X176.7 Y467.867 
G03 X189.678 Y474.111 I4.807 J6.616 
G01 X189.727 Y474.391 
X189.784 Y475.289 
X190.026 Y476.56 
X190.426 Y477.79 
X190.976 Y478.96 
X191.67 Y480.051 
X192.493 Y481.049 
X193.436 Y481.933 
X194.482 Y482.693 
X195.616 Y483.316 
X196.818 Y483.792 
X198.069 Y484.113 
X199.353 Y484.276 
X200.646 Y484.276 
G00 Z5
X88.7 Y425.824
Z2
G01 Z6 F100
X88.7 Y445.775 F200
G03 X89.071 Y445.399 I2.998 J2.587 
G01 X90.039 Y444.599 
X90.21 Y444.474 
X91.27 Y443.801 
X91.457 Y443.699 
X92.593 Y443.164 
X92.793 Y443.085 
X93.988 Y442.697 
X94.194 Y442.644 
X95.427 Y442.409 
X95.639 Y442.382 
G03 X97 Y442.3 I1.855 J19.457 
G01 X103.637 Y442.3 
G03 X104.208 Y442.284 I0.367 J2.9 
G02 X110.291 Y435.877 I-0.405 J-6.476 
G03 X110.284 Y435.391 I2.669 J-0.281 
G02 X108.246 Y431.063 I-6.489 J0.412 
X104.614 Y429.354 I-4.443 J4.729 
G01 X103.746 Y429.3 
X97 Y429.3 
G03 X95.639 Y429.217 I0.943 J-26.67 
G01 X95.427 Y429.19 
X94.194 Y428.955 
X93.988 Y428.902 
X92.793 Y428.514 
X92.593 Y428.435 
X91.457 Y427.9 
X91.27 Y427.798 
X90.21 Y427.125 
X90.039 Y427 
X89.071 Y426.2 
G03 X88.7 Y425.824 I2.627 J-2.963 
G00 Z5
X304.738 Y373.289
Z2
G01 Z6 F100
G02 X307.25 Y366.88 I-0.24 J-3.79 F200
G01 X297.797 Y357.428 
G03 X297.3 Y356.226 I1.204 J-1.201 
G01 X297.3 Y355.467 
X296.035 Y356.162 
X294.43 Y357.328 
X292.984 Y358.686 
X291.72 Y360.215 
X290.657 Y361.889 
X290.464 Y362.3 
G03 X291.557 Y362.332 I0.381 J5.668 
X292.428 Y362.797 I-0.336 J1.677 
G01 X301.674 Y372.044 
G02 X304.738 Y373.289 I2.827 J-2.564 
G00 Z5
X95.738 Y373.289
Z2
G01 Z6 F100
G02 X98.325 Y372.043 I-0.247 J-3.822 F200
G01 X107.571 Y362.797 
G03 X108.774 Y362.3 I1.201 J1.204 
G01 X109.535 Y362.3 
X109.342 Y361.889 
X108.279 Y360.215 
X107.015 Y358.686 
X105.569 Y357.328 
X103.964 Y356.162 
X102.7 Y355.467 
G03 X102.667 Y356.557 I-5.483 J0.379 
X102.202 Y357.428 I-1.677 J-0.336 
G01 X92.748 Y366.88 
G02 X95.738 Y373.289 I2.751 J2.618 
G00 Z5
X299.08 Y271.269
Z2
G01 Z6 F100
G03 X303.705 Y268.846 I5.407 J4.696 F200
G01 X304.975 Y268.767 
G02 X304.975 Y261.232 I-0.475 J-3.767 
G01 X303.705 Y261.153 
G03 X299.08 Y258.73 I0.782 J-7.119 
G01 X298.451 Y259.32 
X297.788 Y260.122 
X297.229 Y261.002 
X296.785 Y261.946 
X296.463 Y262.936 
X296.268 Y263.96 
X296.203 Y264.999 
X296.268 Y266.039 
X296.463 Y267.063 
X296.785 Y268.053 
X297.229 Y268.997 
X297.787 Y269.876 
X298.451 Y270.678 
G02 X299.08 Y271.269 I53.576 J-56.391 
G00 Z5
X297.3 Y174.532
Z2
G01 Z6 F100
G03 X297.332 Y173.442 I5.67 J-0.379 F200
X297.797 Y172.571 I1.677 J0.336 
G01 X307.25 Y163.119 
G02 X302.08 Y157.574 I-2.75 J-2.618 
G01 X301.674 Y157.955 
X292.428 Y167.202 
G03 X291.226 Y167.7 I-1.205 J-1.21 
G01 X290.464 Y167.7 
X290.657 Y168.11 
X291.72 Y169.784 
X292.984 Y171.313 
X294.43 Y172.671 
X296.035 Y173.837 
X297.3 Y174.532 
G00 Z5
X102.7 Y173.774
Z2
G01 Z6 F100
X102.7 Y174.532 F200
X103.964 Y173.837 
G02 X105.569 Y172.671 I-555.614 J-766.491 
G01 X107.015 Y171.313 
X108.279 Y169.784 
X109.342 Y168.11 
X109.535 Y167.7 
G03 X108.442 Y167.667 I-0.38 J-5.514 
X107.571 Y167.202 I0.336 J-1.677 
G01 X98.325 Y157.956 
G02 X92.428 Y162.731 I-2.822 J2.543 
G01 X92.748 Y163.119 
X102.202 Y172.571 
G03 X102.7 Y173.774 I-1.21 J1.205 
G00 Z5
X200.521 Y168.78
Z2
G01 Z6 F100
X201.555 Y168.649 F200
X202.563 Y168.391 
G02 X203.532 Y168.006 I-93.375 J-236.427 
G01 X204.445 Y167.504 
X205.288 Y166.892 
G03 X206.048 Y166.178 I84.865 J89.571 
G01 X206.265 Y165.916 
G03 X203.846 Y161.294 I4.702 J-5.405 
G01 X203.767 Y160.024 
G02 X203.529 Y159.101 I-3.775 J0.481 
G01 X203.529 Y159.1 
G02 X196.232 Y160.024 I-3.529 J1.4 
G01 X196.153 Y161.294 
G03 X193.734 Y165.916 I-7.121 J-0.783 
G01 X193.951 Y166.178 
X194.711 Y166.892 
X195.554 Y167.504 
X196.467 Y168.006 
X197.436 Y168.391 
X198.444 Y168.649 
X199.478 Y168.78 
X200.521 Y168.78 
G00 Z5
X211.171 Y148.3
Z2
G01 Z6 F100
G03 X210.3 Y145 I5.873 J-3.315 F200
G01 X210.3 Y138.053 
X210.215 Y136.709 
X209.973 Y135.439 
X209.573 Y134.209 
X209.023 Y133.039 
X208.329 Y131.948 
X207.505 Y130.95 
X206.563 Y130.065 
X205.517 Y129.306 
X204.383 Y128.683 
X203.181 Y128.207 
X201.93 Y127.886 
X200.646 Y127.724 
X200.263 Y127.724 
G03 X199.872 Y127.711 I-0.131 J-1.931 
G01 X198.709 Y127.784 
X197.439 Y128.026 
X196.209 Y128.426 
X195.039 Y128.976 
X193.948 Y129.67 
X192.95 Y130.493 
X192.066 Y131.436 
X191.306 Y132.482 
X190.683 Y133.616 
X190.207 Y134.818 
X189.886 Y136.069 
X189.724 Y137.353 
G03 X189.7 Y138.243 I-4.517 J0.323 
G01 X189.7 Y145 
G03 X188.828 Y148.3 I-6.738 J-0.015 
G01 X203.458 Y148.3 
X203.722 Y148.3 
X211.171 Y148.3 
G00 Z5
X257.3 Y124.3
Z2
G01 Z6 F100
X257.3 Y107.7 F200
X252.7 Y107.7 
X252.7 Y124.3 
X257.3 Y124.3 
G00 Z5
X147.3 Y124.3
Z2
G01 Z6 F100
X147.3 Y107.7 F200
X142.7 Y107.7 
X142.7 Y124.3 
X147.3 Y124.3 
G00 Z5
(Sketch 129)
X28.469 Y337.596 S7000 M03
Z2
G01 Z17 F100
G02 X26.928 Y336.321 I-0.77 J-0.637 F200
G01 X26.507 Y336.83 
X25.801 Y337.943 
X25.24 Y339.136 
X24.832 Y340.389 
X24.585 Y341.684 
X24.502 Y343 
X24.585 Y344.315 
X24.832 Y345.61 
X25.24 Y346.863 
X25.801 Y348.056 
X26.507 Y349.169 
X27.348 Y350.186 
X28.308 Y351.087 
X29.375 Y351.863 
X30.53 Y352.498 
X31.756 Y352.983 
X33.032 Y353.31 
X34.34 Y353.476 
X35.659 Y353.476 
X36.967 Y353.31 
X38.243 Y352.983 
X39.469 Y352.498 
X40.624 Y351.863 
X41.691 Y351.087 
X42.651 Y350.186 
X43.492 Y349.169 
X44.198 Y348.056 
X44.759 Y346.863 
X45.167 Y345.61 
X45.414 Y344.315 
X45.497 Y343 
X45.414 Y341.684 
X45.167 Y340.389 
X44.759 Y339.136 
X44.198 Y337.943 
X43.492 Y336.83 
X42.651 Y335.813 
X41.691 Y334.912 
X40.624 Y334.136 
X39.469 Y333.501 
X38.243 Y333.016 
X36.967 Y332.689 
X35.659 Y332.524 
X34.34 Y332.524 
X33.032 Y332.689 
X31.756 Y333.016 
X30.53 Y333.501 
X29.375 Y334.136 
X28.308 Y334.912 
X27.348 Y335.813 
X26.928 Y336.321 
G02 X28.469 Y337.596 I0.77 J0.637 
G00 Z5
G90
(Sketch 131)
X18.483 Y343.092 S7000 M03
Z2
G01 Z17 F100
G02 X20.447 Y343.467 I0.982 J0.187 F200
G01 X20.477 Y343.312 
X20.497 Y343 
X20.477 Y342.687 
X20.418 Y342.379 
X20.321 Y342.081 
X20.188 Y341.796 
X20.02 Y341.532 
X19.82 Y341.29 
X19.591 Y341.076 
X19.338 Y340.892 
X19.063 Y340.74 
X18.771 Y340.625 
X18.467 Y340.547 
X18.156 Y340.508 
X17.843 Y340.508 
X17.532 Y340.547 
X17.228 Y340.625 
X16.936 Y340.74 
X16.661 Y340.892 
X16.408 Y341.076 
X16.179 Y341.29 
X15.979 Y341.532 
X15.811 Y341.796 
X15.678 Y342.081 
X15.581 Y342.378 
X15.522 Y342.687 
X15.502 Y343 
X15.522 Y343.312 
X15.581 Y343.621 
X15.678 Y343.918 
X15.811 Y344.203 
X15.979 Y344.467 
X16.179 Y344.709 
X16.408 Y344.923 
X16.661 Y345.107 
X16.936 Y345.259 
X17.228 Y345.374 
X17.532 Y345.452 
X17.843 Y345.492 
X18.156 Y345.492 
X18.467 Y345.452 
X18.771 Y345.374 
X19.063 Y345.259 
X19.338 Y345.107 
X19.591 Y344.923 
X19.82 Y344.709 
X20.02 Y344.467 
X20.188 Y344.203 
X20.321 Y343.918 
X20.418 Y343.62 
X20.447 Y343.467 
G02 X18.483 Y343.092 I-0.982 J-0.187 
G00 Z5
G90
(Sketch 117)
X30.5 Y453 S7000 M03
Z2
G01 Z17 F100
G02 X28.5 Y453 I-1 J0 F200
G01 X28.5 Y461.5 
X41.5 Y461.5 
X41.5 Y444.5 
X28.5 Y444.5 
X28.5 Y453 
G02 X30.5 Y453 I1 J0 
G00 Z5
G90
(Sketch 77)
X55 Y512 S7000 M03
Z2
G01 Z17 F100
G02 X55 Y514 I0 J1 F200
G01 X63.5 Y514 
X63.5 Y501 
X46.5 Y501 
X46.5 Y514 
X55 Y514 
G02 X55 Y512 I0 J-1 
G00 Z5
G90
(Sketch 78)
X200 Y512 S7000 M03
Z2
G01 Z17 F100
G02 X200 Y514 I0 J1 F200
G01 X208.5 Y514 
X208.5 Y501 
X191.5 Y501 
X191.5 Y514 
X200 Y514 
G02 X200 Y512 I0 J-1 
G00 Z5
G90
(Sketch 87)
G90
(Sketch 114)
X206.494 Y464.623 S7000 M03
Z2
G01 Z17 F100
G02 X207.482 Y462.884 I0.494 J-0.869 F200
G01 X206.909 Y462.558 
X205.69 Y462.056 
X204.418 Y461.711 
X203.113 Y461.527 
X201.795 Y461.509 
X200.484 Y461.656 
X199.204 Y461.965 
X197.971 Y462.433 
X196.807 Y463.052 
X195.728 Y463.815 
X195.658 Y463.878 
G03 X195.538 Y463.976 I-1.006 J-1.112 
G01 X195.285 Y464.16 
X195.22 Y464.222 
G03 X195.096 Y464.328 I-1.031 J-1.088 
G01 X194.845 Y464.518 
X194.78 Y464.582 
G03 X194.66 Y464.688 I-1.048 J-1.072 
G01 X194.412 Y464.883 
X194.345 Y464.95 
G03 X194.231 Y465.054 I-1.064 J-1.056 
G01 X193.987 Y465.254 
X193.922 Y465.322 
G03 X193.806 Y465.431 I-1.084 J-1.036 
G01 X193.565 Y465.635 
X193.501 Y465.704 
G03 X193.391 Y465.811 I-1.1 J-1.019 
G01 X193.153 Y466.02 
X193.091 Y466.09 
G03 X192.979 Y466.202 I-1.119 J-0.998 
G01 X192.747 Y466.413 
X192.688 Y466.482 
G03 X192.575 Y466.6 I-1.138 J-0.976 
G01 X192.347 Y466.814 
X191.507 Y467.83 
X190.801 Y468.943 
X190.24 Y470.136 
X189.832 Y471.389 
X189.586 Y472.684 
X189.502 Y474 
X189.586 Y475.315 
X189.832 Y476.61 
X190.24 Y477.863 
X190.801 Y479.056 
X191.507 Y480.169 
X192.347 Y481.186 
X193.308 Y482.087 
X194.375 Y482.863 
X195.53 Y483.498 
X196.756 Y483.983 
X198.032 Y484.31 
X199.341 Y484.476 
X200.658 Y484.476 
X201.967 Y484.31 
X203.243 Y483.983 
X204.469 Y483.498 
X205.624 Y482.863 
X206.691 Y482.087 
X207.721 Y481.121 
G03 X207.735 Y481.107 I1.026 J1.093 
G01 X207.863 Y480.99 
G03 X207.882 Y480.974 I1.012 J1.107 
G01 X208.012 Y480.859 
G03 X208.035 Y480.839 I0.993 J1.123 
G01 X208.167 Y480.727 
G03 X208.186 Y480.711 I0.97 J1.143 
G01 X208.32 Y480.601 
G03 X208.344 Y480.582 I0.951 J1.159 
G01 X208.48 Y480.475 
G03 X208.499 Y480.46 I0.927 J1.178 
G01 X208.637 Y480.355 
G03 X208.657 Y480.34 I0.908 J1.193 
G01 X208.797 Y480.237 
G03 X208.818 Y480.222 I0.888 J1.208 
G01 X208.883 Y480.175 
X209.858 Y479.285 
X210.713 Y478.281 
X211.435 Y477.178 
X212.013 Y475.994 
X212.437 Y474.746 
X212.702 Y473.454 
X212.804 Y472.14 
X212.739 Y470.823 
X212.511 Y469.525 
X212.121 Y468.266 
X211.575 Y467.065 
X210.885 Y465.942 
X210.06 Y464.915 
X209.111 Y463.999 
X208.056 Y463.21 
X207.482 Y462.884 
G02 X206.494 Y464.623 I-0.494 J0.869 
G00 Z5
G90
(Sketch 120)
G90
(Sketch 119)
G90
(Sketch 79)
X345 Y512 S7000 M03
Z2
G01 Z17 F100
G02 X345 Y514 I0 J1 F200
G01 X353.5 Y514 
X353.5 Y501 
X336.5 Y501 
X336.5 Y514 
X345 Y514 
G02 X345 Y512 I0 J-1 
G00 Z5
G90
(Sketch 118)
X360.5 Y453 S7000 M03
Z2
G01 Z17 F100
G02 X358.5 Y453 I-1 J0 F200
G01 X358.5 Y461.5 
X371.5 Y461.5 
X371.5 Y444.5 
X358.5 Y444.5 
X358.5 Y453 
G02 X360.5 Y453 I1 J0 
G00 Z5
G90
(Sketch 132)
X381.937 Y342.511 S7000 M03
Z2
G01 Z17 F100
G02 X381.687 Y340.527 I-0.125 J-0.992 F200
G01 X381.531 Y340.547 
X381.228 Y340.625 
X380.937 Y340.74 
X380.661 Y340.892 
X380.407 Y341.076 
X380.179 Y341.29 
X379.98 Y341.532 
X379.812 Y341.796 
X379.678 Y342.081 
X379.581 Y342.378 
X379.523 Y342.687 
X379.503 Y343 
X379.523 Y343.312 
X379.581 Y343.621 
X379.678 Y343.918 
X379.812 Y344.203 
X379.98 Y344.467 
X380.179 Y344.709 
X380.407 Y344.923 
X380.661 Y345.107 
X380.937 Y345.259 
X381.228 Y345.374 
X381.531 Y345.452 
X381.843 Y345.492 
X382.156 Y345.492 
X382.468 Y345.452 
X382.771 Y345.374 
X383.062 Y345.259 
X383.338 Y345.107 
X383.592 Y344.923 
X383.82 Y344.709 
X384.019 Y344.467 
X384.187 Y344.203 
X384.321 Y343.918 
X384.418 Y343.621 
X384.476 Y343.312 
X384.496 Y343 
X384.476 Y342.687 
X384.418 Y342.378 
X384.321 Y342.081 
X384.187 Y341.796 
X384.019 Y341.532 
X383.82 Y341.29 
X383.592 Y341.076 
X383.338 Y340.892 
X383.062 Y340.74 
X382.771 Y340.625 
X382.468 Y340.547 
X382.156 Y340.508 
X381.843 Y340.508 
X381.687 Y340.527 
G02 X381.937 Y342.511 I0.125 J0.992 
G00 Z5
G90
(Sketch 130)
X363.937 Y334.59 S7000 M03
Z2
G01 Z17 F100
G02 X363.687 Y332.606 I-0.125 J-0.992 F200
G01 X363.032 Y332.689 
X361.756 Y333.016 
X360.53 Y333.501 
X359.375 Y334.136 
X358.308 Y334.912 
X357.347 Y335.813 
X356.507 Y336.83 
X355.801 Y337.943 
X355.24 Y339.136 
X354.832 Y340.389 
X354.586 Y341.684 
X354.502 Y343 
X354.586 Y344.315 
X354.832 Y345.61 
X355.24 Y346.863 
X355.801 Y348.056 
X356.507 Y349.169 
X357.347 Y350.186 
X358.308 Y351.087 
X359.375 Y351.863 
X360.53 Y352.498 
X361.756 Y352.983 
X363.032 Y353.31 
X364.341 Y353.476 
X365.658 Y353.476 
X366.967 Y353.31 
X368.243 Y352.983 
X369.469 Y352.498 
X370.624 Y351.863 
X371.691 Y351.087 
X372.652 Y350.186 
X373.492 Y349.169 
X374.198 Y348.056 
X374.759 Y346.863 
X375.167 Y345.61 
X375.413 Y344.315 
X375.497 Y343 
X375.413 Y341.684 
X375.167 Y340.389 
X374.759 Y339.136 
X374.198 Y337.943 
X373.492 Y336.83 
X372.652 Y335.813 
X371.691 Y334.912 
X370.624 Y334.136 
X369.469 Y333.501 
X368.243 Y333.016 
X366.967 Y332.689 
X365.658 Y332.524 
X364.341 Y332.524 
X363.687 Y332.606 
G02 X363.937 Y334.59 I0.125 J0.992 
G00 Z5
G90
(Sketch 92)
X200 Y349.489 S7000 M03
Z2
G01 Z17 F100
G02 X200 Y351.489 I0 J1 F200
G01 X250.831 Y351.489 
X251.328 Y351.426 
X251.814 Y351.301 
X252.281 Y351.116 
X252.721 Y350.874 
X253.127 Y350.58 
X253.492 Y350.236 
X253.813 Y349.849 
X254.081 Y349.426 
X254.295 Y348.971 
X254.451 Y348.494 
X254.544 Y348 
X254.576 Y347.5 
X254.544 Y346.999 
X254.451 Y346.505 
X254.295 Y346.028 
X254.081 Y345.573 
X253.813 Y345.15 
X253.478 Y344.745 
X202.965 Y294.232 
X202.548 Y293.841 
X202.141 Y293.545 
X201.701 Y293.303 
X201.235 Y293.119 
X200.748 Y292.994 
X200.25 Y292.931 
X199.749 Y292.931 
X199.251 Y292.994 
X198.764 Y293.119 
X198.298 Y293.303 
X197.858 Y293.545 
X197.451 Y293.841 
X197.034 Y294.232 
X146.521 Y344.745 
X146.186 Y345.15 
X145.918 Y345.573 
X145.704 Y346.028 
X145.548 Y346.505 
X145.455 Y346.999 
X145.423 Y347.5 
X145.455 Y348 
X145.548 Y348.494 
X145.704 Y348.971 
X145.918 Y349.426 
X146.186 Y349.849 
X146.507 Y350.236 
X146.872 Y350.58 
X147.278 Y350.874 
X147.718 Y351.116 
X148.185 Y351.301 
X148.671 Y351.426 
X149.168 Y351.489 
X200 Y351.489 
G02 X200 Y349.489 I0 J-1 
G00 Z5
G90
(Sketch 98)
X115.511 Y265 S7000 M03
Z2
G01 Z17 F100
G02 X113.511 Y265 I-1 J0 F200
G01 X113.511 Y315.831 
X113.573 Y316.328 
X113.698 Y316.814 
X113.883 Y317.281 
X114.125 Y317.721 
X114.419 Y318.127 
X114.763 Y318.492 
X115.15 Y318.813 
X115.573 Y319.081 
X116.028 Y319.295 
X116.505 Y319.451 
X116.999 Y319.544 
X117.5 Y319.576 
X118 Y319.544 
X118.494 Y319.451 
X118.971 Y319.295 
X119.426 Y319.081 
X119.849 Y318.813 
X120.254 Y318.478 
X170.767 Y267.965 
X171.158 Y267.548 
X171.454 Y267.141 
X171.696 Y266.701 
X171.88 Y266.235 
X172.005 Y265.748 
X172.069 Y265.25 
X172.069 Y264.749 
X172.005 Y264.251 
X171.88 Y263.764 
X171.696 Y263.298 
X171.454 Y262.858 
X171.158 Y262.451 
X170.767 Y262.034 
X120.254 Y211.521 
X119.849 Y211.186 
X119.426 Y210.918 
X118.971 Y210.704 
X118.494 Y210.548 
X118 Y210.455 
X117.5 Y210.423 
X116.999 Y210.455 
X116.505 Y210.548 
X116.028 Y210.704 
X115.573 Y210.918 
X115.15 Y211.186 
X114.763 Y211.507 
X114.419 Y211.872 
X114.125 Y212.278 
X113.883 Y212.718 
X113.698 Y213.185 
X113.573 Y213.671 
X113.511 Y214.168 
X113.511 Y265 
G02 X115.511 Y265 I1 J0 
G00 Z5
G90
(Sketch 97)
X284.489 Y265 S7000 M03
Z2
G01 Z17 F100
G02 X286.489 Y265 I1 J0 F200
G01 X286.489 Y214.168 
X286.426 Y213.671 
X286.301 Y213.185 
X286.116 Y212.718 
X285.874 Y212.278 
X285.58 Y211.872 
X285.236 Y211.507 
X284.849 Y211.186 
X284.426 Y210.918 
X283.971 Y210.704 
X283.494 Y210.548 
X283 Y210.455 
X282.5 Y210.423 
X281.999 Y210.455 
X281.505 Y210.548 
X281.028 Y210.704 
X280.573 Y210.918 
X280.15 Y211.186 
X279.745 Y211.521 
X229.232 Y262.034 
X228.841 Y262.451 
X228.545 Y262.858 
X228.303 Y263.298 
X228.119 Y263.764 
X227.994 Y264.251 
X227.931 Y264.749 
X227.931 Y265.25 
X227.994 Y265.748 
X228.119 Y266.235 
X228.303 Y266.701 
X228.545 Y267.141 
X228.841 Y267.548 
X229.232 Y267.965 
X279.745 Y318.478 
X280.15 Y318.813 
X280.573 Y319.081 
X281.028 Y319.295 
X281.505 Y319.451 
X281.999 Y319.544 
X282.5 Y319.576 
X283 Y319.544 
X283.494 Y319.451 
X283.971 Y319.295 
X284.426 Y319.081 
X284.849 Y318.813 
X285.236 Y318.492 
X285.58 Y318.127 
X285.874 Y317.721 
X286.116 Y317.281 
X286.301 Y316.814 
X286.426 Y316.328 
X286.489 Y315.831 
X286.489 Y265 
G02 X284.489 Y265 I-1 J0 
G00 Z5
G90
(Sketch 106)
X200 Y180.511 S7000 M03
Z2
G01 Z17 F100
G02 X200 Y178.511 I0 J-1 F200
G01 X149.168 Y178.511 
X148.671 Y178.573 
X148.185 Y178.698 
X147.718 Y178.883 
X147.278 Y179.125 
X146.872 Y179.419 
X146.507 Y179.763 
X146.186 Y180.15 
X145.918 Y180.573 
X145.704 Y181.028 
X145.548 Y181.505 
X145.455 Y181.999 
X145.423 Y182.5 
X145.455 Y183 
X145.548 Y183.494 
X145.704 Y183.971 
X145.918 Y184.426 
X146.186 Y184.849 
X146.521 Y185.254 
X197.034 Y235.767 
X197.451 Y236.158 
X197.858 Y236.454 
X198.298 Y236.696 
X198.764 Y236.88 
X199.251 Y237.005 
X199.749 Y237.069 
X200.25 Y237.069 
X200.748 Y237.005 
X201.235 Y236.88 
X201.701 Y236.696 
X202.141 Y236.454 
X202.548 Y236.158 
X202.965 Y235.767 
X253.478 Y185.254 
X253.813 Y184.849 
X254.081 Y184.426 
X254.295 Y183.971 
X254.451 Y183.494 
X254.544 Y183 
X254.576 Y182.5 
X254.544 Y181.999 
X254.451 Y181.505 
X254.295 Y181.028 
X254.081 Y180.573 
X253.813 Y180.15 
X253.492 Y179.763 
X253.127 Y179.419 
X252.721 Y179.125 
X252.281 Y178.883 
X251.814 Y178.698 
X251.328 Y178.573 
X250.831 Y178.511 
X200 Y178.511 
G02 X200 Y180.511 I0 J1 
G00 Z5
G90
(Sketch 142)
X345 Y109 S7000 M03
Z2
G01 Z17 F100
G02 X345 Y111 I0 J1 F200
G01 X353.5 Y111 
X353.5 Y98 
X336.5 Y98 
X336.5 Y111 
X345 Y111 
G02 X345 Y109 I0 J-1 
G00 Z5
G90
(Sketch 144)
X200 Y109 S7000 M03
Z2
G01 Z17 F100
G02 X200 Y111 I0 J1 F200
G01 X208.5 Y111 
X208.5 Y98 
X191.5 Y98 
X191.5 Y111 
X200 Y111 
G02 X200 Y109 I0 J-1 
G00 Z5
G90
(Sketch 143)
X55 Y109 S7000 M03
Z2
G01 Z17 F100
G02 X55 Y111 I0 J1 F200
G01 X63.5 Y111 
X63.5 Y98 
X46.5 Y98 
X46.5 Y111 
X55 Y111 
G02 X55 Y109 I0 J-1 
G00 Z5
G90
(Sketch 89)
X97.5 Y265 S7000 M03
Z2
G01 Z17 F100
G02 X99.5 Y265 I1 J0 F200
G01 X99.5 Y174.395 
X90.43 Y165.325 
G03 X90.335 Y165.221 I1.06 J-1.06 
G01 X89.894 Y164.689 
G03 X89.784 Y164.536 I1.155 J-0.956 
G01 X89.413 Y163.953 
G03 X89.323 Y163.788 I1.266 J-0.803 
G01 X89.028 Y163.163 
G03 X88.959 Y162.988 I1.357 J-0.638 
G01 X88.746 Y162.331 
G03 X88.699 Y162.148 I1.426 J-0.463 
G01 X88.569 Y161.469 
G03 X88.546 Y161.283 I1.473 J-0.28 
G01 X88.502 Y160.594 
G03 X88.502 Y160.405 I1.497 J-0.094 
G01 X88.546 Y159.716 
G03 X88.569 Y159.53 I1.497 J0.094 
G01 X88.699 Y158.851 
G03 X88.746 Y158.668 I1.473 J0.28 
G01 X88.959 Y158.011 
G03 X89.028 Y157.836 I1.426 J0.463 
G01 X89.323 Y157.211 
G03 X89.413 Y157.046 I1.357 J0.638 
G01 X89.784 Y156.463 
G03 X89.894 Y156.31 I1.266 J0.803 
G01 X90.335 Y155.778 
G03 X90.463 Y155.641 I1.155 J0.956 
G01 X90.967 Y155.168 
G03 X91.112 Y155.048 I1.027 J1.093 
G01 X91.671 Y154.642 
G03 X91.829 Y154.541 I0.881 J1.213 
G01 X92.435 Y154.208 
G03 X92.606 Y154.128 I0.723 J1.314 
G01 X93.248 Y153.874 
G03 X93.426 Y153.816 I0.551 J1.394 
G01 X94.095 Y153.644 
G03 X94.282 Y153.608 I0.373 J1.452 
G01 X94.967 Y153.522 
G03 X95.154 Y153.511 I0.186 J1.488 
G01 X95.845 Y153.511 
G03 X96.032 Y153.522 I0 J1.5 
G01 X96.717 Y153.608 
G03 X96.904 Y153.644 I-0.186 J1.488 
G01 X97.573 Y153.816 
G03 X97.751 Y153.874 I-0.373 J1.452 
G01 X98.393 Y154.128 
G03 X98.564 Y154.208 I-0.551 J1.394 
G01 X99.17 Y154.541 
G03 X99.328 Y154.642 I-0.723 J1.314 
G01 X99.887 Y155.048 
G03 X100.032 Y155.168 I-0.881 J1.213 
G01 X100.536 Y155.641 
G03 X100.569 Y155.674 I-1.027 J1.093 
G01 X109.395 Y164.5 
X188.818 Y164.5 
G03 X189 Y164.489 I0.181 J1.489 
G01 X189.251 Y164.489 
X189.749 Y164.426 
X190.235 Y164.301 
X190.701 Y164.117 
X191.141 Y163.875 
X191.547 Y163.58 
X191.913 Y163.236 
X192.234 Y162.848 
X192.502 Y162.426 
X192.716 Y161.972 
X192.871 Y161.494 
X192.965 Y161 
X193.045 Y159.717 
G03 X193.069 Y159.528 I1.497 J0.093 
G01 X193.199 Y158.849 
G03 X193.246 Y158.669 I1.473 J0.282 
G01 X193.459 Y158.012 
G03 X193.528 Y157.836 I1.426 J0.462 
G01 X193.822 Y157.211 
G03 X193.913 Y157.046 I1.357 J0.638 
G01 X194.283 Y156.463 
G03 X194.395 Y156.309 I1.266 J0.803 
G01 X194.836 Y155.777 
G03 X194.963 Y155.642 I1.154 J0.957 
G01 X195.466 Y155.169 
G03 X195.612 Y155.048 I1.027 J1.092 
G01 X196.171 Y154.642 
G03 X196.329 Y154.541 I0.881 J1.213 
G01 X196.934 Y154.208 
G03 X197.106 Y154.128 I0.723 J1.314 
G01 X197.748 Y153.874 
G03 X197.926 Y153.816 I0.551 J1.394 
G01 X198.595 Y153.644 
G03 X198.782 Y153.608 I0.373 J1.452 
G01 X199.468 Y153.522 
G03 X199.655 Y153.511 I0.186 J1.488 
G01 X200.345 Y153.511 
G03 X200.531 Y153.522 I0 J1.5 
G01 X201.217 Y153.608 
G03 X201.404 Y153.644 I-0.186 J1.488 
G01 X202.073 Y153.816 
G03 X202.251 Y153.874 I-0.373 J1.452 
G01 X202.893 Y154.128 
G03 X203.065 Y154.208 I-0.551 J1.394 
G01 X203.67 Y154.541 
G03 X203.828 Y154.642 I-0.723 J1.314 
G01 X204.387 Y155.048 
G03 X204.533 Y155.169 I-0.881 J1.213 
G01 X205.036 Y155.642 
G03 X205.163 Y155.777 I-1.027 J1.092 
G01 X205.604 Y156.309 
G03 X205.716 Y156.463 I-1.154 J0.957 
G01 X206.086 Y157.046 
G03 X206.177 Y157.211 I-1.266 J0.803 
G01 X206.471 Y157.836 
G03 X206.54 Y158.012 I-1.357 J0.638 
G01 X206.753 Y158.669 
G03 X206.8 Y158.849 I-1.426 J0.462 
G01 X206.93 Y159.528 
G03 X206.954 Y159.717 I-1.473 J0.282 
G01 X207.034 Y161 
X207.128 Y161.494 
X207.283 Y161.972 
X207.497 Y162.426 
X207.765 Y162.848 
X208.086 Y163.236 
X208.452 Y163.58 
X208.858 Y163.875 
X209.298 Y164.117 
X209.764 Y164.301 
X210.25 Y164.426 
X210.748 Y164.489 
X211 Y164.489 
G03 X211.181 Y164.5 I0 J1.5 
G01 X290.604 Y164.5 
X299.43 Y155.674 
G03 X299.463 Y155.642 I1.06 J1.06 
G01 X299.966 Y155.169 
G03 X300.112 Y155.048 I1.027 J1.092 
G01 X300.671 Y154.642 
G03 X300.829 Y154.541 I0.881 J1.213 
G01 X301.434 Y154.208 
G03 X301.606 Y154.128 I0.723 J1.314 
G01 X302.248 Y153.874 
G03 X302.426 Y153.816 I0.551 J1.394 
G01 X303.095 Y153.644 
G03 X303.282 Y153.608 I0.373 J1.452 
G01 X303.968 Y153.522 
G03 X304.155 Y153.511 I0.186 J1.488 
G01 X304.845 Y153.511 
G03 X305.031 Y153.522 I0 J1.5 
G01 X305.717 Y153.608 
G03 X305.904 Y153.644 I-0.186 J1.488 
G01 X306.573 Y153.816 
G03 X306.751 Y153.874 I-0.373 J1.452 
G01 X307.393 Y154.128 
G03 X307.565 Y154.208 I-0.551 J1.394 
G01 X308.17 Y154.541 
G03 X308.328 Y154.642 I-0.723 J1.314 
G01 X308.887 Y155.048 
G03 X309.033 Y155.169 I-0.881 J1.213 
G01 X309.536 Y155.642 
G03 X309.663 Y155.777 I-1.027 J1.092 
G01 X310.104 Y156.309 
G03 X310.216 Y156.463 I-1.154 J0.957 
G01 X310.586 Y157.046 
G03 X310.677 Y157.211 I-1.266 J0.803 
G01 X310.971 Y157.836 
G03 X311.04 Y158.012 I-1.357 J0.638 
G01 X311.253 Y158.669 
G03 X311.3 Y158.849 I-1.426 J0.462 
G01 X311.43 Y159.528 
G03 X311.454 Y159.717 I-1.473 J0.282 
G01 X311.497 Y160.406 
G03 X311.497 Y160.593 I-1.497 J0.093 
G01 X311.454 Y161.282 
G03 X311.43 Y161.471 I-1.497 J-0.093 
G01 X311.3 Y162.15 
G03 X311.253 Y162.33 I-1.473 J-0.282 
G01 X311.04 Y162.987 
G03 X310.971 Y163.163 I-1.426 J-0.462 
G01 X310.677 Y163.788 
G03 X310.586 Y163.953 I-1.357 J-0.638 
G01 X310.216 Y164.536 
G03 X310.104 Y164.69 I-1.266 J-0.803 
G01 X309.663 Y165.222 
G03 X309.569 Y165.325 I-1.154 J-0.957 
G01 X300.5 Y174.395 
X300.5 Y253.818 
G03 X300.511 Y254 I-1.489 J0.181 
G01 X300.511 Y254.251 
X300.573 Y254.749 
X300.698 Y255.235 
X300.882 Y255.701 
X301.124 Y256.141 
X301.419 Y256.547 
X301.763 Y256.913 
X302.151 Y257.234 
X302.573 Y257.502 
X303.027 Y257.716 
X303.505 Y257.871 
X303.999 Y257.965 
X305.282 Y258.045 
G03 X305.471 Y258.069 I-0.093 J1.497 
G01 X306.15 Y258.199 
G03 X306.33 Y258.246 I-0.282 J1.473 
G01 X306.987 Y258.459 
G03 X307.163 Y258.528 I-0.462 J1.426 
G01 X307.788 Y258.822 
G03 X307.953 Y258.913 I-0.638 J1.357 
G01 X308.536 Y259.283 
G03 X308.69 Y259.395 I-0.803 J1.266 
G01 X309.222 Y259.836 
G03 X309.357 Y259.963 I-0.957 J1.154 
G01 X309.83 Y260.466 
G03 X309.951 Y260.612 I-1.092 J1.027 
G01 X310.357 Y261.171 
G03 X310.458 Y261.329 I-1.213 J0.881 
G01 X310.791 Y261.934 
G03 X310.871 Y262.106 I-1.314 J0.723 
G01 X311.125 Y262.748 
G03 X311.183 Y262.926 I-1.394 J0.551 
G01 X311.355 Y263.595 
G03 X311.391 Y263.782 I-1.452 J0.373 
G01 X311.477 Y264.468 
G03 X311.489 Y264.655 I-1.488 J0.186 
G01 X311.489 Y265.345 
G03 X311.477 Y265.531 I-1.5 J0 
G01 X311.391 Y266.217 
G03 X311.355 Y266.404 I-1.488 J-0.186 
G01 X311.183 Y267.073 
G03 X311.125 Y267.251 I-1.452 J-0.373 
G01 X310.871 Y267.893 
G03 X310.791 Y268.065 I-1.394 J-0.551 
G01 X310.458 Y268.67 
G03 X310.357 Y268.828 I-1.314 J-0.723 
G01 X309.951 Y269.387 
G03 X309.83 Y269.533 I-1.213 J-0.881 
G01 X309.357 Y270.036 
G03 X309.222 Y270.163 I-1.092 J-1.027 
G01 X308.69 Y270.604 
G03 X308.536 Y270.716 I-0.957 J-1.154 
G01 X307.953 Y271.086 
G03 X307.788 Y271.177 I-0.803 J-1.266 
G01 X307.163 Y271.471 
G03 X306.987 Y271.54 I-0.638 J-1.357 
G01 X306.33 Y271.753 
G03 X306.15 Y271.8 I-0.462 J-1.426 
G01 X305.471 Y271.93 
G03 X305.282 Y271.954 I-0.282 J-1.473 
G01 X303.999 Y272.034 
X303.505 Y272.128 
X303.027 Y272.283 
X302.573 Y272.497 
X302.151 Y272.765 
X301.763 Y273.086 
X301.419 Y273.452 
X301.124 Y273.858 
X300.882 Y274.298 
X300.698 Y274.764 
X300.573 Y275.25 
X300.511 Y275.748 
X300.511 Y276 
G03 X300.5 Y276.181 I-1.5 J0 
G01 X300.5 Y355.604 
X309.569 Y364.674 
G03 X309.663 Y364.777 I-1.06 J1.06 
G01 X310.104 Y365.309 
G03 X310.216 Y365.463 I-1.154 J0.957 
G01 X310.586 Y366.046 
G03 X310.677 Y366.211 I-1.266 J0.803 
G01 X310.971 Y366.836 
G03 X311.04 Y367.012 I-1.357 J0.638 
G01 X311.253 Y367.669 
G03 X311.3 Y367.849 I-1.426 J0.462 
G01 X311.43 Y368.528 
G03 X311.454 Y368.717 I-1.473 J0.282 
G01 X311.497 Y369.406 
G03 X311.497 Y369.593 I-1.497 J0.093 
G01 X311.454 Y370.282 
G03 X311.43 Y370.471 I-1.497 J-0.093 
G01 X311.3 Y371.15 
G03 X311.253 Y371.33 I-1.473 J-0.282 
G01 X311.04 Y371.987 
G03 X310.971 Y372.163 I-1.426 J-0.462 
G01 X310.677 Y372.788 
G03 X310.586 Y372.953 I-1.357 J-0.638 
G01 X310.216 Y373.536 
G03 X310.104 Y373.69 I-1.266 J-0.803 
G01 X309.663 Y374.222 
G03 X309.536 Y374.357 I-1.154 J-0.957 
G01 X309.033 Y374.83 
G03 X308.887 Y374.951 I-1.027 J-1.092 
G01 X308.328 Y375.357 
G03 X308.17 Y375.458 I-0.881 J-1.213 
G01 X307.565 Y375.791 
G03 X307.393 Y375.871 I-0.723 J-1.314 
G01 X306.751 Y376.125 
G03 X306.573 Y376.183 I-0.551 J-1.394 
G01 X305.904 Y376.355 
G03 X305.717 Y376.391 I-0.373 J-1.452 
G01 X305.031 Y376.477 
G03 X304.845 Y376.489 I-0.186 J-1.488 
G01 X304.155 Y376.489 
G03 X303.968 Y376.477 I0 J-1.5 
G01 X303.282 Y376.391 
G03 X303.095 Y376.355 I0.186 J-1.488 
G01 X302.426 Y376.183 
G03 X302.248 Y376.125 I0.373 J-1.452 
G01 X301.606 Y375.871 
G03 X301.434 Y375.791 I0.551 J-1.394 
G01 X300.829 Y375.458 
G03 X300.671 Y375.357 I0.723 J-1.314 
G01 X300.112 Y374.951 
G03 X299.966 Y374.83 I0.881 J-1.213 
G01 X299.463 Y374.357 
G03 X299.43 Y374.325 I1.027 J-1.092 
G01 X290.604 Y365.5 
X109.395 Y365.5 
X100.569 Y374.325 
G03 X100.536 Y374.358 I-1.06 J-1.06 
G01 X100.032 Y374.831 
G03 X99.887 Y374.951 I-1.027 J-1.093 
G01 X99.328 Y375.357 
G03 X99.17 Y375.458 I-0.881 J-1.213 
G01 X98.564 Y375.791 
G03 X98.393 Y375.871 I-0.723 J-1.314 
G01 X97.751 Y376.125 
G03 X97.573 Y376.183 I-0.551 J-1.394 
G01 X96.904 Y376.355 
G03 X96.717 Y376.391 I-0.373 J-1.452 
G01 X96.032 Y376.477 
G03 X95.845 Y376.489 I-0.186 J-1.488 
G01 X95.154 Y376.489 
G03 X94.967 Y376.477 I0 J-1.5 
G01 X94.282 Y376.391 
G03 X94.095 Y376.355 I0.186 J-1.488 
G01 X93.426 Y376.183 
G03 X93.248 Y376.125 I0.373 J-1.452 
G01 X92.606 Y375.871 
G03 X92.435 Y375.791 I0.551 J-1.394 
G01 X91.829 Y375.458 
G03 X91.671 Y375.357 I0.723 J-1.314 
G01 X91.112 Y374.951 
G03 X90.967 Y374.831 I0.881 J-1.213 
G01 X90.463 Y374.358 
G03 X90.335 Y374.221 I1.027 J-1.093 
G01 X89.894 Y373.689 
G03 X89.784 Y373.536 I1.155 J-0.956 
G01 X89.413 Y372.953 
G03 X89.323 Y372.788 I1.266 J-0.803 
G01 X89.028 Y372.163 
G03 X88.959 Y371.988 I1.357 J-0.638 
G01 X88.746 Y371.331 
G03 X88.699 Y371.148 I1.426 J-0.463 
G01 X88.569 Y370.469 
G03 X88.546 Y370.283 I1.473 J-0.28 
G01 X88.502 Y369.594 
G03 X88.502 Y369.405 I1.497 J-0.094 
G01 X88.546 Y368.716 
G03 X88.569 Y368.53 I1.497 J0.094 
G01 X88.699 Y367.851 
G03 X88.746 Y367.668 I1.473 J0.28 
G01 X88.959 Y367.011 
G03 X89.028 Y366.836 I1.426 J0.463 
G01 X89.323 Y366.211 
G03 X89.413 Y366.046 I1.357 J0.638 
G01 X89.784 Y365.463 
G03 X89.894 Y365.31 I1.266 J0.803 
G01 X90.335 Y364.778 
G03 X90.43 Y364.674 I1.155 J0.956 
G01 X99.5 Y355.604 
X99.5 Y265 
G02 X97.5 Y265 I-1 J0 
G00 Z5
G90
(Sketch 88)
X309.5 Y306 S7000 M03
Z2
G01 Z17 F100
G02 X311.5 Y306 I1 J0 F200
G01 X311.5 Y156.416 
G03 X311.441 Y156 I1.441 J-0.416 
G01 X311.441 Y154.21 
X310.992 Y150.66 
X310.102 Y147.193 
X308.785 Y143.866 
X307.061 Y140.73 
X304.957 Y137.835 
X302.507 Y135.226 
X299.75 Y132.944 
X296.729 Y131.028 
X293.49 Y129.504 
X290.087 Y128.397 
X286.571 Y127.728 
X282.952 Y127.5 
X232.244 Y127.5 
G03 X232 Y127.52 I-0.244 J-1.48 
G01 X231.466 Y127.52 
X230.407 Y127.653 
X229.374 Y127.918 
X228.382 Y128.311 
X227.447 Y128.825 
X226.583 Y129.453 
X225.805 Y130.183 
X225.125 Y131.005 
X224.554 Y131.906 
X224.099 Y132.872 
X223.769 Y133.886 
X223.57 Y134.935 
X223.5 Y136.047 
X223.5 Y145 
G03 X223.497 Y145.093 I-1.5 J0 
G01 X223.458 Y145.72 
G03 X223.434 Y145.909 I-1.497 J-0.093 
G01 X223.316 Y146.525 
G03 X223.269 Y146.705 I-1.473 J-0.282 
G01 X223.075 Y147.303 
G03 X223.006 Y147.479 I-1.426 J-0.462 
G01 X222.739 Y148.047 
G03 X222.647 Y148.213 I-1.357 J-0.638 
G01 X222.31 Y148.743 
G03 X222.201 Y148.894 I-1.265 J-0.804 
G01 X221.801 Y149.378 
G03 X221.671 Y149.516 I-1.156 J-0.955 
G01 X221.213 Y149.946 
G03 X221.068 Y150.066 I-1.026 J-1.093 
G01 X220.56 Y150.435 
G03 X220.4 Y150.536 I-0.881 J-1.213 
G01 X219.85 Y150.838 
G03 X219.68 Y150.918 I-0.721 J-1.314 
G01 X219.096 Y151.149 
G03 X218.917 Y151.207 I-0.551 J-1.394 
G01 X218.309 Y151.363 
G03 X218.125 Y151.399 I-0.372 J-1.452 
G01 X217.502 Y151.478 
G03 X217.314 Y151.49 I-0.188 J-1.488 
G01 X217.172 Y151.49 
G03 X217 Y151.5 I-0.172 J-1.49 
G01 X183 Y151.5 
G03 X182.906 Y151.497 I0 J-1.5 
G01 X182.279 Y151.458 
G03 X182.09 Y151.434 I0.093 J-1.497 
G01 X181.474 Y151.316 
G03 X181.294 Y151.269 I0.282 J-1.473 
G01 X180.696 Y151.075 
G03 X180.52 Y151.006 I0.462 J-1.426 
G01 X179.952 Y150.739 
G03 X179.786 Y150.647 I0.638 J-1.357 
G01 X179.256 Y150.31 
G03 X179.105 Y150.201 I0.804 J-1.265 
G01 X178.621 Y149.801 
G03 X178.483 Y149.671 I0.955 J-1.156 
G01 X178.053 Y149.213 
G03 X177.933 Y149.068 I1.093 J-1.026 
G01 X177.564 Y148.56 
G03 X177.463 Y148.4 I1.213 J-0.881 
G01 X177.161 Y147.85 
G03 X177.081 Y147.68 I1.314 J-0.721 
G01 X176.85 Y147.096 
G03 X176.792 Y146.917 I1.394 J-0.551 
G01 X176.636 Y146.309 
G03 X176.6 Y146.125 I1.452 J-0.372 
G01 X176.521 Y145.502 
G03 X176.51 Y145.314 I1.488 J-0.188 
G01 X176.51 Y145.172 
G03 X176.5 Y145 I1.49 J-0.172 
G01 X176.5 Y136.047 
X176.429 Y134.935 
X176.23 Y133.886 
X175.9 Y132.872 
X175.445 Y131.906 
X174.874 Y131.005 
X174.194 Y130.183 
X173.416 Y129.453 
X172.552 Y128.825 
X171.617 Y128.311 
X170.625 Y127.918 
X169.592 Y127.653 
X168.533 Y127.52 
X168 Y127.52 
G03 X167.755 Y127.5 I0 J-1.5 
G01 X117.416 Y127.5 
G03 X117 Y127.559 I-0.416 J-1.441 
G01 X115.21 Y127.559 
X111.66 Y128.007 
X108.193 Y128.897 
X104.866 Y130.214 
X101.73 Y131.938 
X98.835 Y134.042 
X96.226 Y136.492 
X93.945 Y139.249 
X92.027 Y142.271 
X90.504 Y145.509 
X89.398 Y148.912 
X88.727 Y152.428 
X88.5 Y156.047 
X88.5 Y417.357 
G03 X88.519 Y417.6 I-1.48 J0.242 
G01 X88.519 Y418.133 
X88.653 Y419.192 
X88.918 Y420.225 
X89.311 Y421.218 
X89.825 Y422.152 
X90.453 Y423.016 
X91.183 Y423.794 
X92.005 Y424.473 
X92.906 Y425.046 
X93.872 Y425.5 
X94.886 Y425.83 
X95.934 Y426.029 
X97.047 Y426.1 
X103.8 Y426.1 
G03 X103.894 Y426.102 I0 J1.5 
G01 X104.922 Y426.167 
G03 X105.109 Y426.191 I-0.094 J1.497 
G01 X106.12 Y426.384 
G03 X106.301 Y426.431 I-0.281 J1.473 
G01 X107.281 Y426.749 
G03 X107.457 Y426.818 I-0.462 J1.426 
G01 X108.388 Y427.256 
G03 X108.553 Y427.347 I-0.638 J1.357 
G01 X109.423 Y427.899 
G03 X109.576 Y428.01 I-0.803 J1.266 
G01 X110.369 Y428.666 
G03 X110.506 Y428.795 I-0.956 J1.155 
G01 X111.211 Y429.546 
G03 X111.331 Y429.691 I-1.093 J1.026 
G01 X111.936 Y430.524 
G03 X112.037 Y430.682 I-1.213 J0.881 
G01 X112.534 Y431.585 
G03 X112.614 Y431.756 I-1.314 J0.723 
G01 X112.993 Y432.713 
G03 X113.051 Y432.892 I-1.394 J0.552 
G01 X113.307 Y433.889 
G03 X113.343 Y434.075 I-1.452 J0.373 
G01 X113.472 Y435.097 
G03 X113.484 Y435.285 I-1.488 J0.187 
G01 X113.484 Y435.581 
G03 X113.497 Y435.894 I-1.484 J0.218 
G01 X113.432 Y436.922 
G03 X113.408 Y437.109 I-1.497 J-0.094 
G01 X113.215 Y438.12 
G03 X113.168 Y438.301 I-1.473 J-0.281 
G01 X112.85 Y439.281 
G03 X112.781 Y439.457 I-1.426 J-0.462 
G01 X112.343 Y440.388 
G03 X112.252 Y440.553 I-1.357 J-0.638 
G01 X111.7 Y441.423 
G03 X111.589 Y441.576 I-1.266 J-0.803 
G01 X110.933 Y442.369 
G03 X110.804 Y442.506 I-1.155 J-0.956 
G01 X110.053 Y443.211 
G03 X109.908 Y443.331 I-1.026 J-1.093 
G01 X109.075 Y443.936 
G03 X108.917 Y444.037 I-0.881 J-1.213 
G01 X108.014 Y444.534 
G03 X107.843 Y444.614 I-0.723 J-1.314 
G01 X106.886 Y444.993 
G03 X106.707 Y445.051 I-0.552 J-1.394 
G01 X105.71 Y445.307 
G03 X105.524 Y445.343 I-0.373 J-1.452 
G01 X104.502 Y445.472 
G03 X104.315 Y445.484 I-0.187 J-1.488 
G01 X104.018 Y445.484 
G03 X103.8 Y445.5 I-0.218 J-1.484 
G01 X97.047 Y445.5 
X95.934 Y445.57 
X94.886 Y445.769 
X93.872 Y446.099 
X92.906 Y446.553 
X92.005 Y447.126 
X91.183 Y447.805 
X90.453 Y448.583 
X89.825 Y449.447 
X89.311 Y450.381 
X88.918 Y451.374 
X88.653 Y452.407 
X88.519 Y453.466 
X88.519 Y454 
G03 X88.5 Y454.242 I-1.5 J0 
G01 X88.5 Y455.582 
G03 X88.559 Y456 I-1.44 J0.417 
G01 X88.559 Y457.789 
X89.007 Y461.339 
X89.897 Y464.806 
X91.215 Y468.133 
X92.939 Y471.269 
X95.042 Y474.164 
X97.492 Y476.773 
X100.249 Y479.055 
X103.27 Y480.971 
X106.509 Y482.495 
X109.912 Y483.601 
X113.428 Y484.271 
X117.047 Y484.5 
X164.755 Y484.5 
G03 X165 Y484.48 I0.244 J1.48 
G01 X165.533 Y484.48 
X166.592 Y484.346 
X167.625 Y484.081 
X168.617 Y483.688 
X169.552 Y483.174 
X170.416 Y482.546 
X171.194 Y481.816 
X171.874 Y480.994 
X172.445 Y480.093 
X172.9 Y479.127 
X173.23 Y478.113 
X173.429 Y477.064 
X173.5 Y475.952 
X173.5 Y455 
G03 X173.51 Y454.827 I1.5 J0 
G01 X173.51 Y454.686 
G03 X173.521 Y454.497 I1.5 J0 
G01 X173.6 Y453.874 
G03 X173.636 Y453.69 I1.488 J0.188 
G01 X173.792 Y453.082 
G03 X173.85 Y452.903 I1.452 J0.372 
G01 X174.081 Y452.319 
G03 X174.161 Y452.149 I1.394 J0.551 
G01 X174.463 Y451.599 
G03 X174.564 Y451.439 I1.314 J0.721 
G01 X174.933 Y450.931 
G03 X175.053 Y450.786 I1.213 J0.881 
G01 X175.483 Y450.328 
G03 X175.621 Y450.198 I1.093 J1.026 
G01 X176.105 Y449.798 
G03 X176.256 Y449.689 I0.955 J1.156 
G01 X176.786 Y449.352 
G03 X176.952 Y449.26 I0.804 J1.265 
G01 X177.52 Y448.993 
G03 X177.696 Y448.924 I0.638 J1.357 
G01 X178.294 Y448.73 
G03 X178.474 Y448.683 I0.462 J1.426 
G01 X179.09 Y448.565 
G03 X179.279 Y448.541 I0.282 J1.473 
G01 X179.906 Y448.502 
G03 X180 Y448.5 I0.093 J1.497 
G01 X220 Y448.5 
G03 X220.172 Y448.51 I0 J1.5 
G01 X220.314 Y448.51 
G03 X220.502 Y448.521 I0 J1.5 
G01 X221.125 Y448.6 
G03 X221.309 Y448.636 I-0.188 J1.488 
G01 X221.917 Y448.792 
G03 X222.096 Y448.85 I-0.372 J1.452 
G01 X222.68 Y449.081 
G03 X222.85 Y449.161 I-0.551 J1.394 
G01 X223.4 Y449.463 
G03 X223.56 Y449.564 I-0.721 J1.314 
G01 X224.068 Y449.933 
G03 X224.213 Y450.053 I-0.881 J1.213 
G01 X224.671 Y450.483 
G03 X224.801 Y450.621 I-1.026 J1.093 
G01 X225.201 Y451.105 
G03 X225.31 Y451.256 I-1.156 J0.955 
G01 X225.647 Y451.786 
G03 X225.739 Y451.952 I-1.265 J0.804 
G01 X226.006 Y452.52 
G03 X226.075 Y452.696 I-1.357 J0.638 
G01 X226.269 Y453.294 
G03 X226.316 Y453.474 I-1.426 J0.462 
G01 X226.434 Y454.09 
G03 X226.458 Y454.279 I-1.473 J0.282 
G01 X226.497 Y454.906 
G03 X226.5 Y455 I-1.497 J0.093 
G01 X226.5 Y475.952 
X226.57 Y477.064 
X226.769 Y478.113 
X227.099 Y479.127 
X227.554 Y480.093 
X228.125 Y480.994 
X228.805 Y481.816 
X229.583 Y482.546 
X230.447 Y483.174 
X231.382 Y483.688 
X232.374 Y484.081 
X233.407 Y484.346 
X234.466 Y484.48 
X235 Y484.48 
G03 X235.244 Y484.5 I0 J1.5 
G01 X282.583 Y484.5 
G03 X283 Y484.441 I0.416 J1.441 
G01 X284.789 Y484.441 
X288.339 Y483.992 
X291.806 Y483.102 
X295.133 Y481.785 
X298.269 Y480.061 
X301.164 Y477.957 
X303.773 Y475.507 
X306.055 Y472.75 
X307.971 Y469.729 
X309.495 Y466.49 
X310.601 Y463.087 
X311.271 Y459.571 
X311.5 Y455.952 
X311.5 Y306 
G02 X309.5 Y306 I-1 J0 
G00 Z5
G90
(Sketch 76)
X200 Y82.5 S7000 M03
Z2
G01 Z17 F100
G02 X200 Y84.5 I0 J1 F200
G01 X385 Y84.5 
G03 X385.094 Y84.502 I0 J1.5 
G01 X386.347 Y84.581 
G03 X386.533 Y84.605 I-0.094 J1.497 
G01 X387.767 Y84.84 
G03 X387.95 Y84.887 I-0.28 J1.473 
G01 X389.144 Y85.275 
G03 X389.319 Y85.344 I-0.463 J1.426 
G01 X390.456 Y85.879 
G03 X390.621 Y85.97 I-0.638 J1.357 
G01 X391.681 Y86.643 
G03 X391.834 Y86.754 I-0.803 J1.266 
G01 X392.801 Y87.554 
G03 X392.938 Y87.683 I-0.956 J1.155 
G01 X393.798 Y88.598 
G03 X393.918 Y88.744 I-1.093 J1.027 
G01 X394.656 Y89.76 
G03 X394.757 Y89.919 I-1.213 J0.881 
G01 X395.362 Y91.019 
G03 X395.442 Y91.189 I-1.314 J0.722 
G01 X395.905 Y92.356 
G03 X395.963 Y92.537 I-1.394 J0.552 
G01 X396.275 Y93.753 
G03 X396.311 Y93.938 I-1.452 J0.372 
G01 X396.468 Y95.184 
G03 X396.48 Y95.372 I-1.488 J0.187 
G01 X396.48 Y95.755 
G03 X396.5 Y96 I-1.48 J0.244 
G01 X396.5 Y372 
G03 X395 Y373.5 I-1.5 J0 
G01 X356.5 Y373.5 
X356.5 Y386.5 
X395 Y386.5 
G03 X396.5 Y388 I0 J1.5 
G01 X396.5 Y516 
G03 X396.497 Y516.094 I-1.5 J0 
G01 X396.418 Y517.347 
G03 X396.394 Y517.533 I-1.497 J-0.094 
G01 X396.159 Y518.767 
G03 X396.112 Y518.95 I-1.473 J-0.28 
G01 X395.724 Y520.144 
G03 X395.655 Y520.319 I-1.426 J-0.463 
G01 X395.12 Y521.456 
G03 X395.029 Y521.621 I-1.357 J-0.638 
G01 X394.356 Y522.681 
G03 X394.245 Y522.834 I-1.266 J-0.803 
G01 X393.445 Y523.801 
G03 X393.316 Y523.938 I-1.155 J-0.956 
G01 X392.4 Y524.798 
G03 X392.255 Y524.918 I-1.026 J-1.093 
G01 X391.239 Y525.656 
G03 X391.08 Y525.757 I-0.881 J-1.213 
G01 X389.98 Y526.362 
G03 X389.81 Y526.442 I-0.722 J-1.314 
G01 X388.642 Y526.905 
G03 X388.462 Y526.963 I-0.552 J-1.394 
G01 X387.246 Y527.275 
G03 X387.061 Y527.311 I-0.372 J-1.452 
G01 X385.815 Y527.468 
G03 X385.628 Y527.48 I-0.187 J-1.488 
G01 X385.244 Y527.48 
G03 X385 Y527.5 I-0.244 J-1.48 
G01 X15 Y527.5 
G03 X14.905 Y527.497 I0 J-1.5 
G01 X13.652 Y527.418 
G03 X13.465 Y527.394 I0.094 J-1.497 
G01 X12.232 Y527.159 
G03 X12.049 Y527.112 I0.28 J-1.473 
G01 X10.855 Y526.724 
G03 X10.679 Y526.655 I0.463 J-1.426 
G01 X9.543 Y526.12 
G03 X9.378 Y526.029 I0.638 J-1.357 
G01 X8.318 Y525.356 
G03 X8.166 Y525.246 I0.803 J-1.266 
G01 X7.198 Y524.446 
G03 X7.06 Y524.316 I0.955 J-1.156 
G01 X6.201 Y523.4 
G03 X6.081 Y523.255 I1.093 J-1.026 
G01 X5.343 Y522.239 
G03 X5.242 Y522.08 I1.213 J-0.881 
G01 X4.637 Y520.98 
G03 X4.556 Y520.81 I1.314 J-0.722 
G01 X4.094 Y519.642 
G03 X4.036 Y519.463 I1.394 J-0.552 
G01 X3.724 Y518.247 
G03 X3.688 Y518.061 I1.452 J-0.373 
G01 X3.531 Y516.815 
G03 X3.519 Y516.628 I1.488 J-0.187 
G01 X3.519 Y516.242 
G03 X3.5 Y516 I1.48 J-0.242 
G01 X3.5 Y388 
G03 X5 Y386.5 I1.5 J0 
G01 X43.5 Y386.5 
X43.5 Y373.5 
X5 Y373.5 
G03 X3.5 Y372 I0 J-1.5 
G01 X3.5 Y96 
G03 X3.502 Y95.905 I1.5 J0 
G01 X3.581 Y94.652 
G03 X3.605 Y94.465 I1.497 J0.094 
G01 X3.84 Y93.232 
G03 X3.887 Y93.049 I1.473 J0.281 
G01 X4.275 Y91.855 
G03 X4.344 Y91.68 I1.426 J0.463 
G01 X4.879 Y90.543 
G03 X4.97 Y90.378 I1.357 J0.638 
G01 X5.643 Y89.318 
G03 X5.754 Y89.165 I1.266 J0.803 
G01 X6.554 Y88.198 
G03 X6.683 Y88.061 I1.155 J0.956 
G01 X7.598 Y87.201 
G03 X7.744 Y87.081 I1.026 J1.093 
G01 X8.759 Y86.343 
G03 X8.919 Y86.242 I0.881 J1.213 
G01 X10.019 Y85.637 
G03 X10.189 Y85.557 I0.722 J1.314 
G01 X11.357 Y85.094 
G03 X11.536 Y85.036 I0.552 J1.394 
G01 X12.753 Y84.724 
G03 X12.938 Y84.688 I0.373 J1.452 
G01 X14.184 Y84.531 
G03 X14.372 Y84.519 I0.188 J1.488 
G01 X14.757 Y84.519 
G03 X15 Y84.5 I0.242 J1.48 
G01 X200 Y84.5 
G02 X200 Y82.5 I0 J-1 
G00 Z5
G90
(Sketch 147)
X200 Y21.5 S7000 M03
Z2
G01 Z17 F100
G02 X200 Y23.5 I0 J1 F200
G01 X344.757 Y23.5 
G03 X345 Y23.48 I0.242 J1.48 
G01 X345.533 Y23.48 
X346.592 Y23.346 
X347.625 Y23.081 
X348.618 Y22.688 
X349.552 Y22.174 
X350.416 Y21.546 
X351.194 Y20.816 
X351.873 Y19.994 
X352.446 Y19.093 
X352.9 Y18.127 
X353.23 Y17.113 
X353.429 Y16.065 
X353.581 Y13.652 
G03 X353.605 Y13.465 I1.497 J0.094 
G01 X353.84 Y12.232 
G03 X353.887 Y12.049 I1.473 J0.28 
G01 X354.275 Y10.855 
G03 X354.344 Y10.679 I1.426 J0.463 
G01 X354.879 Y9.543 
G03 X354.97 Y9.378 I1.357 J0.638 
G01 X355.643 Y8.318 
G03 X355.753 Y8.166 I1.266 J0.803 
G01 X356.553 Y7.198 
G03 X356.683 Y7.06 I1.156 J0.955 
G01 X357.599 Y6.201 
G03 X357.744 Y6.081 I1.026 J1.093 
G01 X358.76 Y5.343 
G03 X358.919 Y5.242 I0.881 J1.213 
G01 X360.019 Y4.637 
G03 X360.189 Y4.556 I0.722 J1.314 
G01 X361.357 Y4.094 
G03 X361.536 Y4.036 I0.552 J1.394 
G01 X362.752 Y3.724 
G03 X362.938 Y3.688 I0.373 J1.452 
G01 X364.184 Y3.531 
G03 X364.372 Y3.519 I0.187 J1.488 
G01 X364.757 Y3.519 
G03 X365 Y3.5 I0.242 J1.48 
G01 X385 Y3.5 
G03 X385.094 Y3.502 I0 J1.5 
G01 X386.347 Y3.581 
G03 X386.533 Y3.605 I-0.094 J1.497 
G01 X387.767 Y3.84 
G03 X387.95 Y3.887 I-0.28 J1.473 
G01 X389.144 Y4.275 
G03 X389.319 Y4.344 I-0.463 J1.426 
G01 X390.456 Y4.879 
G03 X390.621 Y4.97 I-0.638 J1.357 
G01 X391.681 Y5.643 
G03 X391.834 Y5.754 I-0.803 J1.266 
G01 X392.801 Y6.554 
G03 X392.938 Y6.683 I-0.956 J1.155 
G01 X393.798 Y7.598 
G03 X393.918 Y7.744 I-1.093 J1.027 
G01 X394.656 Y8.76 
G03 X394.757 Y8.919 I-1.213 J0.881 
G01 X395.362 Y10.019 
G03 X395.442 Y10.189 I-1.314 J0.722 
G01 X395.905 Y11.356 
G03 X395.963 Y11.537 I-1.394 J0.552 
G01 X396.275 Y12.753 
G03 X396.311 Y12.938 I-1.452 J0.372 
G01 X396.468 Y14.184 
G03 X396.48 Y14.372 I-1.488 J0.187 
G01 X396.48 Y14.755 
G03 X396.5 Y15 I-1.48 J0.244 
G01 X396.5 Y65 
G03 X395 Y66.5 I-1.5 J0 
G01 X356.5 Y66.5 
X356.5 Y81 
G03 X355 Y82.5 I-1.5 J0 
G01 X335 Y82.5 
G03 X333.5 Y81 I0 J-1.5 
G01 X333.5 Y66.5 
X211.5 Y66.5 
X211.5 Y81 
G03 X210 Y82.5 I-1.5 J0 
G01 X190 Y82.5 
G03 X188.5 Y81 I0 J-1.5 
G01 X188.5 Y66.5 
X66.5 Y66.5 
X66.5 Y81 
G03 X65 Y82.5 I-1.5 J0 
G01 X45 Y82.5 
G03 X43.5 Y81 I0 J-1.5 
G01 X43.5 Y66.5 
X5 Y66.5 
G03 X3.5 Y65 I0 J-1.5 
G01 X3.5 Y15 
G03 X3.502 Y14.905 I1.5 J0 
G01 X3.581 Y13.652 
G03 X3.605 Y13.465 I1.497 J0.094 
G01 X3.84 Y12.232 
G03 X3.887 Y12.049 I1.473 J0.281 
G01 X4.275 Y10.855 
G03 X4.344 Y10.68 I1.426 J0.463 
G01 X4.879 Y9.543 
G03 X4.97 Y9.378 I1.357 J0.638 
G01 X5.643 Y8.318 
G03 X5.754 Y8.166 I1.266 J0.803 
G01 X6.554 Y7.198 
G03 X6.683 Y7.061 I1.155 J0.956 
G01 X7.598 Y6.201 
G03 X7.744 Y6.081 I1.026 J1.093 
G01 X8.76 Y5.343 
G03 X8.919 Y5.242 I0.881 J1.213 
G01 X10.019 Y4.637 
G03 X10.19 Y4.557 I0.722 J1.314 
G01 X11.357 Y4.094 
G03 X11.536 Y4.036 I0.552 J1.394 
G01 X12.753 Y3.724 
G03 X12.938 Y3.688 I0.373 J1.452 
G01 X14.184 Y3.531 
G03 X14.372 Y3.519 I0.187 J1.488 
G01 X14.757 Y3.519 
G03 X15 Y3.5 I0.242 J1.48 
G01 X35 Y3.5 
G03 X35.242 Y3.519 I0 J1.5 
G01 X35.627 Y3.519 
G03 X35.815 Y3.531 I0 J1.5 
G01 X37.061 Y3.688 
G03 X37.246 Y3.724 I-0.187 J1.488 
G01 X38.463 Y4.036 
G03 X38.642 Y4.094 I-0.373 J1.452 
G01 X39.809 Y4.557 
G03 X39.98 Y4.637 I-0.552 J1.394 
G01 X41.08 Y5.242 
G03 X41.239 Y5.343 I-0.722 J1.314 
G01 X42.255 Y6.081 
G03 X42.401 Y6.201 I-0.881 J1.213 
G01 X43.316 Y7.061 
G03 X43.445 Y7.198 I-1.026 J1.093 
G01 X44.245 Y8.166 
G03 X44.356 Y8.318 I-1.155 J0.956 
G01 X45.029 Y9.378 
G03 X45.12 Y9.543 I-1.266 J0.803 
G01 X45.655 Y10.68 
G03 X45.724 Y10.855 I-1.357 J0.638 
G01 X46.112 Y12.049 
G03 X46.159 Y12.231 I-1.426 J0.463 
G01 X46.394 Y13.465 
G03 X46.418 Y13.652 I-1.473 J0.281 
G01 X46.481 Y14.665 
G03 X46.519 Y15 I-1.462 J0.334 
G01 X46.519 Y15.533 
X46.653 Y16.592 
X46.918 Y17.625 
X47.311 Y18.617 
X47.825 Y19.552 
X48.452 Y20.416 
X49.183 Y21.194 
X50.005 Y21.874 
X50.906 Y22.446 
X51.871 Y22.9 
X52.886 Y23.23 
X53.935 Y23.43 
X55.047 Y23.5 
X200 Y23.5 
G02 X200 Y21.5 I0 J-1 
G00 Z5
T0 M06 M02
