(Created with emc2b post processor 2016/07/25 18:40)
(tool change to 3 mm Slot Cutter)
T1 M06 G43
G17 G90 G21
G00 X95.5 Y269.5 S7000 M03
Z5
G83 Q6 G98 X95.5 Y269.5 Z-18 R2 F100
X304.5 Y269.5 
X243 Y220 
X133 Y220 
X157 Y220 
X267 Y220 
X106.5 Y174 
X202 Y173 
X106.5 Y168 
X304.5 Y165 
X106.5 Y162 
X202 Y157 
X157 Y110 
X133 Y110 
X243 Y110 
X200 Y60.5 
X304.5 Y60.5 
X267 Y110 
X95.5 Y60.5 
X106.5 Y156 
G80
G00 X199.858 Y64.787 S7000 M03
Z2
G01 Z-2.75 
G02 X200.643 Y64.732 I0.137 J-3.671 F150
G03 X199.994 Y62.565 I9.455 J-4.012 
X199.349 Y64.736 I-10.438 J-1.92 
G02 X199.858 Y64.787 I0.551 J-2.939 
G01 X199.832 Y65.788 
G02 X202.054 Y65.373 I0.157 J-5.313 
G03 X200.849 Y61.476 I8.637 J-4.805 
G01 X200.785 Y60.43 
G02 X199.213 Y60.417 I-0.786 J0.071 
G03 X198.192 Y64.896 I-10.529 J-0.044 
G01 X197.94 Y65.372 
G02 X199.832 Y65.788 I2.048 J-4.806 
G01 X200.393 Y66.78 
G02 X201.943 Y66.485 I-0.439 J-6.527 
X203.371 Y65.81 I-2.031 J-6.146 
G01 X203.459 Y65.747 
G03 X201.848 Y61.415 I7.359 J-5.202 
G01 X201.779 Y60.287 
G02 X198.218 Y60.285 I-1.78 J0.214 
G03 X198.14 Y61.503 I-14.064 J-0.289 
X196.537 Y65.745 I-8.971 J-0.966 
G01 X196.626 Y65.81 
G02 X198.054 Y66.485 I3.459 J-5.471 
X200.393 Y66.78 I1.944 J-5.997 
G01 X200.457 Y67.78 
X201.367 Y67.664 
X202.253 Y67.438 
X203.104 Y67.099 
X203.908 Y66.657 
X204.649 Y66.119 
X204.861 Y65.92 
G03 X202.847 Y61.355 I6.053 J-5.397 
G01 X202.773 Y60.154 
G02 X197.225 Y60.153 I-2.774 J0.346 
G01 X197.151 Y61.356 
G03 X195.136 Y65.919 I-8.072 J-0.838 
G01 X195.349 Y66.119 
X196.09 Y66.657 
X196.894 Y67.099 
X197.745 Y67.438 
X198.631 Y67.664 
X199.541 Y67.78 
X200.457 Y67.78 
G00 Z5
X296.047 Y70.074
Z2
G01 Z-2.75 F100
X305.02 Y61.104 F150
G02 X303.972 Y59.908 I-0.525 J-0.596 
G01 X303.762 Y60.106 
X294.922 Y68.95 
X295.174 Y69.254 
X296.047 Y70.074 
X296.136 Y71.438 
G03 X296.382 Y71.154 I4.207 J3.395 
G01 X305.764 Y61.775 
G02 X303.345 Y59.126 I-1.267 J-1.271 
G01 X303.066 Y59.389 
X293.842 Y68.616 
G03 X293.553 Y68.864 I-2.965 J-3.163 
G01 X294.444 Y69.941 
X295.706 Y71.125 
X296.136 Y71.438 
X296.45 Y72.902 
G03 X297.089 Y71.862 I2.535 J0.841 
G01 X306.508 Y62.446 
G02 X302.715 Y58.348 I-2.009 J-1.944 
G01 X302.37 Y58.672 
X293.135 Y67.909 
G03 X292.115 Y68.541 I-1.903 J-1.932 
G01 X292.53 Y69.195 
X293.714 Y70.627 
X295.068 Y71.898 
X296.45 Y72.902 
G00 Z5
X103.949 Y70.075
Z2
G01 Z-2.75 F100
X104.822 Y69.255 F150
X105.074 Y68.95 
X96.211 Y60.085 
G02 X95.403 Y59.711 I-0.712 J0.479 
X94.97 Y61.099 I0.114 J0.797 
G01 X103.949 Y70.075 
X103.86 Y71.439 
X104.291 Y71.126 
X105.553 Y69.941 
X106.443 Y68.865 
G03 X106.155 Y68.616 I5.048 J-6.13 
G01 X96.919 Y59.378 
G02 X94.058 Y61.564 I-1.408 J1.121 
G01 X94.229 Y61.772 
X103.615 Y71.155 
G03 X103.86 Y71.439 I-2.71 J2.586 
G01 X103.548 Y72.903 
X104.93 Y71.898 
X106.284 Y70.627 
X107.468 Y69.195 
X107.882 Y68.542 
G03 X106.863 Y67.909 I0.882 J-2.557 
G01 X97.624 Y58.669 
G02 X93.242 Y62.146 I-2.118 J1.83 
G01 X93.488 Y62.445 
X102.909 Y71.863 
G03 X103.548 Y72.903 I-1.907 J1.888 
G00 Z5
X300.261 Y165.647
Z2
G01 Z-2.75 F100
G03 X302.431 Y164.995 I4.002 J9.383 F150
X300.259 Y164.35 I1.899 J-10.375 
G02 X300.261 Y165.647 I3.88 J0.642 
G01 X299.625 Y167.055 
G03 X303.519 Y165.849 I4.832 J8.713 
G01 X304.566 Y165.785 
G02 X304.578 Y164.213 I-0.072 J-0.786 
G03 X300.1 Y163.194 I0.05 J-10.572 
G01 X299.624 Y162.942 
X299.605 Y162.98 
G02 X299.625 Y167.055 I4.888 J2.013 
G01 X299.255 Y168.457 
G03 X303.58 Y166.848 I5.221 J7.419 
G01 X304.71 Y166.779 
G02 X304.712 Y163.218 I-0.214 J-1.78 
G03 X303.494 Y163.14 I0.289 J-14.064 
X299.254 Y161.541 I0.962 J-8.974 
G01 X298.984 Y161.966 
G02 X298.984 Y168.031 I5.521 J3.032 
G01 X299.255 Y168.457 
X299.075 Y169.863 
G03 X303.642 Y167.847 I5.424 J6.107 
G01 X304.844 Y167.773 
G02 X304.845 Y162.225 I-0.346 J-2.774 
G01 X303.642 Y162.151 
G03 X299.075 Y160.134 I0.832 J-8.063 
G01 X298.597 Y160.712 
X298.107 Y161.484 
X297.716 Y162.314 
X297.433 Y163.185 
X297.262 Y164.085 
X297.204 Y164.999 
X297.262 Y165.913 
X297.433 Y166.813 
X297.716 Y167.684 
X298.107 Y168.514 
X298.597 Y169.286 
X299.075 Y169.863 
G00 Z5
X95.543 Y270.282
Z2
G01 Z-2.75 F100
G02 X96.219 Y269.903 I-0.093 J-0.959 F150
G01 X105.075 Y261.045 
X104.822 Y260.741 
X103.949 Y259.92 
X94.971 Y268.897 
G02 X95.543 Y270.282 I0.531 J0.591 
G01 X95.613 Y271.286 
G02 X96.921 Y270.616 I-0.143 J-1.891 
G01 X106.155 Y261.381 
G03 X106.443 Y261.131 I4.183 J4.528 
G01 X105.553 Y260.055 
X104.291 Y258.871 
X103.86 Y258.558 
G03 X103.615 Y258.842 I-5.426 J-4.433 
G01 X94.228 Y268.226 
G02 X95.613 Y271.286 I1.272 J1.267 
G01 X95.678 Y272.288 
G02 X97.624 Y271.329 I-0.196 J-2.853 
G01 X106.863 Y262.089 
G03 X107.882 Y261.455 I1.906 J1.929 
G01 X107.468 Y260.802 
X106.284 Y259.37 
X104.93 Y258.099 
X103.548 Y257.095 
G03 X102.909 Y258.135 I-2.563 J-0.858 
G01 X93.488 Y267.553 
G02 X95.678 Y272.288 I2.012 J1.943 
G00 Z5
X304.543 Y270.282
Z2
G01 Z-2.75 F100
G02 X305.018 Y268.892 I-0.056 J-0.795 F150
G01 X296.051 Y259.917 
X295.174 Y260.74 
X294.922 Y261.046 
X303.963 Y270.09 
G02 X304.543 Y270.282 I0.534 J-0.641 
G01 X304.612 Y271.286 
G02 X305.764 Y268.224 I-0.119 J-1.792 
G01 X296.314 Y258.766 
G03 X296.138 Y258.557 I1.893 J-1.772 
G01 X295.706 Y258.87 
X294.444 Y260.055 
X293.554 Y261.132 
G03 X293.842 Y261.381 I-3.449 J4.281 
G01 X303.078 Y270.619 
G02 X304.612 Y271.286 I1.425 J-1.181 
G01 X304.671 Y272.288 
X305.066 Y272.235 
G02 X306.508 Y267.553 I-0.57 J-2.738 
G01 X297.022 Y258.06 
G03 X296.449 Y257.095 I1.942 J-1.806 
G01 X295.068 Y258.099 
X293.714 Y259.37 
X292.53 Y260.802 
X292.116 Y261.456 
G03 X293.135 Y262.089 I-0.875 J2.546 
G01 X302.375 Y271.331 
G02 X304.671 Y272.288 I2.125 J-1.866 
G01 X304.738 Y273.289 
G02 X307.25 Y266.88 I-0.24 J-3.79 
G01 X297.797 Y257.428 
G03 X297.3 Y256.203 I1.199 J-1.199 
G01 X297.3 Y255.467 
X296.035 Y256.162 
G02 X294.43 Y257.328 I41.118 J58.287 
G03 X292.984 Y258.685 I-80.461 J-84.29 
G01 X291.72 Y260.214 
X290.657 Y261.889 
X290.464 Y262.3 
G03 X291.557 Y262.332 I0.381 J5.668 
X292.428 Y262.797 I-0.336 J1.677 
G01 X301.674 Y272.044 
G02 X304.738 Y273.289 I2.827 J-2.564 
G00 Z5
X95.738 Y273.289
Z2
G01 Z-2.75 F100
G02 X98.325 Y272.043 I-0.247 J-3.822 F150
G01 X107.571 Y262.797 
G03 X108.774 Y262.3 I1.201 J1.204 
G01 X109.535 Y262.3 
X109.342 Y261.889 
X108.279 Y260.214 
X107.015 Y258.685 
X105.569 Y257.328 
X103.964 Y256.162 
X102.7 Y255.467 
G03 X102.667 Y256.557 I-5.483 J0.379 
X102.202 Y257.428 I-1.677 J-0.336 
G01 X92.748 Y266.88 
G02 X95.738 Y273.289 I2.751 J2.618 
G00 Z5
X299.08 Y171.269
Z2
G01 Z-2.75 F100
G03 X303.705 Y168.846 I5.407 J4.696 F150
G01 X304.975 Y168.767 
G02 X304.975 Y161.232 I-0.475 J-3.767 
G01 X303.705 Y161.153 
G03 X299.08 Y158.73 I0.782 J-7.119 
G01 X298.451 Y159.321 
G03 X297.787 Y160.123 I-72.557 J-59.396 
G01 X297.229 Y161.002 
X296.785 Y161.946 
X296.463 Y162.936 
X296.268 Y163.96 
X296.203 Y164.999 
X296.268 Y166.039 
X296.463 Y167.063 
X296.785 Y168.053 
X297.229 Y168.997 
X297.787 Y169.876 
X298.451 Y170.678 
X299.08 Y171.269 
G00 Z5
X297.3 Y74.532
Z2
G01 Z-2.75 F100
G03 X297.332 Y73.442 I5.67 J-0.379 F150
X297.797 Y72.571 I1.677 J0.336 
G01 X307.25 Y63.119 
G02 X302.08 Y57.574 I-2.75 J-2.618 
G01 X301.674 Y57.955 
X292.428 Y67.202 
G03 X291.226 Y67.7 I-1.205 J-1.21 
G01 X290.464 Y67.699 
X290.657 Y68.11 
X291.72 Y69.784 
X292.984 Y71.313 
X294.43 Y72.671 
X296.035 Y73.837 
X297.3 Y74.532 
G00 Z5
X102.7 Y73.774
Z2
G01 Z-2.75 F100
X102.7 Y74.532 F150
X103.964 Y73.837 
X105.569 Y72.671 
X107.015 Y71.313 
X108.279 Y69.784 
X109.342 Y68.11 
X109.535 Y67.699 
G03 X108.442 Y67.667 I-0.387 J-5.441 
X107.571 Y67.202 I0.336 J-1.677 
G01 X98.325 Y57.956 
G02 X92.428 Y62.731 I-2.822 J2.543 
G01 X92.748 Y63.119 
X102.202 Y72.571 
G03 X102.7 Y73.774 I-1.21 J1.205 
G00 Z5
X200.521 Y68.78
Z2
G01 Z-2.75 F100
X201.555 Y68.649 F150
X202.563 Y68.391 
X203.532 Y68.006 
X204.445 Y67.504 
X205.288 Y66.892 
X206.048 Y66.178 
X206.265 Y65.916 
G03 X203.846 Y61.294 I4.702 J-5.405 
G01 X203.767 Y60.024 
G02 X196.232 Y60.024 I-3.767 J0.477 
G01 X196.153 Y61.294 
G03 X193.734 Y65.916 I-7.121 J-0.783 
G01 X193.951 Y66.178 
X194.711 Y66.892 
X195.554 Y67.504 
X196.467 Y68.006 
X197.436 Y68.391 
X198.444 Y68.649 
X199.478 Y68.78 
X200.521 Y68.78 
G00 Z5
X199.858 Y64.787
Z-0.75
G01 Z-5.5 F100
G02 X200.643 Y64.732 I0.137 J-3.671 F150
G03 X199.994 Y62.565 I9.455 J-4.012 
X199.349 Y64.736 I-10.438 J-1.92 
G02 X199.858 Y64.787 I0.551 J-2.939 
G01 X199.832 Y65.788 
G02 X202.054 Y65.373 I0.157 J-5.313 
G03 X200.849 Y61.476 I8.637 J-4.805 
G01 X200.785 Y60.43 
G02 X199.213 Y60.417 I-0.786 J0.071 
G03 X198.192 Y64.896 I-10.529 J-0.044 
G01 X197.94 Y65.372 
G02 X199.832 Y65.788 I2.048 J-4.806 
G01 X200.393 Y66.78 
G02 X201.943 Y66.485 I-0.439 J-6.527 
X203.371 Y65.81 I-2.031 J-6.146 
G01 X203.459 Y65.747 
G03 X201.848 Y61.415 I7.359 J-5.202 
G01 X201.779 Y60.287 
G02 X198.218 Y60.285 I-1.78 J0.214 
G03 X198.14 Y61.503 I-14.064 J-0.289 
X196.537 Y65.745 I-8.971 J-0.966 
G01 X196.626 Y65.81 
G02 X198.054 Y66.485 I3.459 J-5.471 
X200.393 Y66.78 I1.944 J-5.997 
G01 X200.457 Y67.78 
X201.367 Y67.664 
X202.253 Y67.438 
X203.104 Y67.099 
X203.908 Y66.657 
X204.649 Y66.119 
X204.861 Y65.92 
G03 X202.847 Y61.355 I6.053 J-5.397 
G01 X202.773 Y60.154 
G02 X197.225 Y60.153 I-2.774 J0.346 
G01 X197.151 Y61.356 
G03 X195.136 Y65.919 I-8.072 J-0.838 
G01 X195.349 Y66.119 
X196.09 Y66.657 
X196.894 Y67.099 
X197.745 Y67.438 
X198.631 Y67.664 
X199.541 Y67.78 
X200.457 Y67.78 
G00 Z5
X296.047 Y70.074
Z-0.75
G01 Z-5.5 F100
X305.02 Y61.104 F150
G02 X303.972 Y59.908 I-0.525 J-0.596 
G01 X303.762 Y60.106 
X294.922 Y68.95 
X295.174 Y69.254 
X296.047 Y70.074 
X296.136 Y71.438 
G03 X296.382 Y71.154 I4.207 J3.395 
G01 X305.764 Y61.775 
G02 X303.345 Y59.126 I-1.267 J-1.271 
G01 X303.066 Y59.389 
X293.842 Y68.616 
G03 X293.553 Y68.864 I-2.965 J-3.163 
G01 X294.444 Y69.941 
X295.706 Y71.125 
X296.136 Y71.438 
X296.45 Y72.902 
G03 X297.089 Y71.862 I2.535 J0.841 
G01 X306.508 Y62.446 
G02 X302.715 Y58.348 I-2.009 J-1.944 
G01 X302.37 Y58.672 
X293.135 Y67.909 
G03 X292.115 Y68.541 I-1.903 J-1.932 
G01 X292.53 Y69.195 
X293.714 Y70.627 
X295.068 Y71.898 
X296.45 Y72.902 
G00 Z5
X103.949 Y70.075
Z-0.75
G01 Z-5.5 F100
X104.822 Y69.255 F150
X105.074 Y68.95 
X96.211 Y60.085 
G02 X95.403 Y59.711 I-0.712 J0.479 
X94.97 Y61.099 I0.114 J0.797 
G01 X103.949 Y70.075 
X103.86 Y71.439 
X104.291 Y71.126 
X105.553 Y69.941 
X106.443 Y68.865 
G03 X106.155 Y68.616 I5.048 J-6.13 
G01 X96.919 Y59.378 
G02 X94.058 Y61.564 I-1.408 J1.121 
G01 X94.229 Y61.772 
X103.615 Y71.155 
G03 X103.86 Y71.439 I-2.71 J2.586 
G01 X103.548 Y72.903 
X104.93 Y71.898 
X106.284 Y70.627 
X107.468 Y69.195 
X107.882 Y68.542 
G03 X106.863 Y67.909 I0.882 J-2.557 
G01 X97.624 Y58.669 
G02 X93.242 Y62.146 I-2.118 J1.83 
G01 X93.488 Y62.445 
X102.909 Y71.863 
G03 X103.548 Y72.903 I-1.907 J1.888 
G00 Z5
X300.261 Y165.647
Z-0.75
G01 Z-5.5 F100
G03 X302.431 Y164.995 I4.002 J9.383 F150
X300.259 Y164.35 I1.899 J-10.375 
G02 X300.261 Y165.647 I3.88 J0.642 
G01 X299.625 Y167.055 
G03 X303.519 Y165.849 I4.832 J8.713 
G01 X304.566 Y165.785 
G02 X304.578 Y164.213 I-0.072 J-0.786 
G03 X300.1 Y163.194 I0.05 J-10.572 
G01 X299.624 Y162.942 
X299.605 Y162.98 
G02 X299.625 Y167.055 I4.888 J2.013 
G01 X299.255 Y168.457 
G03 X303.58 Y166.848 I5.221 J7.419 
G01 X304.71 Y166.779 
G02 X304.712 Y163.218 I-0.214 J-1.78 
G03 X303.494 Y163.14 I0.289 J-14.064 
X299.254 Y161.541 I0.962 J-8.974 
G01 X298.984 Y161.966 
G02 X298.984 Y168.031 I5.521 J3.032 
G01 X299.255 Y168.457 
X299.075 Y169.863 
G03 X303.642 Y167.847 I5.424 J6.107 
G01 X304.844 Y167.773 
G02 X304.845 Y162.225 I-0.346 J-2.774 
G01 X303.642 Y162.151 
G03 X299.075 Y160.134 I0.832 J-8.063 
G01 X298.597 Y160.712 
X298.107 Y161.484 
X297.716 Y162.314 
X297.433 Y163.185 
X297.262 Y164.085 
X297.204 Y164.999 
X297.262 Y165.913 
X297.433 Y166.813 
X297.716 Y167.684 
X298.107 Y168.514 
X298.597 Y169.286 
X299.075 Y169.863 
G00 Z5
X95.543 Y270.282
Z-0.75
G01 Z-5.5 F100
G02 X96.219 Y269.903 I-0.093 J-0.959 F150
G01 X105.075 Y261.045 
X104.822 Y260.741 
X103.949 Y259.92 
X94.971 Y268.897 
G02 X95.543 Y270.282 I0.531 J0.591 
G01 X95.613 Y271.286 
G02 X96.921 Y270.616 I-0.143 J-1.891 
G01 X106.155 Y261.381 
G03 X106.443 Y261.131 I4.183 J4.528 
G01 X105.553 Y260.055 
X104.291 Y258.871 
X103.86 Y258.558 
G03 X103.615 Y258.842 I-5.426 J-4.433 
G01 X94.228 Y268.226 
G02 X95.613 Y271.286 I1.272 J1.267 
G01 X95.678 Y272.288 
G02 X97.624 Y271.329 I-0.196 J-2.853 
G01 X106.863 Y262.089 
G03 X107.882 Y261.455 I1.906 J1.929 
G01 X107.468 Y260.802 
X106.284 Y259.37 
X104.93 Y258.099 
X103.548 Y257.095 
G03 X102.909 Y258.135 I-2.563 J-0.858 
G01 X93.488 Y267.553 
G02 X95.678 Y272.288 I2.012 J1.943 
G00 Z5
X304.543 Y270.282
Z-0.75
G01 Z-5.5 F100
G02 X305.018 Y268.892 I-0.056 J-0.795 F150
G01 X296.051 Y259.917 
X295.174 Y260.74 
X294.922 Y261.046 
X303.963 Y270.09 
G02 X304.543 Y270.282 I0.534 J-0.641 
G01 X304.612 Y271.286 
G02 X305.764 Y268.224 I-0.119 J-1.792 
G01 X296.314 Y258.766 
G03 X296.138 Y258.557 I1.893 J-1.772 
G01 X295.706 Y258.87 
X294.444 Y260.055 
X293.554 Y261.132 
G03 X293.842 Y261.381 I-3.449 J4.281 
G01 X303.078 Y270.619 
G02 X304.612 Y271.286 I1.425 J-1.181 
G01 X304.671 Y272.288 
X305.066 Y272.235 
G02 X306.508 Y267.553 I-0.57 J-2.738 
G01 X297.022 Y258.06 
G03 X296.449 Y257.095 I1.942 J-1.806 
G01 X295.068 Y258.099 
X293.714 Y259.37 
X292.53 Y260.802 
X292.116 Y261.456 
G03 X293.135 Y262.089 I-0.875 J2.546 
G01 X302.375 Y271.331 
G02 X304.671 Y272.288 I2.125 J-1.866 
G01 X304.738 Y273.289 
G02 X307.25 Y266.88 I-0.24 J-3.79 
G01 X297.797 Y257.428 
G03 X297.3 Y256.203 I1.199 J-1.199 
G01 X297.3 Y255.467 
X296.035 Y256.162 
G02 X294.43 Y257.328 I41.118 J58.287 
G03 X292.984 Y258.685 I-80.461 J-84.29 
G01 X291.72 Y260.214 
X290.657 Y261.889 
X290.464 Y262.3 
G03 X291.557 Y262.332 I0.381 J5.668 
X292.428 Y262.797 I-0.336 J1.677 
G01 X301.674 Y272.044 
G02 X304.738 Y273.289 I2.827 J-2.564 
G00 Z5
X95.738 Y273.289
Z-0.75
G01 Z-5.5 F100
G02 X98.325 Y272.043 I-0.247 J-3.822 F150
G01 X107.571 Y262.797 
G03 X108.774 Y262.3 I1.201 J1.204 
G01 X109.535 Y262.3 
X109.342 Y261.889 
X108.279 Y260.214 
X107.015 Y258.685 
X105.569 Y257.328 
X103.964 Y256.162 
X102.7 Y255.467 
G03 X102.667 Y256.557 I-5.483 J0.379 
X102.202 Y257.428 I-1.677 J-0.336 
G01 X92.748 Y266.88 
G02 X95.738 Y273.289 I2.751 J2.618 
G00 Z5
X299.08 Y171.269
Z-0.75
G01 Z-5.5 F100
G03 X303.705 Y168.846 I5.407 J4.696 F150
G01 X304.975 Y168.767 
G02 X304.975 Y161.232 I-0.475 J-3.767 
G01 X303.705 Y161.153 
G03 X299.08 Y158.73 I0.782 J-7.119 
G01 X298.451 Y159.321 
G03 X297.787 Y160.123 I-72.557 J-59.396 
G01 X297.229 Y161.002 
X296.785 Y161.946 
X296.463 Y162.936 
X296.268 Y163.96 
X296.203 Y164.999 
X296.268 Y166.039 
X296.463 Y167.063 
X296.785 Y168.053 
X297.229 Y168.997 
X297.787 Y169.876 
X298.451 Y170.678 
X299.08 Y171.269 
G00 Z5
X297.3 Y74.532
Z-0.75
G01 Z-5.5 F100
G03 X297.332 Y73.442 I5.67 J-0.379 F150
X297.797 Y72.571 I1.677 J0.336 
G01 X307.25 Y63.119 
G02 X302.08 Y57.574 I-2.75 J-2.618 
G01 X301.674 Y57.955 
X292.428 Y67.202 
G03 X291.226 Y67.7 I-1.205 J-1.21 
G01 X290.464 Y67.699 
X290.657 Y68.11 
X291.72 Y69.784 
X292.984 Y71.313 
X294.43 Y72.671 
X296.035 Y73.837 
X297.3 Y74.532 
G00 Z5
X102.7 Y73.774
Z-0.75
G01 Z-5.5 F100
X102.7 Y74.532 F150
X103.964 Y73.837 
X105.569 Y72.671 
X107.015 Y71.313 
X108.279 Y69.784 
X109.342 Y68.11 
X109.535 Y67.699 
G03 X108.442 Y67.667 I-0.387 J-5.441 
X107.571 Y67.202 I0.336 J-1.677 
G01 X98.325 Y57.956 
G02 X92.428 Y62.731 I-2.822 J2.543 
G01 X92.748 Y63.119 
X102.202 Y72.571 
G03 X102.7 Y73.774 I-1.21 J1.205 
G00 Z5
X200.521 Y68.78
Z-0.75
G01 Z-5.5 F100
X201.555 Y68.649 F150
X202.563 Y68.391 
X203.532 Y68.006 
X204.445 Y67.504 
X205.288 Y66.892 
X206.048 Y66.178 
X206.265 Y65.916 
G03 X203.846 Y61.294 I4.702 J-5.405 
G01 X203.767 Y60.024 
G02 X196.232 Y60.024 I-3.767 J0.477 
G01 X196.153 Y61.294 
G03 X193.734 Y65.916 I-7.121 J-0.783 
G01 X193.951 Y66.178 
X194.711 Y66.892 
X195.554 Y67.504 
X196.467 Y68.006 
X197.436 Y68.391 
X198.444 Y68.649 
X199.478 Y68.78 
X200.521 Y68.78 
G00 Z5
(plate_inner_cut)
X200.095 Y194.903 S7000 M03
Z2
G01 Z-3 F100
G02 X199.843 Y192.919 I-0.125 J-0.992 F150
G01 X199.251 Y192.994 
X198.764 Y193.119 
X198.298 Y193.303 
X197.858 Y193.545 
X197.451 Y193.841 
X197.034 Y194.232 
X146.521 Y244.745 
X146.186 Y245.15 
X145.918 Y245.573 
X145.704 Y246.028 
X145.548 Y246.505 
X145.455 Y246.999 
X145.423 Y247.5 
X145.455 Y248 
X145.548 Y248.494 
X145.704 Y248.971 
X145.918 Y249.426 
X146.186 Y249.849 
X146.507 Y250.236 
X146.872 Y250.58 
X147.278 Y250.874 
X147.718 Y251.116 
X148.185 Y251.301 
X148.671 Y251.426 
X149.168 Y251.489 
X250.831 Y251.489 
X251.328 Y251.426 
X251.814 Y251.301 
X252.281 Y251.116 
X252.721 Y250.874 
X253.127 Y250.58 
X253.492 Y250.236 
X253.813 Y249.849 
X254.081 Y249.426 
X254.295 Y248.971 
X254.451 Y248.494 
X254.544 Y248 
X254.576 Y247.5 
X254.544 Y246.999 
X254.451 Y246.505 
X254.295 Y246.028 
X254.081 Y245.573 
X253.813 Y245.15 
X253.478 Y244.745 
X202.965 Y194.232 
X202.548 Y193.841 
X202.141 Y193.545 
X201.701 Y193.303 
X201.235 Y193.119 
X200.748 Y192.994 
X200.25 Y192.931 
X199.655 Y192.931 
G03 X198.601 Y192.499 I0 J-1.5 
G01 X115.758 Y110.831 
X115.573 Y110.918 
X115.15 Y111.186 
X114.763 Y111.507 
X114.419 Y111.872 
X114.125 Y112.278 
X113.883 Y112.718 
X113.698 Y113.185 
X113.573 Y113.671 
X113.511 Y114.168 
X113.511 Y215.831 
X113.573 Y216.328 
X113.698 Y216.814 
X113.883 Y217.281 
X114.125 Y217.721 
X114.419 Y218.127 
X114.763 Y218.492 
X115.15 Y218.813 
X115.573 Y219.081 
X116.028 Y219.295 
X116.505 Y219.451 
X116.999 Y219.544 
X117.5 Y219.576 
X118 Y219.544 
X118.494 Y219.451 
X118.971 Y219.295 
X119.426 Y219.081 
X119.849 Y218.813 
X120.254 Y218.478 
X170.767 Y167.965 
X171.158 Y167.548 
X171.454 Y167.141 
X171.696 Y166.701 
X171.88 Y166.235 
X172.005 Y165.748 
X172.069 Y165.25 
X172.069 Y164.749 
X172.005 Y164.251 
X171.88 Y163.764 
X171.696 Y163.298 
X171.454 Y162.858 
X171.158 Y162.451 
X170.767 Y162.034 
X120.254 Y111.521 
X119.849 Y111.186 
X119.426 Y110.918 
X118.971 Y110.704 
X118.494 Y110.548 
X118 Y110.455 
X117.5 Y110.423 
X116.906 Y110.46 
G03 X116.812 Y107.464 I-0.095 J-1.496 
G01 X281.133 Y107.593 
G03 X281.596 Y110.519 I-0.001 J1.499 
G01 X281.028 Y110.704 
X280.573 Y110.918 
X280.15 Y111.186 
X279.745 Y111.521 
X229.232 Y162.034 
X228.841 Y162.451 
X228.545 Y162.858 
X228.303 Y163.298 
X228.119 Y163.764 
X227.994 Y164.251 
X227.931 Y164.749 
X227.931 Y165.25 
X227.994 Y165.748 
X228.119 Y166.235 
X228.303 Y166.701 
X228.545 Y167.141 
X228.841 Y167.548 
X229.232 Y167.965 
X279.745 Y218.478 
X280.15 Y218.813 
X280.573 Y219.081 
X281.028 Y219.295 
X281.505 Y219.451 
X281.999 Y219.544 
X282.5 Y219.576 
X283 Y219.544 
X283.494 Y219.451 
X283.971 Y219.295 
X284.426 Y219.081 
X284.849 Y218.813 
X285.236 Y218.492 
X285.58 Y218.127 
X285.874 Y217.721 
X286.116 Y217.281 
X286.301 Y216.814 
X286.426 Y216.328 
X286.489 Y215.831 
X286.489 Y114.168 
X286.426 Y113.671 
X286.301 Y113.185 
X286.116 Y112.718 
X285.874 Y112.278 
X285.58 Y111.872 
X285.236 Y111.507 
X284.849 Y111.186 
X284.426 Y110.918 
X283.971 Y110.704 
X283.494 Y110.548 
X283 Y110.455 
X282.5 Y110.423 
X281.906 Y110.46 
G03 X281.462 Y110.422 I-0.095 J-1.496 
G01 X148.403 Y78.642 
X148.185 Y78.698 
X147.718 Y78.883 
X147.278 Y79.125 
X146.872 Y79.419 
X146.507 Y79.763 
X146.186 Y80.15 
X145.918 Y80.573 
X145.704 Y81.028 
X145.548 Y81.505 
X145.455 Y81.999 
X145.423 Y82.5 
X145.455 Y83 
X145.548 Y83.494 
X145.704 Y83.971 
X145.918 Y84.426 
X146.186 Y84.849 
X146.521 Y85.254 
X197.034 Y135.767 
X197.451 Y136.158 
X197.858 Y136.454 
X198.298 Y136.696 
X198.764 Y136.88 
X199.251 Y137.005 
X199.749 Y137.069 
X200.25 Y137.069 
X200.748 Y137.005 
X201.235 Y136.88 
X201.701 Y136.696 
X202.141 Y136.454 
X202.548 Y136.158 
X202.965 Y135.767 
X253.478 Y85.254 
X253.813 Y84.849 
X254.081 Y84.426 
X254.295 Y83.971 
X254.451 Y83.494 
X254.544 Y83 
X254.576 Y82.5 
X254.544 Y81.999 
X254.451 Y81.505 
X254.295 Y81.028 
X254.081 Y80.573 
X253.813 Y80.15 
X253.492 Y79.763 
X253.127 Y79.419 
X252.721 Y79.125 
X252.281 Y78.883 
X251.814 Y78.698 
X251.328 Y78.573 
X250.831 Y78.511 
X149.075 Y78.511 
G02 X149.075 Y80.511 I0 J1 
G00 Z5
X200.095 Y194.903
Z-3
G01 Z-6 F100
G02 X199.843 Y192.919 I-0.125 J-0.992 F150
G01 X199.251 Y192.994 
X198.764 Y193.119 
X198.298 Y193.303 
X197.858 Y193.545 
X197.451 Y193.841 
X197.034 Y194.232 
X146.521 Y244.745 
X146.186 Y245.15 
X145.918 Y245.573 
X145.704 Y246.028 
X145.548 Y246.505 
X145.455 Y246.999 
X145.423 Y247.5 
X145.455 Y248 
X145.548 Y248.494 
X145.704 Y248.971 
X145.918 Y249.426 
X146.186 Y249.849 
X146.507 Y250.236 
X146.872 Y250.58 
X147.278 Y250.874 
X147.718 Y251.116 
X148.185 Y251.301 
X148.671 Y251.426 
X149.168 Y251.489 
X250.831 Y251.489 
X251.328 Y251.426 
X251.814 Y251.301 
X252.281 Y251.116 
X252.721 Y250.874 
X253.127 Y250.58 
X253.492 Y250.236 
X253.813 Y249.849 
X254.081 Y249.426 
X254.295 Y248.971 
X254.451 Y248.494 
X254.544 Y248 
X254.576 Y247.5 
X254.544 Y246.999 
X254.451 Y246.505 
X254.295 Y246.028 
X254.081 Y245.573 
X253.813 Y245.15 
X253.478 Y244.745 
X202.965 Y194.232 
X202.548 Y193.841 
X202.141 Y193.545 
X201.701 Y193.303 
X201.235 Y193.119 
X200.748 Y192.994 
X200.25 Y192.931 
X199.655 Y192.931 
G03 X198.601 Y192.499 I0 J-1.5 
G01 X115.758 Y110.831 
X115.573 Y110.918 
X115.15 Y111.186 
X114.763 Y111.507 
X114.419 Y111.872 
X114.125 Y112.278 
X113.883 Y112.718 
X113.698 Y113.185 
X113.573 Y113.671 
X113.511 Y114.168 
X113.511 Y215.831 
X113.573 Y216.328 
X113.698 Y216.814 
X113.883 Y217.281 
X114.125 Y217.721 
X114.419 Y218.127 
X114.763 Y218.492 
X115.15 Y218.813 
X115.573 Y219.081 
X116.028 Y219.295 
X116.505 Y219.451 
X116.999 Y219.544 
X117.5 Y219.576 
X118 Y219.544 
X118.494 Y219.451 
X118.971 Y219.295 
X119.426 Y219.081 
X119.849 Y218.813 
X120.254 Y218.478 
X170.767 Y167.965 
X171.158 Y167.548 
X171.454 Y167.141 
X171.696 Y166.701 
X171.88 Y166.235 
X172.005 Y165.748 
X172.069 Y165.25 
X172.069 Y164.749 
X172.005 Y164.251 
X171.88 Y163.764 
X171.696 Y163.298 
X171.454 Y162.858 
X171.158 Y162.451 
X170.767 Y162.034 
X120.254 Y111.521 
X119.849 Y111.186 
X119.426 Y110.918 
X118.971 Y110.704 
X118.494 Y110.548 
X118 Y110.455 
X117.5 Y110.423 
X116.906 Y110.46 
G03 X116.812 Y107.464 I-0.095 J-1.496 
G01 X281.133 Y107.593 
G03 X281.596 Y110.519 I-0.001 J1.499 
G01 X281.028 Y110.704 
X280.573 Y110.918 
X280.15 Y111.186 
X279.745 Y111.521 
X229.232 Y162.034 
X228.841 Y162.451 
X228.545 Y162.858 
X228.303 Y163.298 
X228.119 Y163.764 
X227.994 Y164.251 
X227.931 Y164.749 
X227.931 Y165.25 
X227.994 Y165.748 
X228.119 Y166.235 
X228.303 Y166.701 
X228.545 Y167.141 
X228.841 Y167.548 
X229.232 Y167.965 
X279.745 Y218.478 
X280.15 Y218.813 
X280.573 Y219.081 
X281.028 Y219.295 
X281.505 Y219.451 
X281.999 Y219.544 
X282.5 Y219.576 
X283 Y219.544 
X283.494 Y219.451 
X283.971 Y219.295 
X284.426 Y219.081 
X284.849 Y218.813 
X285.236 Y218.492 
X285.58 Y218.127 
X285.874 Y217.721 
X286.116 Y217.281 
X286.301 Y216.814 
X286.426 Y216.328 
X286.489 Y215.831 
X286.489 Y114.168 
X286.426 Y113.671 
X286.301 Y113.185 
X286.116 Y112.718 
X285.874 Y112.278 
X285.58 Y111.872 
X285.236 Y111.507 
X284.849 Y111.186 
X284.426 Y110.918 
X283.971 Y110.704 
X283.494 Y110.548 
X283 Y110.455 
X282.5 Y110.423 
X281.906 Y110.46 
G03 X281.462 Y110.422 I-0.095 J-1.496 
G01 X148.403 Y78.642 
X148.185 Y78.698 
X147.718 Y78.883 
X147.278 Y79.125 
X146.872 Y79.419 
X146.507 Y79.763 
X146.186 Y80.15 
X145.918 Y80.573 
X145.704 Y81.028 
X145.548 Y81.505 
X145.455 Y81.999 
X145.423 Y82.5 
X145.455 Y83 
X145.548 Y83.494 
X145.704 Y83.971 
X145.918 Y84.426 
X146.186 Y84.849 
X146.521 Y85.254 
X197.034 Y135.767 
X197.451 Y136.158 
X197.858 Y136.454 
X198.298 Y136.696 
X198.764 Y136.88 
X199.251 Y137.005 
X199.749 Y137.069 
X200.25 Y137.069 
X200.748 Y137.005 
X201.235 Y136.88 
X201.701 Y136.696 
X202.141 Y136.454 
X202.548 Y136.158 
X202.965 Y135.767 
X253.478 Y85.254 
X253.813 Y84.849 
X254.081 Y84.426 
X254.295 Y83.971 
X254.451 Y83.494 
X254.544 Y83 
X254.576 Y82.5 
X254.544 Y81.999 
X254.451 Y81.505 
X254.295 Y81.028 
X254.081 Y80.573 
X253.813 Y80.15 
X253.492 Y79.763 
X253.127 Y79.419 
X252.721 Y79.125 
X252.281 Y78.883 
X251.814 Y78.698 
X251.328 Y78.573 
X250.831 Y78.511 
X149.075 Y78.511 
G02 X149.075 Y80.511 I0 J1 
G00 Z5
X200.095 Y194.903
Z-6
G01 Z-9 F100
G02 X199.843 Y192.919 I-0.125 J-0.992 F150
G01 X199.251 Y192.994 
X198.764 Y193.119 
X198.298 Y193.303 
X197.858 Y193.545 
X197.451 Y193.841 
X197.034 Y194.232 
X146.521 Y244.745 
X146.186 Y245.15 
X145.918 Y245.573 
X145.704 Y246.028 
X145.548 Y246.505 
X145.455 Y246.999 
X145.423 Y247.5 
X145.455 Y248 
X145.548 Y248.494 
X145.704 Y248.971 
X145.918 Y249.426 
X146.186 Y249.849 
X146.507 Y250.236 
X146.872 Y250.58 
X147.278 Y250.874 
X147.718 Y251.116 
X148.185 Y251.301 
X148.671 Y251.426 
X149.168 Y251.489 
X250.831 Y251.489 
X251.328 Y251.426 
X251.814 Y251.301 
X252.281 Y251.116 
X252.721 Y250.874 
X253.127 Y250.58 
X253.492 Y250.236 
X253.813 Y249.849 
X254.081 Y249.426 
X254.295 Y248.971 
X254.451 Y248.494 
X254.544 Y248 
X254.576 Y247.5 
X254.544 Y246.999 
X254.451 Y246.505 
X254.295 Y246.028 
X254.081 Y245.573 
X253.813 Y245.15 
X253.478 Y244.745 
X202.965 Y194.232 
X202.548 Y193.841 
X202.141 Y193.545 
X201.701 Y193.303 
X201.235 Y193.119 
X200.748 Y192.994 
X200.25 Y192.931 
X199.655 Y192.931 
G03 X198.601 Y192.499 I0 J-1.5 
G01 X115.758 Y110.831 
X115.573 Y110.918 
X115.15 Y111.186 
X114.763 Y111.507 
X114.419 Y111.872 
X114.125 Y112.278 
X113.883 Y112.718 
X113.698 Y113.185 
X113.573 Y113.671 
X113.511 Y114.168 
X113.511 Y215.831 
X113.573 Y216.328 
X113.698 Y216.814 
X113.883 Y217.281 
X114.125 Y217.721 
X114.419 Y218.127 
X114.763 Y218.492 
X115.15 Y218.813 
X115.573 Y219.081 
X116.028 Y219.295 
X116.505 Y219.451 
X116.999 Y219.544 
X117.5 Y219.576 
X118 Y219.544 
X118.494 Y219.451 
X118.971 Y219.295 
X119.426 Y219.081 
X119.849 Y218.813 
X120.254 Y218.478 
X170.767 Y167.965 
X171.158 Y167.548 
X171.454 Y167.141 
X171.696 Y166.701 
X171.88 Y166.235 
X172.005 Y165.748 
X172.069 Y165.25 
X172.069 Y164.749 
X172.005 Y164.251 
X171.88 Y163.764 
X171.696 Y163.298 
X171.454 Y162.858 
X171.158 Y162.451 
X170.767 Y162.034 
X120.254 Y111.521 
X119.849 Y111.186 
X119.426 Y110.918 
X118.971 Y110.704 
X118.494 Y110.548 
X118 Y110.455 
X117.5 Y110.423 
X116.906 Y110.46 
G03 X116.812 Y107.464 I-0.095 J-1.496 
G01 X281.133 Y107.593 
G03 X281.596 Y110.519 I-0.001 J1.499 
G01 X281.028 Y110.704 
X280.573 Y110.918 
X280.15 Y111.186 
X279.745 Y111.521 
X229.232 Y162.034 
X228.841 Y162.451 
X228.545 Y162.858 
X228.303 Y163.298 
X228.119 Y163.764 
X227.994 Y164.251 
X227.931 Y164.749 
X227.931 Y165.25 
X227.994 Y165.748 
X228.119 Y166.235 
X228.303 Y166.701 
X228.545 Y167.141 
X228.841 Y167.548 
X229.232 Y167.965 
X279.745 Y218.478 
X280.15 Y218.813 
X280.573 Y219.081 
X281.028 Y219.295 
X281.505 Y219.451 
X281.999 Y219.544 
X282.5 Y219.576 
X283 Y219.544 
X283.494 Y219.451 
X283.971 Y219.295 
X284.426 Y219.081 
X284.849 Y218.813 
X285.236 Y218.492 
X285.58 Y218.127 
X285.874 Y217.721 
X286.116 Y217.281 
X286.301 Y216.814 
X286.426 Y216.328 
X286.489 Y215.831 
X286.489 Y114.168 
X286.426 Y113.671 
X286.301 Y113.185 
X286.116 Y112.718 
X285.874 Y112.278 
X285.58 Y111.872 
X285.236 Y111.507 
X284.849 Y111.186 
X284.426 Y110.918 
X283.971 Y110.704 
X283.494 Y110.548 
X283 Y110.455 
X282.5 Y110.423 
X281.906 Y110.46 
G03 X281.462 Y110.422 I-0.095 J-1.496 
G01 X148.403 Y78.642 
X148.185 Y78.698 
X147.718 Y78.883 
X147.278 Y79.125 
X146.872 Y79.419 
X146.507 Y79.763 
X146.186 Y80.15 
X145.918 Y80.573 
X145.704 Y81.028 
X145.548 Y81.505 
X145.455 Y81.999 
X145.423 Y82.5 
X145.455 Y83 
X145.548 Y83.494 
X145.704 Y83.971 
X145.918 Y84.426 
X146.186 Y84.849 
X146.521 Y85.254 
X197.034 Y135.767 
X197.451 Y136.158 
X197.858 Y136.454 
X198.298 Y136.696 
X198.764 Y136.88 
X199.251 Y137.005 
X199.749 Y137.069 
X200.25 Y137.069 
X200.748 Y137.005 
X201.235 Y136.88 
X201.701 Y136.696 
X202.141 Y136.454 
X202.548 Y136.158 
X202.965 Y135.767 
X253.478 Y85.254 
X253.813 Y84.849 
X254.081 Y84.426 
X254.295 Y83.971 
X254.451 Y83.494 
X254.544 Y83 
X254.576 Y82.5 
X254.544 Y81.999 
X254.451 Y81.505 
X254.295 Y81.028 
X254.081 Y80.573 
X253.813 Y80.15 
X253.492 Y79.763 
X253.127 Y79.419 
X252.721 Y79.125 
X252.281 Y78.883 
X251.814 Y78.698 
X251.328 Y78.573 
X250.831 Y78.511 
X149.075 Y78.511 
G02 X149.075 Y80.511 I0 J1 
G00 Z5
X200.095 Y194.903
Z-9
G01 Z-12 F100
G02 X199.843 Y192.919 I-0.125 J-0.992 F150
G01 X199.251 Y192.994 
X198.764 Y193.119 
X198.298 Y193.303 
X197.858 Y193.545 
X197.451 Y193.841 
X197.034 Y194.232 
X146.521 Y244.745 
X146.186 Y245.15 
X145.918 Y245.573 
X145.704 Y246.028 
X145.548 Y246.505 
X145.455 Y246.999 
X145.423 Y247.5 
X145.455 Y248 
X145.548 Y248.494 
X145.704 Y248.971 
X145.918 Y249.426 
X146.186 Y249.849 
X146.507 Y250.236 
X146.872 Y250.58 
X147.278 Y250.874 
X147.718 Y251.116 
X148.185 Y251.301 
X148.671 Y251.426 
X149.168 Y251.489 
X250.831 Y251.489 
X251.328 Y251.426 
X251.814 Y251.301 
X252.281 Y251.116 
X252.721 Y250.874 
X253.127 Y250.58 
X253.492 Y250.236 
X253.813 Y249.849 
X254.081 Y249.426 
X254.295 Y248.971 
X254.451 Y248.494 
X254.544 Y248 
X254.576 Y247.5 
X254.544 Y246.999 
X254.451 Y246.505 
X254.295 Y246.028 
X254.081 Y245.573 
X253.813 Y245.15 
X253.478 Y244.745 
X202.965 Y194.232 
X202.548 Y193.841 
X202.141 Y193.545 
X201.701 Y193.303 
X201.235 Y193.119 
X200.748 Y192.994 
X200.25 Y192.931 
X199.655 Y192.931 
G03 X198.601 Y192.499 I0 J-1.5 
G01 X115.758 Y110.831 
X115.573 Y110.918 
X115.15 Y111.186 
X114.763 Y111.507 
X114.419 Y111.872 
X114.125 Y112.278 
X113.883 Y112.718 
X113.698 Y113.185 
X113.573 Y113.671 
X113.511 Y114.168 
X113.511 Y215.831 
X113.573 Y216.328 
X113.698 Y216.814 
X113.883 Y217.281 
X114.125 Y217.721 
X114.419 Y218.127 
X114.763 Y218.492 
X115.15 Y218.813 
X115.573 Y219.081 
X116.028 Y219.295 
X116.505 Y219.451 
X116.999 Y219.544 
X117.5 Y219.576 
X118 Y219.544 
X118.494 Y219.451 
X118.971 Y219.295 
X119.426 Y219.081 
X119.849 Y218.813 
X120.254 Y218.478 
X170.767 Y167.965 
X171.158 Y167.548 
X171.454 Y167.141 
X171.696 Y166.701 
X171.88 Y166.235 
X172.005 Y165.748 
X172.069 Y165.25 
X172.069 Y164.749 
X172.005 Y164.251 
X171.88 Y163.764 
X171.696 Y163.298 
X171.454 Y162.858 
X171.158 Y162.451 
X170.767 Y162.034 
X120.254 Y111.521 
X119.849 Y111.186 
X119.426 Y110.918 
X118.971 Y110.704 
X118.494 Y110.548 
X118 Y110.455 
X117.5 Y110.423 
X116.906 Y110.46 
G03 X116.812 Y107.464 I-0.095 J-1.496 
G01 X281.133 Y107.593 
G03 X281.596 Y110.519 I-0.001 J1.499 
G01 X281.028 Y110.704 
X280.573 Y110.918 
X280.15 Y111.186 
X279.745 Y111.521 
X229.232 Y162.034 
X228.841 Y162.451 
X228.545 Y162.858 
X228.303 Y163.298 
X228.119 Y163.764 
X227.994 Y164.251 
X227.931 Y164.749 
X227.931 Y165.25 
X227.994 Y165.748 
X228.119 Y166.235 
X228.303 Y166.701 
X228.545 Y167.141 
X228.841 Y167.548 
X229.232 Y167.965 
X279.745 Y218.478 
X280.15 Y218.813 
X280.573 Y219.081 
X281.028 Y219.295 
X281.505 Y219.451 
X281.999 Y219.544 
X282.5 Y219.576 
X283 Y219.544 
X283.494 Y219.451 
X283.971 Y219.295 
X284.426 Y219.081 
X284.849 Y218.813 
X285.236 Y218.492 
X285.58 Y218.127 
X285.874 Y217.721 
X286.116 Y217.281 
X286.301 Y216.814 
X286.426 Y216.328 
X286.489 Y215.831 
X286.489 Y114.168 
X286.426 Y113.671 
X286.301 Y113.185 
X286.116 Y112.718 
X285.874 Y112.278 
X285.58 Y111.872 
X285.236 Y111.507 
X284.849 Y111.186 
X284.426 Y110.918 
X283.971 Y110.704 
X283.494 Y110.548 
X283 Y110.455 
X282.5 Y110.423 
X281.906 Y110.46 
G03 X281.462 Y110.422 I-0.095 J-1.496 
G01 X148.403 Y78.642 
X148.185 Y78.698 
X147.718 Y78.883 
X147.278 Y79.125 
X146.872 Y79.419 
X146.507 Y79.763 
X146.186 Y80.15 
X145.918 Y80.573 
X145.704 Y81.028 
X145.548 Y81.505 
X145.455 Y81.999 
X145.423 Y82.5 
X145.455 Y83 
X145.548 Y83.494 
X145.704 Y83.971 
X145.918 Y84.426 
X146.186 Y84.849 
X146.521 Y85.254 
X197.034 Y135.767 
X197.451 Y136.158 
X197.858 Y136.454 
X198.298 Y136.696 
X198.764 Y136.88 
X199.251 Y137.005 
X199.749 Y137.069 
X200.25 Y137.069 
X200.748 Y137.005 
X201.235 Y136.88 
X201.701 Y136.696 
X202.141 Y136.454 
X202.548 Y136.158 
X202.965 Y135.767 
X253.478 Y85.254 
X253.813 Y84.849 
X254.081 Y84.426 
X254.295 Y83.971 
X254.451 Y83.494 
X254.544 Y83 
X254.576 Y82.5 
X254.544 Y81.999 
X254.451 Y81.505 
X254.295 Y81.028 
X254.081 Y80.573 
X253.813 Y80.15 
X253.492 Y79.763 
X253.127 Y79.419 
X252.721 Y79.125 
X252.281 Y78.883 
X251.814 Y78.698 
X251.328 Y78.573 
X250.831 Y78.511 
X149.075 Y78.511 
G02 X149.075 Y80.511 I0 J1 
G00 Z5
X200.095 Y194.903
Z-12
G01 Z-15 F100
G02 X199.843 Y192.919 I-0.125 J-0.992 F150
G01 X199.251 Y192.994 
X198.764 Y193.119 
X198.298 Y193.303 
X197.858 Y193.545 
X197.451 Y193.841 
X197.034 Y194.232 
X146.521 Y244.745 
X146.186 Y245.15 
X145.918 Y245.573 
X145.704 Y246.028 
X145.548 Y246.505 
X145.455 Y246.999 
X145.423 Y247.5 
X145.455 Y248 
X145.548 Y248.494 
X145.704 Y248.971 
X145.918 Y249.426 
X146.186 Y249.849 
X146.507 Y250.236 
X146.872 Y250.58 
X147.278 Y250.874 
X147.718 Y251.116 
X148.185 Y251.301 
X148.671 Y251.426 
X149.168 Y251.489 
X250.831 Y251.489 
X251.328 Y251.426 
X251.814 Y251.301 
X252.281 Y251.116 
X252.721 Y250.874 
X253.127 Y250.58 
X253.492 Y250.236 
X253.813 Y249.849 
X254.081 Y249.426 
X254.295 Y248.971 
X254.451 Y248.494 
X254.544 Y248 
X254.576 Y247.5 
X254.544 Y246.999 
X254.451 Y246.505 
X254.295 Y246.028 
X254.081 Y245.573 
X253.813 Y245.15 
X253.478 Y244.745 
X202.965 Y194.232 
X202.548 Y193.841 
X202.141 Y193.545 
X201.701 Y193.303 
X201.235 Y193.119 
X200.748 Y192.994 
X200.25 Y192.931 
X199.655 Y192.931 
G03 X198.601 Y192.499 I0 J-1.5 
G01 X115.758 Y110.831 
X115.573 Y110.918 
X115.15 Y111.186 
X114.763 Y111.507 
X114.419 Y111.872 
X114.125 Y112.278 
X113.883 Y112.718 
X113.698 Y113.185 
X113.573 Y113.671 
X113.511 Y114.168 
X113.511 Y215.831 
X113.573 Y216.328 
X113.698 Y216.814 
X113.883 Y217.281 
X114.125 Y217.721 
X114.419 Y218.127 
X114.763 Y218.492 
X115.15 Y218.813 
X115.573 Y219.081 
X116.028 Y219.295 
X116.505 Y219.451 
X116.999 Y219.544 
X117.5 Y219.576 
X118 Y219.544 
X118.494 Y219.451 
X118.971 Y219.295 
X119.426 Y219.081 
X119.849 Y218.813 
X120.254 Y218.478 
X170.767 Y167.965 
X171.158 Y167.548 
X171.454 Y167.141 
X171.696 Y166.701 
X171.88 Y166.235 
X172.005 Y165.748 
X172.069 Y165.25 
X172.069 Y164.749 
X172.005 Y164.251 
X171.88 Y163.764 
X171.696 Y163.298 
X171.454 Y162.858 
X171.158 Y162.451 
X170.767 Y162.034 
X120.254 Y111.521 
X119.849 Y111.186 
X119.426 Y110.918 
X118.971 Y110.704 
X118.494 Y110.548 
X118 Y110.455 
X117.5 Y110.423 
X116.906 Y110.46 
G03 X116.812 Y107.464 I-0.095 J-1.496 
G01 X281.133 Y107.593 
G03 X281.596 Y110.519 I-0.001 J1.499 
G01 X281.028 Y110.704 
X280.573 Y110.918 
X280.15 Y111.186 
X279.745 Y111.521 
X229.232 Y162.034 
X228.841 Y162.451 
X228.545 Y162.858 
X228.303 Y163.298 
X228.119 Y163.764 
X227.994 Y164.251 
X227.931 Y164.749 
X227.931 Y165.25 
X227.994 Y165.748 
X228.119 Y166.235 
X228.303 Y166.701 
X228.545 Y167.141 
X228.841 Y167.548 
X229.232 Y167.965 
X279.745 Y218.478 
X280.15 Y218.813 
X280.573 Y219.081 
X281.028 Y219.295 
X281.505 Y219.451 
X281.999 Y219.544 
X282.5 Y219.576 
X283 Y219.544 
X283.494 Y219.451 
X283.971 Y219.295 
X284.426 Y219.081 
X284.849 Y218.813 
X285.236 Y218.492 
X285.58 Y218.127 
X285.874 Y217.721 
X286.116 Y217.281 
X286.301 Y216.814 
X286.426 Y216.328 
X286.489 Y215.831 
X286.489 Y114.168 
X286.426 Y113.671 
X286.301 Y113.185 
X286.116 Y112.718 
X285.874 Y112.278 
X285.58 Y111.872 
X285.236 Y111.507 
X284.849 Y111.186 
X284.426 Y110.918 
X283.971 Y110.704 
X283.494 Y110.548 
X283 Y110.455 
X282.5 Y110.423 
X281.906 Y110.46 
G03 X281.462 Y110.422 I-0.095 J-1.496 
G01 X148.403 Y78.642 
X148.185 Y78.698 
X147.718 Y78.883 
X147.278 Y79.125 
X146.872 Y79.419 
X146.507 Y79.763 
X146.186 Y80.15 
X145.918 Y80.573 
X145.704 Y81.028 
X145.548 Y81.505 
X145.455 Y81.999 
X145.423 Y82.5 
X145.455 Y83 
X145.548 Y83.494 
X145.704 Y83.971 
X145.918 Y84.426 
X146.186 Y84.849 
X146.521 Y85.254 
X197.034 Y135.767 
X197.451 Y136.158 
X197.858 Y136.454 
X198.298 Y136.696 
X198.764 Y136.88 
X199.251 Y137.005 
X199.749 Y137.069 
X200.25 Y137.069 
X200.748 Y137.005 
X201.235 Y136.88 
X201.701 Y136.696 
X202.141 Y136.454 
X202.548 Y136.158 
X202.965 Y135.767 
X253.478 Y85.254 
X253.813 Y84.849 
X254.081 Y84.426 
X254.295 Y83.971 
X254.451 Y83.494 
X254.544 Y83 
X254.576 Y82.5 
X254.544 Y81.999 
X254.451 Y81.505 
X254.295 Y81.028 
X254.081 Y80.573 
X253.813 Y80.15 
X253.492 Y79.763 
X253.127 Y79.419 
X252.721 Y79.125 
X252.281 Y78.883 
X251.814 Y78.698 
X251.328 Y78.573 
X250.831 Y78.511 
X149.075 Y78.511 
G02 X149.075 Y80.511 I0 J1 
G00 Z5
X200.095 Y194.903
Z-15
G01 Z-18 F100
G02 X199.843 Y192.919 I-0.125 J-0.992 F150
G01 X199.251 Y192.994 
X198.764 Y193.119 
X198.298 Y193.303 
X197.858 Y193.545 
X197.451 Y193.841 
X197.034 Y194.232 
X146.521 Y244.745 
X146.186 Y245.15 
X145.918 Y245.573 
X145.704 Y246.028 
X145.548 Y246.505 
X145.455 Y246.999 
X145.423 Y247.5 
X145.455 Y248 
X145.548 Y248.494 
X145.704 Y248.971 
X145.918 Y249.426 
X146.186 Y249.849 
X146.507 Y250.236 
X146.872 Y250.58 
X147.278 Y250.874 
X147.718 Y251.116 
X148.185 Y251.301 
X148.671 Y251.426 
X149.168 Y251.489 
X250.831 Y251.489 
X251.328 Y251.426 
X251.814 Y251.301 
X252.281 Y251.116 
X252.721 Y250.874 
X253.127 Y250.58 
X253.492 Y250.236 
X253.813 Y249.849 
X254.081 Y249.426 
X254.295 Y248.971 
X254.451 Y248.494 
X254.544 Y248 
X254.576 Y247.5 
X254.544 Y246.999 
X254.451 Y246.505 
X254.295 Y246.028 
X254.081 Y245.573 
X253.813 Y245.15 
X253.478 Y244.745 
X202.965 Y194.232 
X202.548 Y193.841 
X202.141 Y193.545 
X201.701 Y193.303 
X201.235 Y193.119 
X200.748 Y192.994 
X200.25 Y192.931 
X199.655 Y192.931 
G03 X198.601 Y192.499 I0 J-1.5 
G01 X115.758 Y110.831 
X115.573 Y110.918 
X115.15 Y111.186 
X114.763 Y111.507 
X114.419 Y111.872 
X114.125 Y112.278 
X113.883 Y112.718 
X113.698 Y113.185 
X113.573 Y113.671 
X113.511 Y114.168 
X113.511 Y215.831 
X113.573 Y216.328 
X113.698 Y216.814 
X113.883 Y217.281 
X114.125 Y217.721 
X114.419 Y218.127 
X114.763 Y218.492 
X115.15 Y218.813 
X115.573 Y219.081 
X116.028 Y219.295 
X116.505 Y219.451 
X116.999 Y219.544 
X117.5 Y219.576 
X118 Y219.544 
X118.494 Y219.451 
X118.971 Y219.295 
X119.426 Y219.081 
X119.849 Y218.813 
X120.254 Y218.478 
X170.767 Y167.965 
X171.158 Y167.548 
X171.454 Y167.141 
X171.696 Y166.701 
X171.88 Y166.235 
X172.005 Y165.748 
X172.069 Y165.25 
X172.069 Y164.749 
X172.005 Y164.251 
X171.88 Y163.764 
X171.696 Y163.298 
X171.454 Y162.858 
X171.158 Y162.451 
X170.767 Y162.034 
X120.254 Y111.521 
X119.849 Y111.186 
X119.426 Y110.918 
X118.971 Y110.704 
X118.494 Y110.548 
X118 Y110.455 
X117.5 Y110.423 
X116.906 Y110.46 
G03 X116.812 Y107.464 I-0.095 J-1.496 
G01 X281.133 Y107.593 
G03 X281.596 Y110.519 I-0.001 J1.499 
G01 X281.028 Y110.704 
X280.573 Y110.918 
X280.15 Y111.186 
X279.745 Y111.521 
X229.232 Y162.034 
X228.841 Y162.451 
X228.545 Y162.858 
X228.303 Y163.298 
X228.119 Y163.764 
X227.994 Y164.251 
X227.931 Y164.749 
X227.931 Y165.25 
X227.994 Y165.748 
X228.119 Y166.235 
X228.303 Y166.701 
X228.545 Y167.141 
X228.841 Y167.548 
X229.232 Y167.965 
X279.745 Y218.478 
X280.15 Y218.813 
X280.573 Y219.081 
X281.028 Y219.295 
X281.505 Y219.451 
X281.999 Y219.544 
X282.5 Y219.576 
X283 Y219.544 
X283.494 Y219.451 
X283.971 Y219.295 
X284.426 Y219.081 
X284.849 Y218.813 
X285.236 Y218.492 
X285.58 Y218.127 
X285.874 Y217.721 
X286.116 Y217.281 
X286.301 Y216.814 
X286.426 Y216.328 
X286.489 Y215.831 
X286.489 Y114.168 
X286.426 Y113.671 
X286.301 Y113.185 
X286.116 Y112.718 
X285.874 Y112.278 
X285.58 Y111.872 
X285.236 Y111.507 
X284.849 Y111.186 
X284.426 Y110.918 
X283.971 Y110.704 
X283.494 Y110.548 
X283 Y110.455 
X282.5 Y110.423 
X281.906 Y110.46 
G03 X281.462 Y110.422 I-0.095 J-1.496 
G01 X148.403 Y78.642 
X148.185 Y78.698 
X147.718 Y78.883 
X147.278 Y79.125 
X146.872 Y79.419 
X146.507 Y79.763 
X146.186 Y80.15 
X145.918 Y80.573 
X145.704 Y81.028 
X145.548 Y81.505 
X145.455 Y81.999 
X145.423 Y82.5 
X145.455 Y83 
X145.548 Y83.494 
X145.704 Y83.971 
X145.918 Y84.426 
X146.186 Y84.849 
X146.521 Y85.254 
X197.034 Y135.767 
X197.451 Y136.158 
X197.858 Y136.454 
X198.298 Y136.696 
X198.764 Y136.88 
X199.251 Y137.005 
X199.749 Y137.069 
X200.25 Y137.069 
X200.748 Y137.005 
X201.235 Y136.88 
X201.701 Y136.696 
X202.141 Y136.454 
X202.548 Y136.158 
X202.965 Y135.767 
X253.478 Y85.254 
X253.813 Y84.849 
X254.081 Y84.426 
X254.295 Y83.971 
X254.451 Y83.494 
X254.544 Y83 
X254.576 Y82.5 
X254.544 Y81.999 
X254.451 Y81.505 
X254.295 Y81.028 
X254.081 Y80.573 
X253.813 Y80.15 
X253.492 Y79.763 
X253.127 Y79.419 
X252.721 Y79.125 
X252.281 Y78.883 
X251.814 Y78.698 
X251.328 Y78.573 
X250.831 Y78.511 
X149.075 Y78.511 
G02 X149.075 Y80.511 I0 J1 
G00 Z5
G90
(plate_outter_cut)
X97.5 Y165 S7000 M03
Z2
G01 Z-3 F100
G02 X99.5 Y165 I1 J0 F150
G01 X99.5 Y74.395 
X90.43 Y65.325 
G03 X90.335 Y65.221 I1.06 J-1.06 
G01 X89.894 Y64.689 
G03 X89.784 Y64.536 I1.155 J-0.956 
G01 X89.413 Y63.953 
G03 X89.323 Y63.788 I1.266 J-0.803 
G01 X89.028 Y63.163 
G03 X88.959 Y62.988 I1.357 J-0.638 
G01 X88.746 Y62.331 
G03 X88.699 Y62.148 I1.426 J-0.463 
G01 X88.569 Y61.469 
G03 X88.546 Y61.283 I1.473 J-0.28 
G01 X88.502 Y60.594 
G03 X88.502 Y60.405 I1.497 J-0.094 
G01 X88.546 Y59.716 
G03 X88.569 Y59.53 I1.497 J0.094 
G01 X88.699 Y58.851 
G03 X88.746 Y58.668 I1.473 J0.28 
G01 X88.959 Y58.011 
G03 X89.028 Y57.836 I1.426 J0.463 
G01 X89.323 Y57.211 
G03 X89.413 Y57.046 I1.357 J0.638 
G01 X89.784 Y56.463 
G03 X89.894 Y56.31 I1.266 J0.803 
G01 X90.335 Y55.778 
G03 X90.463 Y55.641 I1.155 J0.956 
G01 X90.967 Y55.168 
G03 X91.112 Y55.048 I1.027 J1.093 
G01 X91.671 Y54.642 
G03 X91.829 Y54.541 I0.881 J1.213 
G01 X92.435 Y54.208 
G03 X92.606 Y54.128 I0.723 J1.314 
G01 X93.248 Y53.874 
G03 X93.426 Y53.816 I0.551 J1.394 
G01 X94.095 Y53.644 
G03 X94.282 Y53.608 I0.373 J1.452 
G01 X94.967 Y53.522 
G03 X95.154 Y53.511 I0.186 J1.488 
G01 X95.845 Y53.511 
G03 X96.032 Y53.522 I0 J1.5 
G01 X96.717 Y53.608 
G03 X96.904 Y53.644 I-0.186 J1.488 
G01 X97.573 Y53.816 
G03 X97.751 Y53.874 I-0.373 J1.452 
G01 X98.393 Y54.128 
G03 X98.564 Y54.208 I-0.551 J1.394 
G01 X99.17 Y54.541 
G03 X99.328 Y54.642 I-0.723 J1.314 
G01 X99.887 Y55.048 
G03 X100.032 Y55.168 I-0.881 J1.213 
G01 X100.536 Y55.641 
G03 X100.569 Y55.674 I-1.027 J1.093 
G01 X109.395 Y64.5 
X188.818 Y64.5 
G03 X189 Y64.489 I0.181 J1.489 
G01 X189.251 Y64.489 
X189.749 Y64.426 
X190.235 Y64.301 
X190.701 Y64.117 
X191.141 Y63.875 
X191.547 Y63.58 
X191.913 Y63.236 
X192.234 Y62.848 
X192.502 Y62.426 
X192.716 Y61.972 
X192.871 Y61.494 
X192.965 Y61 
X193.045 Y59.717 
G03 X193.069 Y59.528 I1.497 J0.093 
G01 X193.199 Y58.849 
G03 X193.246 Y58.669 I1.473 J0.282 
G01 X193.459 Y58.012 
G03 X193.528 Y57.836 I1.426 J0.462 
G01 X193.822 Y57.211 
G03 X193.913 Y57.046 I1.357 J0.638 
G01 X194.283 Y56.463 
G03 X194.395 Y56.309 I1.266 J0.803 
G01 X194.836 Y55.777 
G03 X194.963 Y55.642 I1.154 J0.957 
G01 X195.466 Y55.169 
G03 X195.612 Y55.048 I1.027 J1.092 
G01 X196.171 Y54.642 
G03 X196.329 Y54.541 I0.881 J1.213 
G01 X196.934 Y54.208 
G03 X197.106 Y54.128 I0.723 J1.314 
G01 X197.748 Y53.874 
G03 X197.926 Y53.816 I0.551 J1.394 
G01 X198.595 Y53.644 
G03 X198.782 Y53.608 I0.373 J1.452 
G01 X199.468 Y53.522 
G03 X199.655 Y53.511 I0.186 J1.488 
G01 X200.345 Y53.511 
G03 X200.531 Y53.522 I0 J1.5 
G01 X201.217 Y53.608 
G03 X201.404 Y53.644 I-0.186 J1.488 
G01 X202.073 Y53.816 
G03 X202.251 Y53.874 I-0.373 J1.452 
G01 X202.893 Y54.128 
G03 X203.065 Y54.208 I-0.551 J1.394 
G01 X203.67 Y54.541 
G03 X203.828 Y54.642 I-0.723 J1.314 
G01 X204.387 Y55.048 
G03 X204.533 Y55.169 I-0.881 J1.213 
G01 X205.036 Y55.642 
G03 X205.163 Y55.777 I-1.027 J1.092 
G01 X205.604 Y56.309 
G03 X205.716 Y56.463 I-1.154 J0.957 
G01 X206.086 Y57.046 
G03 X206.177 Y57.211 I-1.266 J0.803 
G01 X206.471 Y57.836 
G03 X206.54 Y58.012 I-1.357 J0.638 
G01 X206.753 Y58.669 
G03 X206.8 Y58.849 I-1.426 J0.462 
G01 X206.93 Y59.528 
G03 X206.954 Y59.717 I-1.473 J0.282 
G01 X207.034 Y61 
X207.128 Y61.494 
X207.283 Y61.972 
X207.497 Y62.426 
X207.765 Y62.848 
X208.086 Y63.236 
X208.452 Y63.58 
X208.858 Y63.875 
X209.298 Y64.117 
X209.764 Y64.301 
X210.25 Y64.426 
X210.748 Y64.489 
X211 Y64.489 
G03 X211.181 Y64.5 I0 J1.5 
G01 X290.604 Y64.5 
X299.43 Y55.674 
G03 X299.463 Y55.642 I1.06 J1.06 
G01 X299.966 Y55.169 
G03 X300.112 Y55.048 I1.027 J1.092 
G01 X300.671 Y54.642 
G03 X300.829 Y54.541 I0.881 J1.213 
G01 X301.434 Y54.208 
G03 X301.606 Y54.128 I0.723 J1.314 
G01 X302.248 Y53.874 
G03 X302.426 Y53.816 I0.551 J1.394 
G01 X303.095 Y53.644 
G03 X303.282 Y53.608 I0.373 J1.452 
G01 X303.968 Y53.522 
G03 X304.155 Y53.511 I0.186 J1.488 
G01 X304.845 Y53.511 
G03 X305.031 Y53.522 I0 J1.5 
G01 X305.717 Y53.608 
G03 X305.904 Y53.644 I-0.186 J1.488 
G01 X306.573 Y53.816 
G03 X306.751 Y53.874 I-0.373 J1.452 
G01 X307.393 Y54.128 
G03 X307.565 Y54.208 I-0.551 J1.394 
G01 X308.17 Y54.541 
G03 X308.328 Y54.642 I-0.723 J1.314 
G01 X308.887 Y55.048 
G03 X309.033 Y55.169 I-0.881 J1.213 
G01 X309.536 Y55.642 
G03 X309.663 Y55.777 I-1.027 J1.092 
G01 X310.104 Y56.309 
G03 X310.216 Y56.463 I-1.154 J0.957 
G01 X310.586 Y57.046 
G03 X310.677 Y57.211 I-1.266 J0.803 
G01 X310.971 Y57.836 
G03 X311.04 Y58.012 I-1.357 J0.638 
G01 X311.253 Y58.669 
G03 X311.3 Y58.849 I-1.426 J0.462 
G01 X311.43 Y59.528 
G03 X311.454 Y59.717 I-1.473 J0.282 
G01 X311.497 Y60.406 
G03 X311.497 Y60.593 I-1.497 J0.093 
G01 X311.454 Y61.282 
G03 X311.43 Y61.471 I-1.497 J-0.093 
G01 X311.3 Y62.15 
G03 X311.253 Y62.33 I-1.473 J-0.282 
G01 X311.04 Y62.987 
G03 X310.971 Y63.163 I-1.426 J-0.462 
G01 X310.677 Y63.788 
G03 X310.586 Y63.953 I-1.357 J-0.638 
G01 X310.216 Y64.536 
G03 X310.104 Y64.69 I-1.266 J-0.803 
G01 X309.663 Y65.222 
G03 X309.569 Y65.325 I-1.154 J-0.957 
G01 X300.5 Y74.395 
X300.5 Y153.818 
G03 X300.511 Y154 I-1.489 J0.181 
G01 X300.511 Y154.251 
X300.573 Y154.749 
X300.698 Y155.235 
X300.882 Y155.701 
X301.124 Y156.141 
X301.419 Y156.547 
X301.763 Y156.913 
X302.151 Y157.234 
X302.573 Y157.502 
X303.027 Y157.716 
X303.505 Y157.871 
X303.999 Y157.965 
X305.282 Y158.045 
G03 X305.471 Y158.069 I-0.093 J1.497 
G01 X306.15 Y158.199 
G03 X306.33 Y158.246 I-0.282 J1.473 
G01 X306.987 Y158.459 
G03 X307.163 Y158.528 I-0.462 J1.426 
G01 X307.788 Y158.822 
G03 X307.953 Y158.913 I-0.638 J1.357 
G01 X308.536 Y159.283 
G03 X308.69 Y159.395 I-0.803 J1.266 
G01 X309.222 Y159.836 
G03 X309.357 Y159.963 I-0.957 J1.154 
G01 X309.83 Y160.466 
G03 X309.951 Y160.612 I-1.092 J1.027 
G01 X310.357 Y161.171 
G03 X310.458 Y161.329 I-1.213 J0.881 
G01 X310.791 Y161.934 
G03 X310.871 Y162.106 I-1.314 J0.723 
G01 X311.125 Y162.748 
G03 X311.183 Y162.926 I-1.394 J0.551 
G01 X311.355 Y163.595 
G03 X311.391 Y163.782 I-1.452 J0.373 
G01 X311.477 Y164.468 
G03 X311.489 Y164.655 I-1.488 J0.186 
G01 X311.489 Y165.345 
G03 X311.477 Y165.531 I-1.5 J0 
G01 X311.391 Y166.217 
G03 X311.355 Y166.404 I-1.488 J-0.186 
G01 X311.183 Y167.073 
G03 X311.125 Y167.251 I-1.452 J-0.373 
G01 X310.871 Y167.893 
G03 X310.791 Y168.065 I-1.394 J-0.551 
G01 X310.458 Y168.67 
G03 X310.357 Y168.828 I-1.314 J-0.723 
G01 X309.951 Y169.387 
G03 X309.83 Y169.533 I-1.213 J-0.881 
G01 X309.357 Y170.036 
G03 X309.222 Y170.163 I-1.092 J-1.027 
G01 X308.69 Y170.604 
G03 X308.536 Y170.716 I-0.957 J-1.154 
G01 X307.953 Y171.086 
G03 X307.788 Y171.177 I-0.803 J-1.266 
G01 X307.163 Y171.471 
G03 X306.987 Y171.54 I-0.638 J-1.357 
G01 X306.33 Y171.753 
G03 X306.15 Y171.8 I-0.462 J-1.426 
G01 X305.471 Y171.93 
G03 X305.282 Y171.954 I-0.282 J-1.473 
G01 X303.999 Y172.034 
X303.505 Y172.128 
X303.027 Y172.283 
X302.573 Y172.497 
X302.151 Y172.765 
X301.763 Y173.086 
X301.419 Y173.452 
X301.124 Y173.858 
X300.882 Y174.298 
X300.698 Y174.764 
X300.573 Y175.25 
X300.511 Y175.748 
X300.511 Y176 
G03 X300.5 Y176.181 I-1.5 J0 
G01 X300.5 Y255.604 
X309.569 Y264.674 
G03 X309.663 Y264.777 I-1.06 J1.06 
G01 X310.104 Y265.309 
G03 X310.216 Y265.463 I-1.154 J0.957 
G01 X310.586 Y266.046 
G03 X310.677 Y266.211 I-1.266 J0.803 
G01 X310.971 Y266.836 
G03 X311.04 Y267.012 I-1.357 J0.638 
G01 X311.253 Y267.669 
G03 X311.3 Y267.849 I-1.426 J0.462 
G01 X311.43 Y268.528 
G03 X311.454 Y268.717 I-1.473 J0.282 
G01 X311.497 Y269.406 
G03 X311.497 Y269.593 I-1.497 J0.093 
G01 X311.454 Y270.282 
G03 X311.43 Y270.471 I-1.497 J-0.093 
G01 X311.3 Y271.15 
G03 X311.253 Y271.33 I-1.473 J-0.282 
G01 X311.04 Y271.987 
G03 X310.971 Y272.163 I-1.426 J-0.462 
G01 X310.677 Y272.788 
G03 X310.586 Y272.953 I-1.357 J-0.638 
G01 X310.216 Y273.536 
G03 X310.104 Y273.69 I-1.266 J-0.803 
G01 X309.663 Y274.222 
G03 X309.536 Y274.357 I-1.154 J-0.957 
G01 X309.033 Y274.83 
G03 X308.887 Y274.951 I-1.027 J-1.092 
G01 X308.328 Y275.357 
G03 X308.17 Y275.458 I-0.881 J-1.213 
G01 X307.565 Y275.791 
G03 X307.393 Y275.871 I-0.723 J-1.314 
G01 X306.751 Y276.125 
G03 X306.573 Y276.183 I-0.551 J-1.394 
G01 X305.904 Y276.355 
G03 X305.717 Y276.391 I-0.373 J-1.452 
G01 X305.031 Y276.477 
G03 X304.845 Y276.489 I-0.186 J-1.488 
G01 X304.155 Y276.489 
G03 X303.968 Y276.477 I0 J-1.5 
G01 X303.282 Y276.391 
G03 X303.095 Y276.355 I0.186 J-1.488 
G01 X302.426 Y276.183 
G03 X302.248 Y276.125 I0.373 J-1.452 
G01 X301.606 Y275.871 
G03 X301.434 Y275.791 I0.551 J-1.394 
G01 X300.829 Y275.458 
G03 X300.671 Y275.357 I0.723 J-1.314 
G01 X300.112 Y274.951 
G03 X299.966 Y274.83 I0.881 J-1.213 
G01 X299.463 Y274.357 
G03 X299.43 Y274.325 I1.027 J-1.092 
G01 X290.604 Y265.5 
X109.395 Y265.5 
X100.569 Y274.325 
G03 X100.536 Y274.358 I-1.06 J-1.06 
G01 X100.032 Y274.831 
G03 X99.887 Y274.951 I-1.027 J-1.093 
G01 X99.328 Y275.357 
G03 X99.17 Y275.458 I-0.881 J-1.213 
G01 X98.564 Y275.791 
G03 X98.393 Y275.871 I-0.723 J-1.314 
G01 X97.751 Y276.125 
G03 X97.573 Y276.183 I-0.551 J-1.394 
G01 X96.904 Y276.355 
G03 X96.717 Y276.391 I-0.373 J-1.452 
G01 X96.032 Y276.477 
G03 X95.845 Y276.489 I-0.186 J-1.488 
G01 X95.154 Y276.489 
G03 X94.967 Y276.477 I0 J-1.5 
G01 X94.282 Y276.391 
G03 X94.095 Y276.355 I0.186 J-1.488 
G01 X93.426 Y276.183 
G03 X93.248 Y276.125 I0.373 J-1.452 
G01 X92.606 Y275.871 
G03 X92.435 Y275.791 I0.551 J-1.394 
G01 X91.829 Y275.458 
G03 X91.671 Y275.357 I0.723 J-1.314 
G01 X91.112 Y274.951 
G03 X90.967 Y274.831 I0.881 J-1.213 
G01 X90.463 Y274.358 
G03 X90.335 Y274.221 I1.027 J-1.093 
G01 X89.894 Y273.689 
G03 X89.784 Y273.536 I1.155 J-0.956 
G01 X89.413 Y272.953 
G03 X89.323 Y272.788 I1.266 J-0.803 
G01 X89.028 Y272.163 
G03 X88.959 Y271.988 I1.357 J-0.638 
G01 X88.746 Y271.331 
G03 X88.699 Y271.148 I1.426 J-0.463 
G01 X88.569 Y270.469 
G03 X88.546 Y270.283 I1.473 J-0.28 
G01 X88.502 Y269.594 
G03 X88.502 Y269.405 I1.497 J-0.094 
G01 X88.546 Y268.716 
G03 X88.569 Y268.53 I1.497 J0.094 
G01 X88.699 Y267.851 
G03 X88.746 Y267.668 I1.473 J0.28 
G01 X88.959 Y267.011 
G03 X89.028 Y266.836 I1.426 J0.463 
G01 X89.323 Y266.211 
G03 X89.413 Y266.046 I1.357 J0.638 
G01 X89.784 Y265.463 
G03 X89.894 Y265.31 I1.266 J0.803 
G01 X90.335 Y264.778 
G03 X90.43 Y264.674 I1.155 J0.956 
G01 X99.5 Y255.604 
X99.5 Y165 
G02 X97.5 Y165 I-1 J0 
G01 Z-6 F100
G02 X99.5 Y165 I1 J0 F150
G01 X99.5 Y74.395 
X90.43 Y65.325 
G03 X90.335 Y65.221 I1.06 J-1.06 
G01 X89.894 Y64.689 
G03 X89.784 Y64.536 I1.155 J-0.956 
G01 X89.413 Y63.953 
G03 X89.323 Y63.788 I1.266 J-0.803 
G01 X89.028 Y63.163 
G03 X88.959 Y62.988 I1.357 J-0.638 
G01 X88.746 Y62.331 
G03 X88.699 Y62.148 I1.426 J-0.463 
G01 X88.569 Y61.469 
G03 X88.546 Y61.283 I1.473 J-0.28 
G01 X88.502 Y60.594 
G03 X88.502 Y60.405 I1.497 J-0.094 
G01 X88.546 Y59.716 
G03 X88.569 Y59.53 I1.497 J0.094 
G01 X88.699 Y58.851 
G03 X88.746 Y58.668 I1.473 J0.28 
G01 X88.959 Y58.011 
G03 X89.028 Y57.836 I1.426 J0.463 
G01 X89.323 Y57.211 
G03 X89.413 Y57.046 I1.357 J0.638 
G01 X89.784 Y56.463 
G03 X89.894 Y56.31 I1.266 J0.803 
G01 X90.335 Y55.778 
G03 X90.463 Y55.641 I1.155 J0.956 
G01 X90.967 Y55.168 
G03 X91.112 Y55.048 I1.027 J1.093 
G01 X91.671 Y54.642 
G03 X91.829 Y54.541 I0.881 J1.213 
G01 X92.435 Y54.208 
G03 X92.606 Y54.128 I0.723 J1.314 
G01 X93.248 Y53.874 
G03 X93.426 Y53.816 I0.551 J1.394 
G01 X94.095 Y53.644 
G03 X94.282 Y53.608 I0.373 J1.452 
G01 X94.967 Y53.522 
G03 X95.154 Y53.511 I0.186 J1.488 
G01 X95.845 Y53.511 
G03 X96.032 Y53.522 I0 J1.5 
G01 X96.717 Y53.608 
G03 X96.904 Y53.644 I-0.186 J1.488 
G01 X97.573 Y53.816 
G03 X97.751 Y53.874 I-0.373 J1.452 
G01 X98.393 Y54.128 
G03 X98.564 Y54.208 I-0.551 J1.394 
G01 X99.17 Y54.541 
G03 X99.328 Y54.642 I-0.723 J1.314 
G01 X99.887 Y55.048 
G03 X100.032 Y55.168 I-0.881 J1.213 
G01 X100.536 Y55.641 
G03 X100.569 Y55.674 I-1.027 J1.093 
G01 X109.395 Y64.5 
X188.818 Y64.5 
G03 X189 Y64.489 I0.181 J1.489 
G01 X189.251 Y64.489 
X189.749 Y64.426 
X190.235 Y64.301 
X190.701 Y64.117 
X191.141 Y63.875 
X191.547 Y63.58 
X191.913 Y63.236 
X192.234 Y62.848 
X192.502 Y62.426 
X192.716 Y61.972 
X192.871 Y61.494 
X192.965 Y61 
X193.045 Y59.717 
G03 X193.069 Y59.528 I1.497 J0.093 
G01 X193.199 Y58.849 
G03 X193.246 Y58.669 I1.473 J0.282 
G01 X193.459 Y58.012 
G03 X193.528 Y57.836 I1.426 J0.462 
G01 X193.822 Y57.211 
G03 X193.913 Y57.046 I1.357 J0.638 
G01 X194.283 Y56.463 
G03 X194.395 Y56.309 I1.266 J0.803 
G01 X194.836 Y55.777 
G03 X194.963 Y55.642 I1.154 J0.957 
G01 X195.466 Y55.169 
G03 X195.612 Y55.048 I1.027 J1.092 
G01 X196.171 Y54.642 
G03 X196.329 Y54.541 I0.881 J1.213 
G01 X196.934 Y54.208 
G03 X197.106 Y54.128 I0.723 J1.314 
G01 X197.748 Y53.874 
G03 X197.926 Y53.816 I0.551 J1.394 
G01 X198.595 Y53.644 
G03 X198.782 Y53.608 I0.373 J1.452 
G01 X199.468 Y53.522 
G03 X199.655 Y53.511 I0.186 J1.488 
G01 X200.345 Y53.511 
G03 X200.531 Y53.522 I0 J1.5 
G01 X201.217 Y53.608 
G03 X201.404 Y53.644 I-0.186 J1.488 
G01 X202.073 Y53.816 
G03 X202.251 Y53.874 I-0.373 J1.452 
G01 X202.893 Y54.128 
G03 X203.065 Y54.208 I-0.551 J1.394 
G01 X203.67 Y54.541 
G03 X203.828 Y54.642 I-0.723 J1.314 
G01 X204.387 Y55.048 
G03 X204.533 Y55.169 I-0.881 J1.213 
G01 X205.036 Y55.642 
G03 X205.163 Y55.777 I-1.027 J1.092 
G01 X205.604 Y56.309 
G03 X205.716 Y56.463 I-1.154 J0.957 
G01 X206.086 Y57.046 
G03 X206.177 Y57.211 I-1.266 J0.803 
G01 X206.471 Y57.836 
G03 X206.54 Y58.012 I-1.357 J0.638 
G01 X206.753 Y58.669 
G03 X206.8 Y58.849 I-1.426 J0.462 
G01 X206.93 Y59.528 
G03 X206.954 Y59.717 I-1.473 J0.282 
G01 X207.034 Y61 
X207.128 Y61.494 
X207.283 Y61.972 
X207.497 Y62.426 
X207.765 Y62.848 
X208.086 Y63.236 
X208.452 Y63.58 
X208.858 Y63.875 
X209.298 Y64.117 
X209.764 Y64.301 
X210.25 Y64.426 
X210.748 Y64.489 
X211 Y64.489 
G03 X211.181 Y64.5 I0 J1.5 
G01 X290.604 Y64.5 
X299.43 Y55.674 
G03 X299.463 Y55.642 I1.06 J1.06 
G01 X299.966 Y55.169 
G03 X300.112 Y55.048 I1.027 J1.092 
G01 X300.671 Y54.642 
G03 X300.829 Y54.541 I0.881 J1.213 
G01 X301.434 Y54.208 
G03 X301.606 Y54.128 I0.723 J1.314 
G01 X302.248 Y53.874 
G03 X302.426 Y53.816 I0.551 J1.394 
G01 X303.095 Y53.644 
G03 X303.282 Y53.608 I0.373 J1.452 
G01 X303.968 Y53.522 
G03 X304.155 Y53.511 I0.186 J1.488 
G01 X304.845 Y53.511 
G03 X305.031 Y53.522 I0 J1.5 
G01 X305.717 Y53.608 
G03 X305.904 Y53.644 I-0.186 J1.488 
G01 X306.573 Y53.816 
G03 X306.751 Y53.874 I-0.373 J1.452 
G01 X307.393 Y54.128 
G03 X307.565 Y54.208 I-0.551 J1.394 
G01 X308.17 Y54.541 
G03 X308.328 Y54.642 I-0.723 J1.314 
G01 X308.887 Y55.048 
G03 X309.033 Y55.169 I-0.881 J1.213 
G01 X309.536 Y55.642 
G03 X309.663 Y55.777 I-1.027 J1.092 
G01 X310.104 Y56.309 
G03 X310.216 Y56.463 I-1.154 J0.957 
G01 X310.586 Y57.046 
G03 X310.677 Y57.211 I-1.266 J0.803 
G01 X310.971 Y57.836 
G03 X311.04 Y58.012 I-1.357 J0.638 
G01 X311.253 Y58.669 
G03 X311.3 Y58.849 I-1.426 J0.462 
G01 X311.43 Y59.528 
G03 X311.454 Y59.717 I-1.473 J0.282 
G01 X311.497 Y60.406 
G03 X311.497 Y60.593 I-1.497 J0.093 
G01 X311.454 Y61.282 
G03 X311.43 Y61.471 I-1.497 J-0.093 
G01 X311.3 Y62.15 
G03 X311.253 Y62.33 I-1.473 J-0.282 
G01 X311.04 Y62.987 
G03 X310.971 Y63.163 I-1.426 J-0.462 
G01 X310.677 Y63.788 
G03 X310.586 Y63.953 I-1.357 J-0.638 
G01 X310.216 Y64.536 
G03 X310.104 Y64.69 I-1.266 J-0.803 
G01 X309.663 Y65.222 
G03 X309.569 Y65.325 I-1.154 J-0.957 
G01 X300.5 Y74.395 
X300.5 Y153.818 
G03 X300.511 Y154 I-1.489 J0.181 
G01 X300.511 Y154.251 
X300.573 Y154.749 
X300.698 Y155.235 
X300.882 Y155.701 
X301.124 Y156.141 
X301.419 Y156.547 
X301.763 Y156.913 
X302.151 Y157.234 
X302.573 Y157.502 
X303.027 Y157.716 
X303.505 Y157.871 
X303.999 Y157.965 
X305.282 Y158.045 
G03 X305.471 Y158.069 I-0.093 J1.497 
G01 X306.15 Y158.199 
G03 X306.33 Y158.246 I-0.282 J1.473 
G01 X306.987 Y158.459 
G03 X307.163 Y158.528 I-0.462 J1.426 
G01 X307.788 Y158.822 
G03 X307.953 Y158.913 I-0.638 J1.357 
G01 X308.536 Y159.283 
G03 X308.69 Y159.395 I-0.803 J1.266 
G01 X309.222 Y159.836 
G03 X309.357 Y159.963 I-0.957 J1.154 
G01 X309.83 Y160.466 
G03 X309.951 Y160.612 I-1.092 J1.027 
G01 X310.357 Y161.171 
G03 X310.458 Y161.329 I-1.213 J0.881 
G01 X310.791 Y161.934 
G03 X310.871 Y162.106 I-1.314 J0.723 
G01 X311.125 Y162.748 
G03 X311.183 Y162.926 I-1.394 J0.551 
G01 X311.355 Y163.595 
G03 X311.391 Y163.782 I-1.452 J0.373 
G01 X311.477 Y164.468 
G03 X311.489 Y164.655 I-1.488 J0.186 
G01 X311.489 Y165.345 
G03 X311.477 Y165.531 I-1.5 J0 
G01 X311.391 Y166.217 
G03 X311.355 Y166.404 I-1.488 J-0.186 
G01 X311.183 Y167.073 
G03 X311.125 Y167.251 I-1.452 J-0.373 
G01 X310.871 Y167.893 
G03 X310.791 Y168.065 I-1.394 J-0.551 
G01 X310.458 Y168.67 
G03 X310.357 Y168.828 I-1.314 J-0.723 
G01 X309.951 Y169.387 
G03 X309.83 Y169.533 I-1.213 J-0.881 
G01 X309.357 Y170.036 
G03 X309.222 Y170.163 I-1.092 J-1.027 
G01 X308.69 Y170.604 
G03 X308.536 Y170.716 I-0.957 J-1.154 
G01 X307.953 Y171.086 
G03 X307.788 Y171.177 I-0.803 J-1.266 
G01 X307.163 Y171.471 
G03 X306.987 Y171.54 I-0.638 J-1.357 
G01 X306.33 Y171.753 
G03 X306.15 Y171.8 I-0.462 J-1.426 
G01 X305.471 Y171.93 
G03 X305.282 Y171.954 I-0.282 J-1.473 
G01 X303.999 Y172.034 
X303.505 Y172.128 
X303.027 Y172.283 
X302.573 Y172.497 
X302.151 Y172.765 
X301.763 Y173.086 
X301.419 Y173.452 
X301.124 Y173.858 
X300.882 Y174.298 
X300.698 Y174.764 
X300.573 Y175.25 
X300.511 Y175.748 
X300.511 Y176 
G03 X300.5 Y176.181 I-1.5 J0 
G01 X300.5 Y255.604 
X309.569 Y264.674 
G03 X309.663 Y264.777 I-1.06 J1.06 
G01 X310.104 Y265.309 
G03 X310.216 Y265.463 I-1.154 J0.957 
G01 X310.586 Y266.046 
G03 X310.677 Y266.211 I-1.266 J0.803 
G01 X310.971 Y266.836 
G03 X311.04 Y267.012 I-1.357 J0.638 
G01 X311.253 Y267.669 
G03 X311.3 Y267.849 I-1.426 J0.462 
G01 X311.43 Y268.528 
G03 X311.454 Y268.717 I-1.473 J0.282 
G01 X311.497 Y269.406 
G03 X311.497 Y269.593 I-1.497 J0.093 
G01 X311.454 Y270.282 
G03 X311.43 Y270.471 I-1.497 J-0.093 
G01 X311.3 Y271.15 
G03 X311.253 Y271.33 I-1.473 J-0.282 
G01 X311.04 Y271.987 
G03 X310.971 Y272.163 I-1.426 J-0.462 
G01 X310.677 Y272.788 
G03 X310.586 Y272.953 I-1.357 J-0.638 
G01 X310.216 Y273.536 
G03 X310.104 Y273.69 I-1.266 J-0.803 
G01 X309.663 Y274.222 
G03 X309.536 Y274.357 I-1.154 J-0.957 
G01 X309.033 Y274.83 
G03 X308.887 Y274.951 I-1.027 J-1.092 
G01 X308.328 Y275.357 
G03 X308.17 Y275.458 I-0.881 J-1.213 
G01 X307.565 Y275.791 
G03 X307.393 Y275.871 I-0.723 J-1.314 
G01 X306.751 Y276.125 
G03 X306.573 Y276.183 I-0.551 J-1.394 
G01 X305.904 Y276.355 
G03 X305.717 Y276.391 I-0.373 J-1.452 
G01 X305.031 Y276.477 
G03 X304.845 Y276.489 I-0.186 J-1.488 
G01 X304.155 Y276.489 
G03 X303.968 Y276.477 I0 J-1.5 
G01 X303.282 Y276.391 
G03 X303.095 Y276.355 I0.186 J-1.488 
G01 X302.426 Y276.183 
G03 X302.248 Y276.125 I0.373 J-1.452 
G01 X301.606 Y275.871 
G03 X301.434 Y275.791 I0.551 J-1.394 
G01 X300.829 Y275.458 
G03 X300.671 Y275.357 I0.723 J-1.314 
G01 X300.112 Y274.951 
G03 X299.966 Y274.83 I0.881 J-1.213 
G01 X299.463 Y274.357 
G03 X299.43 Y274.325 I1.027 J-1.092 
G01 X290.604 Y265.5 
X109.395 Y265.5 
X100.569 Y274.325 
G03 X100.536 Y274.358 I-1.06 J-1.06 
G01 X100.032 Y274.831 
G03 X99.887 Y274.951 I-1.027 J-1.093 
G01 X99.328 Y275.357 
G03 X99.17 Y275.458 I-0.881 J-1.213 
G01 X98.564 Y275.791 
G03 X98.393 Y275.871 I-0.723 J-1.314 
G01 X97.751 Y276.125 
G03 X97.573 Y276.183 I-0.551 J-1.394 
G01 X96.904 Y276.355 
G03 X96.717 Y276.391 I-0.373 J-1.452 
G01 X96.032 Y276.477 
G03 X95.845 Y276.489 I-0.186 J-1.488 
G01 X95.154 Y276.489 
G03 X94.967 Y276.477 I0 J-1.5 
G01 X94.282 Y276.391 
G03 X94.095 Y276.355 I0.186 J-1.488 
G01 X93.426 Y276.183 
G03 X93.248 Y276.125 I0.373 J-1.452 
G01 X92.606 Y275.871 
G03 X92.435 Y275.791 I0.551 J-1.394 
G01 X91.829 Y275.458 
G03 X91.671 Y275.357 I0.723 J-1.314 
G01 X91.112 Y274.951 
G03 X90.967 Y274.831 I0.881 J-1.213 
G01 X90.463 Y274.358 
G03 X90.335 Y274.221 I1.027 J-1.093 
G01 X89.894 Y273.689 
G03 X89.784 Y273.536 I1.155 J-0.956 
G01 X89.413 Y272.953 
G03 X89.323 Y272.788 I1.266 J-0.803 
G01 X89.028 Y272.163 
G03 X88.959 Y271.988 I1.357 J-0.638 
G01 X88.746 Y271.331 
G03 X88.699 Y271.148 I1.426 J-0.463 
G01 X88.569 Y270.469 
G03 X88.546 Y270.283 I1.473 J-0.28 
G01 X88.502 Y269.594 
G03 X88.502 Y269.405 I1.497 J-0.094 
G01 X88.546 Y268.716 
G03 X88.569 Y268.53 I1.497 J0.094 
G01 X88.699 Y267.851 
G03 X88.746 Y267.668 I1.473 J0.28 
G01 X88.959 Y267.011 
G03 X89.028 Y266.836 I1.426 J0.463 
G01 X89.323 Y266.211 
G03 X89.413 Y266.046 I1.357 J0.638 
G01 X89.784 Y265.463 
G03 X89.894 Y265.31 I1.266 J0.803 
G01 X90.335 Y264.778 
G03 X90.43 Y264.674 I1.155 J0.956 
G01 X99.5 Y255.604 
X99.5 Y165 
G02 X97.5 Y165 I-1 J0 
G01 Z-9 F100
G02 X99.5 Y165 I1 J0 F150
G01 X99.5 Y74.395 
X90.43 Y65.325 
G03 X90.335 Y65.221 I1.06 J-1.06 
G01 X89.894 Y64.689 
G03 X89.784 Y64.536 I1.155 J-0.956 
G01 X89.413 Y63.953 
G03 X89.323 Y63.788 I1.266 J-0.803 
G01 X89.028 Y63.163 
G03 X88.959 Y62.988 I1.357 J-0.638 
G01 X88.746 Y62.331 
G03 X88.699 Y62.148 I1.426 J-0.463 
G01 X88.569 Y61.469 
G03 X88.546 Y61.283 I1.473 J-0.28 
G01 X88.502 Y60.594 
G03 X88.502 Y60.405 I1.497 J-0.094 
G01 X88.546 Y59.716 
G03 X88.569 Y59.53 I1.497 J0.094 
G01 X88.699 Y58.851 
G03 X88.746 Y58.668 I1.473 J0.28 
G01 X88.959 Y58.011 
G03 X89.028 Y57.836 I1.426 J0.463 
G01 X89.323 Y57.211 
G03 X89.413 Y57.046 I1.357 J0.638 
G01 X89.784 Y56.463 
G03 X89.894 Y56.31 I1.266 J0.803 
G01 X90.335 Y55.778 
G03 X90.463 Y55.641 I1.155 J0.956 
G01 X90.967 Y55.168 
G03 X91.112 Y55.048 I1.027 J1.093 
G01 X91.671 Y54.642 
G03 X91.829 Y54.541 I0.881 J1.213 
G01 X92.435 Y54.208 
G03 X92.606 Y54.128 I0.723 J1.314 
G01 X93.248 Y53.874 
G03 X93.426 Y53.816 I0.551 J1.394 
G01 X94.095 Y53.644 
G03 X94.282 Y53.608 I0.373 J1.452 
G01 X94.967 Y53.522 
G03 X95.154 Y53.511 I0.186 J1.488 
G01 X95.845 Y53.511 
G03 X96.032 Y53.522 I0 J1.5 
G01 X96.717 Y53.608 
G03 X96.904 Y53.644 I-0.186 J1.488 
G01 X97.573 Y53.816 
G03 X97.751 Y53.874 I-0.373 J1.452 
G01 X98.393 Y54.128 
G03 X98.564 Y54.208 I-0.551 J1.394 
G01 X99.17 Y54.541 
G03 X99.328 Y54.642 I-0.723 J1.314 
G01 X99.887 Y55.048 
G03 X100.032 Y55.168 I-0.881 J1.213 
G01 X100.536 Y55.641 
G03 X100.569 Y55.674 I-1.027 J1.093 
G01 X109.395 Y64.5 
X188.818 Y64.5 
G03 X189 Y64.489 I0.181 J1.489 
G01 X189.251 Y64.489 
X189.749 Y64.426 
X190.235 Y64.301 
X190.701 Y64.117 
X191.141 Y63.875 
X191.547 Y63.58 
X191.913 Y63.236 
X192.234 Y62.848 
X192.502 Y62.426 
X192.716 Y61.972 
X192.871 Y61.494 
X192.965 Y61 
X193.045 Y59.717 
G03 X193.069 Y59.528 I1.497 J0.093 
G01 X193.199 Y58.849 
G03 X193.246 Y58.669 I1.473 J0.282 
G01 X193.459 Y58.012 
G03 X193.528 Y57.836 I1.426 J0.462 
G01 X193.822 Y57.211 
G03 X193.913 Y57.046 I1.357 J0.638 
G01 X194.283 Y56.463 
G03 X194.395 Y56.309 I1.266 J0.803 
G01 X194.836 Y55.777 
G03 X194.963 Y55.642 I1.154 J0.957 
G01 X195.466 Y55.169 
G03 X195.612 Y55.048 I1.027 J1.092 
G01 X196.171 Y54.642 
G03 X196.329 Y54.541 I0.881 J1.213 
G01 X196.934 Y54.208 
G03 X197.106 Y54.128 I0.723 J1.314 
G01 X197.748 Y53.874 
G03 X197.926 Y53.816 I0.551 J1.394 
G01 X198.595 Y53.644 
G03 X198.782 Y53.608 I0.373 J1.452 
G01 X199.468 Y53.522 
G03 X199.655 Y53.511 I0.186 J1.488 
G01 X200.345 Y53.511 
G03 X200.531 Y53.522 I0 J1.5 
G01 X201.217 Y53.608 
G03 X201.404 Y53.644 I-0.186 J1.488 
G01 X202.073 Y53.816 
G03 X202.251 Y53.874 I-0.373 J1.452 
G01 X202.893 Y54.128 
G03 X203.065 Y54.208 I-0.551 J1.394 
G01 X203.67 Y54.541 
G03 X203.828 Y54.642 I-0.723 J1.314 
G01 X204.387 Y55.048 
G03 X204.533 Y55.169 I-0.881 J1.213 
G01 X205.036 Y55.642 
G03 X205.163 Y55.777 I-1.027 J1.092 
G01 X205.604 Y56.309 
G03 X205.716 Y56.463 I-1.154 J0.957 
G01 X206.086 Y57.046 
G03 X206.177 Y57.211 I-1.266 J0.803 
G01 X206.471 Y57.836 
G03 X206.54 Y58.012 I-1.357 J0.638 
G01 X206.753 Y58.669 
G03 X206.8 Y58.849 I-1.426 J0.462 
G01 X206.93 Y59.528 
G03 X206.954 Y59.717 I-1.473 J0.282 
G01 X207.034 Y61 
X207.128 Y61.494 
X207.283 Y61.972 
X207.497 Y62.426 
X207.765 Y62.848 
X208.086 Y63.236 
X208.452 Y63.58 
X208.858 Y63.875 
X209.298 Y64.117 
X209.764 Y64.301 
X210.25 Y64.426 
X210.748 Y64.489 
X211 Y64.489 
G03 X211.181 Y64.5 I0 J1.5 
G01 X290.604 Y64.5 
X299.43 Y55.674 
G03 X299.463 Y55.642 I1.06 J1.06 
G01 X299.966 Y55.169 
G03 X300.112 Y55.048 I1.027 J1.092 
G01 X300.671 Y54.642 
G03 X300.829 Y54.541 I0.881 J1.213 
G01 X301.434 Y54.208 
G03 X301.606 Y54.128 I0.723 J1.314 
G01 X302.248 Y53.874 
G03 X302.426 Y53.816 I0.551 J1.394 
G01 X303.095 Y53.644 
G03 X303.282 Y53.608 I0.373 J1.452 
G01 X303.968 Y53.522 
G03 X304.155 Y53.511 I0.186 J1.488 
G01 X304.845 Y53.511 
G03 X305.031 Y53.522 I0 J1.5 
G01 X305.717 Y53.608 
G03 X305.904 Y53.644 I-0.186 J1.488 
G01 X306.573 Y53.816 
G03 X306.751 Y53.874 I-0.373 J1.452 
G01 X307.393 Y54.128 
G03 X307.565 Y54.208 I-0.551 J1.394 
G01 X308.17 Y54.541 
G03 X308.328 Y54.642 I-0.723 J1.314 
G01 X308.887 Y55.048 
G03 X309.033 Y55.169 I-0.881 J1.213 
G01 X309.536 Y55.642 
G03 X309.663 Y55.777 I-1.027 J1.092 
G01 X310.104 Y56.309 
G03 X310.216 Y56.463 I-1.154 J0.957 
G01 X310.586 Y57.046 
G03 X310.677 Y57.211 I-1.266 J0.803 
G01 X310.971 Y57.836 
G03 X311.04 Y58.012 I-1.357 J0.638 
G01 X311.253 Y58.669 
G03 X311.3 Y58.849 I-1.426 J0.462 
G01 X311.43 Y59.528 
G03 X311.454 Y59.717 I-1.473 J0.282 
G01 X311.497 Y60.406 
G03 X311.497 Y60.593 I-1.497 J0.093 
G01 X311.454 Y61.282 
G03 X311.43 Y61.471 I-1.497 J-0.093 
G01 X311.3 Y62.15 
G03 X311.253 Y62.33 I-1.473 J-0.282 
G01 X311.04 Y62.987 
G03 X310.971 Y63.163 I-1.426 J-0.462 
G01 X310.677 Y63.788 
G03 X310.586 Y63.953 I-1.357 J-0.638 
G01 X310.216 Y64.536 
G03 X310.104 Y64.69 I-1.266 J-0.803 
G01 X309.663 Y65.222 
G03 X309.569 Y65.325 I-1.154 J-0.957 
G01 X300.5 Y74.395 
X300.5 Y153.818 
G03 X300.511 Y154 I-1.489 J0.181 
G01 X300.511 Y154.251 
X300.573 Y154.749 
X300.698 Y155.235 
X300.882 Y155.701 
X301.124 Y156.141 
X301.419 Y156.547 
X301.763 Y156.913 
X302.151 Y157.234 
X302.573 Y157.502 
X303.027 Y157.716 
X303.505 Y157.871 
X303.999 Y157.965 
X305.282 Y158.045 
G03 X305.471 Y158.069 I-0.093 J1.497 
G01 X306.15 Y158.199 
G03 X306.33 Y158.246 I-0.282 J1.473 
G01 X306.987 Y158.459 
G03 X307.163 Y158.528 I-0.462 J1.426 
G01 X307.788 Y158.822 
G03 X307.953 Y158.913 I-0.638 J1.357 
G01 X308.536 Y159.283 
G03 X308.69 Y159.395 I-0.803 J1.266 
G01 X309.222 Y159.836 
G03 X309.357 Y159.963 I-0.957 J1.154 
G01 X309.83 Y160.466 
G03 X309.951 Y160.612 I-1.092 J1.027 
G01 X310.357 Y161.171 
G03 X310.458 Y161.329 I-1.213 J0.881 
G01 X310.791 Y161.934 
G03 X310.871 Y162.106 I-1.314 J0.723 
G01 X311.125 Y162.748 
G03 X311.183 Y162.926 I-1.394 J0.551 
G01 X311.355 Y163.595 
G03 X311.391 Y163.782 I-1.452 J0.373 
G01 X311.477 Y164.468 
G03 X311.489 Y164.655 I-1.488 J0.186 
G01 X311.489 Y165.345 
G03 X311.477 Y165.531 I-1.5 J0 
G01 X311.391 Y166.217 
G03 X311.355 Y166.404 I-1.488 J-0.186 
G01 X311.183 Y167.073 
G03 X311.125 Y167.251 I-1.452 J-0.373 
G01 X310.871 Y167.893 
G03 X310.791 Y168.065 I-1.394 J-0.551 
G01 X310.458 Y168.67 
G03 X310.357 Y168.828 I-1.314 J-0.723 
G01 X309.951 Y169.387 
G03 X309.83 Y169.533 I-1.213 J-0.881 
G01 X309.357 Y170.036 
G03 X309.222 Y170.163 I-1.092 J-1.027 
G01 X308.69 Y170.604 
G03 X308.536 Y170.716 I-0.957 J-1.154 
G01 X307.953 Y171.086 
G03 X307.788 Y171.177 I-0.803 J-1.266 
G01 X307.163 Y171.471 
G03 X306.987 Y171.54 I-0.638 J-1.357 
G01 X306.33 Y171.753 
G03 X306.15 Y171.8 I-0.462 J-1.426 
G01 X305.471 Y171.93 
G03 X305.282 Y171.954 I-0.282 J-1.473 
G01 X303.999 Y172.034 
X303.505 Y172.128 
X303.027 Y172.283 
X302.573 Y172.497 
X302.151 Y172.765 
X301.763 Y173.086 
X301.419 Y173.452 
X301.124 Y173.858 
X300.882 Y174.298 
X300.698 Y174.764 
X300.573 Y175.25 
X300.511 Y175.748 
X300.511 Y176 
G03 X300.5 Y176.181 I-1.5 J0 
G01 X300.5 Y255.604 
X309.569 Y264.674 
G03 X309.663 Y264.777 I-1.06 J1.06 
G01 X310.104 Y265.309 
G03 X310.216 Y265.463 I-1.154 J0.957 
G01 X310.586 Y266.046 
G03 X310.677 Y266.211 I-1.266 J0.803 
G01 X310.971 Y266.836 
G03 X311.04 Y267.012 I-1.357 J0.638 
G01 X311.253 Y267.669 
G03 X311.3 Y267.849 I-1.426 J0.462 
G01 X311.43 Y268.528 
G03 X311.454 Y268.717 I-1.473 J0.282 
G01 X311.497 Y269.406 
G03 X311.497 Y269.593 I-1.497 J0.093 
G01 X311.454 Y270.282 
G03 X311.43 Y270.471 I-1.497 J-0.093 
G01 X311.3 Y271.15 
G03 X311.253 Y271.33 I-1.473 J-0.282 
G01 X311.04 Y271.987 
G03 X310.971 Y272.163 I-1.426 J-0.462 
G01 X310.677 Y272.788 
G03 X310.586 Y272.953 I-1.357 J-0.638 
G01 X310.216 Y273.536 
G03 X310.104 Y273.69 I-1.266 J-0.803 
G01 X309.663 Y274.222 
G03 X309.536 Y274.357 I-1.154 J-0.957 
G01 X309.033 Y274.83 
G03 X308.887 Y274.951 I-1.027 J-1.092 
G01 X308.328 Y275.357 
G03 X308.17 Y275.458 I-0.881 J-1.213 
G01 X307.565 Y275.791 
G03 X307.393 Y275.871 I-0.723 J-1.314 
G01 X306.751 Y276.125 
G03 X306.573 Y276.183 I-0.551 J-1.394 
G01 X305.904 Y276.355 
G03 X305.717 Y276.391 I-0.373 J-1.452 
G01 X305.031 Y276.477 
G03 X304.845 Y276.489 I-0.186 J-1.488 
G01 X304.155 Y276.489 
G03 X303.968 Y276.477 I0 J-1.5 
G01 X303.282 Y276.391 
G03 X303.095 Y276.355 I0.186 J-1.488 
G01 X302.426 Y276.183 
G03 X302.248 Y276.125 I0.373 J-1.452 
G01 X301.606 Y275.871 
G03 X301.434 Y275.791 I0.551 J-1.394 
G01 X300.829 Y275.458 
G03 X300.671 Y275.357 I0.723 J-1.314 
G01 X300.112 Y274.951 
G03 X299.966 Y274.83 I0.881 J-1.213 
G01 X299.463 Y274.357 
G03 X299.43 Y274.325 I1.027 J-1.092 
G01 X290.604 Y265.5 
X109.395 Y265.5 
X100.569 Y274.325 
G03 X100.536 Y274.358 I-1.06 J-1.06 
G01 X100.032 Y274.831 
G03 X99.887 Y274.951 I-1.027 J-1.093 
G01 X99.328 Y275.357 
G03 X99.17 Y275.458 I-0.881 J-1.213 
G01 X98.564 Y275.791 
G03 X98.393 Y275.871 I-0.723 J-1.314 
G01 X97.751 Y276.125 
G03 X97.573 Y276.183 I-0.551 J-1.394 
G01 X96.904 Y276.355 
G03 X96.717 Y276.391 I-0.373 J-1.452 
G01 X96.032 Y276.477 
G03 X95.845 Y276.489 I-0.186 J-1.488 
G01 X95.154 Y276.489 
G03 X94.967 Y276.477 I0 J-1.5 
G01 X94.282 Y276.391 
G03 X94.095 Y276.355 I0.186 J-1.488 
G01 X93.426 Y276.183 
G03 X93.248 Y276.125 I0.373 J-1.452 
G01 X92.606 Y275.871 
G03 X92.435 Y275.791 I0.551 J-1.394 
G01 X91.829 Y275.458 
G03 X91.671 Y275.357 I0.723 J-1.314 
G01 X91.112 Y274.951 
G03 X90.967 Y274.831 I0.881 J-1.213 
G01 X90.463 Y274.358 
G03 X90.335 Y274.221 I1.027 J-1.093 
G01 X89.894 Y273.689 
G03 X89.784 Y273.536 I1.155 J-0.956 
G01 X89.413 Y272.953 
G03 X89.323 Y272.788 I1.266 J-0.803 
G01 X89.028 Y272.163 
G03 X88.959 Y271.988 I1.357 J-0.638 
G01 X88.746 Y271.331 
G03 X88.699 Y271.148 I1.426 J-0.463 
G01 X88.569 Y270.469 
G03 X88.546 Y270.283 I1.473 J-0.28 
G01 X88.502 Y269.594 
G03 X88.502 Y269.405 I1.497 J-0.094 
G01 X88.546 Y268.716 
G03 X88.569 Y268.53 I1.497 J0.094 
G01 X88.699 Y267.851 
G03 X88.746 Y267.668 I1.473 J0.28 
G01 X88.959 Y267.011 
G03 X89.028 Y266.836 I1.426 J0.463 
G01 X89.323 Y266.211 
G03 X89.413 Y266.046 I1.357 J0.638 
G01 X89.784 Y265.463 
G03 X89.894 Y265.31 I1.266 J0.803 
G01 X90.335 Y264.778 
G03 X90.43 Y264.674 I1.155 J0.956 
G01 X99.5 Y255.604 
X99.5 Y165 
G02 X97.5 Y165 I-1 J0 
G01 Z-12 F100
G02 X99.5 Y165 I1 J0 F150
G01 X99.5 Y74.395 
X90.43 Y65.325 
G03 X90.335 Y65.221 I1.06 J-1.06 
G01 X89.894 Y64.689 
G03 X89.784 Y64.536 I1.155 J-0.956 
G01 X89.413 Y63.953 
G03 X89.323 Y63.788 I1.266 J-0.803 
G01 X89.028 Y63.163 
G03 X88.959 Y62.988 I1.357 J-0.638 
G01 X88.746 Y62.331 
G03 X88.699 Y62.148 I1.426 J-0.463 
G01 X88.569 Y61.469 
G03 X88.546 Y61.283 I1.473 J-0.28 
G01 X88.502 Y60.594 
G03 X88.502 Y60.405 I1.497 J-0.094 
G01 X88.546 Y59.716 
G03 X88.569 Y59.53 I1.497 J0.094 
G01 X88.699 Y58.851 
G03 X88.746 Y58.668 I1.473 J0.28 
G01 X88.959 Y58.011 
G03 X89.028 Y57.836 I1.426 J0.463 
G01 X89.323 Y57.211 
G03 X89.413 Y57.046 I1.357 J0.638 
G01 X89.784 Y56.463 
G03 X89.894 Y56.31 I1.266 J0.803 
G01 X90.335 Y55.778 
G03 X90.463 Y55.641 I1.155 J0.956 
G01 X90.967 Y55.168 
G03 X91.112 Y55.048 I1.027 J1.093 
G01 X91.671 Y54.642 
G03 X91.829 Y54.541 I0.881 J1.213 
G01 X92.435 Y54.208 
G03 X92.606 Y54.128 I0.723 J1.314 
G01 X93.248 Y53.874 
G03 X93.426 Y53.816 I0.551 J1.394 
G01 X94.095 Y53.644 
G03 X94.282 Y53.608 I0.373 J1.452 
G01 X94.967 Y53.522 
G03 X95.154 Y53.511 I0.186 J1.488 
G01 X95.845 Y53.511 
G03 X96.032 Y53.522 I0 J1.5 
G01 X96.717 Y53.608 
G03 X96.904 Y53.644 I-0.186 J1.488 
G01 X97.573 Y53.816 
G03 X97.751 Y53.874 I-0.373 J1.452 
G01 X98.393 Y54.128 
G03 X98.564 Y54.208 I-0.551 J1.394 
G01 X99.17 Y54.541 
G03 X99.328 Y54.642 I-0.723 J1.314 
G01 X99.887 Y55.048 
G03 X100.032 Y55.168 I-0.881 J1.213 
G01 X100.536 Y55.641 
G03 X100.569 Y55.674 I-1.027 J1.093 
G01 X109.395 Y64.5 
X188.818 Y64.5 
G03 X189 Y64.489 I0.181 J1.489 
G01 X189.251 Y64.489 
X189.749 Y64.426 
X190.235 Y64.301 
X190.701 Y64.117 
X191.141 Y63.875 
X191.547 Y63.58 
X191.913 Y63.236 
X192.234 Y62.848 
X192.502 Y62.426 
X192.716 Y61.972 
X192.871 Y61.494 
X192.965 Y61 
X193.045 Y59.717 
G03 X193.069 Y59.528 I1.497 J0.093 
G01 X193.199 Y58.849 
G03 X193.246 Y58.669 I1.473 J0.282 
G01 X193.459 Y58.012 
G03 X193.528 Y57.836 I1.426 J0.462 
G01 X193.822 Y57.211 
G03 X193.913 Y57.046 I1.357 J0.638 
G01 X194.283 Y56.463 
G03 X194.395 Y56.309 I1.266 J0.803 
G01 X194.836 Y55.777 
G03 X194.963 Y55.642 I1.154 J0.957 
G01 X195.466 Y55.169 
G03 X195.612 Y55.048 I1.027 J1.092 
G01 X196.171 Y54.642 
G03 X196.329 Y54.541 I0.881 J1.213 
G01 X196.934 Y54.208 
G03 X197.106 Y54.128 I0.723 J1.314 
G01 X197.748 Y53.874 
G03 X197.926 Y53.816 I0.551 J1.394 
G01 X198.595 Y53.644 
G03 X198.782 Y53.608 I0.373 J1.452 
G01 X199.468 Y53.522 
G03 X199.655 Y53.511 I0.186 J1.488 
G01 X200.345 Y53.511 
G03 X200.531 Y53.522 I0 J1.5 
G01 X201.217 Y53.608 
G03 X201.404 Y53.644 I-0.186 J1.488 
G01 X202.073 Y53.816 
G03 X202.251 Y53.874 I-0.373 J1.452 
G01 X202.893 Y54.128 
G03 X203.065 Y54.208 I-0.551 J1.394 
G01 X203.67 Y54.541 
G03 X203.828 Y54.642 I-0.723 J1.314 
G01 X204.387 Y55.048 
G03 X204.533 Y55.169 I-0.881 J1.213 
G01 X205.036 Y55.642 
G03 X205.163 Y55.777 I-1.027 J1.092 
G01 X205.604 Y56.309 
G03 X205.716 Y56.463 I-1.154 J0.957 
G01 X206.086 Y57.046 
G03 X206.177 Y57.211 I-1.266 J0.803 
G01 X206.471 Y57.836 
G03 X206.54 Y58.012 I-1.357 J0.638 
G01 X206.753 Y58.669 
G03 X206.8 Y58.849 I-1.426 J0.462 
G01 X206.93 Y59.528 
G03 X206.954 Y59.717 I-1.473 J0.282 
G01 X207.034 Y61 
X207.128 Y61.494 
X207.283 Y61.972 
X207.497 Y62.426 
X207.765 Y62.848 
X208.086 Y63.236 
X208.452 Y63.58 
X208.858 Y63.875 
X209.298 Y64.117 
X209.764 Y64.301 
X210.25 Y64.426 
X210.748 Y64.489 
X211 Y64.489 
G03 X211.181 Y64.5 I0 J1.5 
G01 X290.604 Y64.5 
X299.43 Y55.674 
G03 X299.463 Y55.642 I1.06 J1.06 
G01 X299.966 Y55.169 
G03 X300.112 Y55.048 I1.027 J1.092 
G01 X300.671 Y54.642 
G03 X300.829 Y54.541 I0.881 J1.213 
G01 X301.434 Y54.208 
G03 X301.606 Y54.128 I0.723 J1.314 
G01 X302.248 Y53.874 
G03 X302.426 Y53.816 I0.551 J1.394 
G01 X303.095 Y53.644 
G03 X303.282 Y53.608 I0.373 J1.452 
G01 X303.968 Y53.522 
G03 X304.155 Y53.511 I0.186 J1.488 
G01 X304.845 Y53.511 
G03 X305.031 Y53.522 I0 J1.5 
G01 X305.717 Y53.608 
G03 X305.904 Y53.644 I-0.186 J1.488 
G01 X306.573 Y53.816 
G03 X306.751 Y53.874 I-0.373 J1.452 
G01 X307.393 Y54.128 
G03 X307.565 Y54.208 I-0.551 J1.394 
G01 X308.17 Y54.541 
G03 X308.328 Y54.642 I-0.723 J1.314 
G01 X308.887 Y55.048 
G03 X309.033 Y55.169 I-0.881 J1.213 
G01 X309.536 Y55.642 
G03 X309.663 Y55.777 I-1.027 J1.092 
G01 X310.104 Y56.309 
G03 X310.216 Y56.463 I-1.154 J0.957 
G01 X310.586 Y57.046 
G03 X310.677 Y57.211 I-1.266 J0.803 
G01 X310.971 Y57.836 
G03 X311.04 Y58.012 I-1.357 J0.638 
G01 X311.253 Y58.669 
G03 X311.3 Y58.849 I-1.426 J0.462 
G01 X311.43 Y59.528 
G03 X311.454 Y59.717 I-1.473 J0.282 
G01 X311.497 Y60.406 
G03 X311.497 Y60.593 I-1.497 J0.093 
G01 X311.454 Y61.282 
G03 X311.43 Y61.471 I-1.497 J-0.093 
G01 X311.3 Y62.15 
G03 X311.253 Y62.33 I-1.473 J-0.282 
G01 X311.04 Y62.987 
G03 X310.971 Y63.163 I-1.426 J-0.462 
G01 X310.677 Y63.788 
G03 X310.586 Y63.953 I-1.357 J-0.638 
G01 X310.216 Y64.536 
G03 X310.104 Y64.69 I-1.266 J-0.803 
G01 X309.663 Y65.222 
G03 X309.569 Y65.325 I-1.154 J-0.957 
G01 X300.5 Y74.395 
X300.5 Y153.818 
G03 X300.511 Y154 I-1.489 J0.181 
G01 X300.511 Y154.251 
X300.573 Y154.749 
X300.698 Y155.235 
X300.882 Y155.701 
X301.124 Y156.141 
X301.419 Y156.547 
X301.763 Y156.913 
X302.151 Y157.234 
X302.573 Y157.502 
X303.027 Y157.716 
X303.505 Y157.871 
X303.999 Y157.965 
X305.282 Y158.045 
G03 X305.471 Y158.069 I-0.093 J1.497 
G01 X306.15 Y158.199 
G03 X306.33 Y158.246 I-0.282 J1.473 
G01 X306.987 Y158.459 
G03 X307.163 Y158.528 I-0.462 J1.426 
G01 X307.788 Y158.822 
G03 X307.953 Y158.913 I-0.638 J1.357 
G01 X308.536 Y159.283 
G03 X308.69 Y159.395 I-0.803 J1.266 
G01 X309.222 Y159.836 
G03 X309.357 Y159.963 I-0.957 J1.154 
G01 X309.83 Y160.466 
G03 X309.951 Y160.612 I-1.092 J1.027 
G01 X310.357 Y161.171 
G03 X310.458 Y161.329 I-1.213 J0.881 
G01 X310.791 Y161.934 
G03 X310.871 Y162.106 I-1.314 J0.723 
G01 X311.125 Y162.748 
G03 X311.183 Y162.926 I-1.394 J0.551 
G01 X311.355 Y163.595 
G03 X311.391 Y163.782 I-1.452 J0.373 
G01 X311.477 Y164.468 
G03 X311.489 Y164.655 I-1.488 J0.186 
G01 X311.489 Y165.345 
G03 X311.477 Y165.531 I-1.5 J0 
G01 X311.391 Y166.217 
G03 X311.355 Y166.404 I-1.488 J-0.186 
G01 X311.183 Y167.073 
G03 X311.125 Y167.251 I-1.452 J-0.373 
G01 X310.871 Y167.893 
G03 X310.791 Y168.065 I-1.394 J-0.551 
G01 X310.458 Y168.67 
G03 X310.357 Y168.828 I-1.314 J-0.723 
G01 X309.951 Y169.387 
G03 X309.83 Y169.533 I-1.213 J-0.881 
G01 X309.357 Y170.036 
G03 X309.222 Y170.163 I-1.092 J-1.027 
G01 X308.69 Y170.604 
G03 X308.536 Y170.716 I-0.957 J-1.154 
G01 X307.953 Y171.086 
G03 X307.788 Y171.177 I-0.803 J-1.266 
G01 X307.163 Y171.471 
G03 X306.987 Y171.54 I-0.638 J-1.357 
G01 X306.33 Y171.753 
G03 X306.15 Y171.8 I-0.462 J-1.426 
G01 X305.471 Y171.93 
G03 X305.282 Y171.954 I-0.282 J-1.473 
G01 X303.999 Y172.034 
X303.505 Y172.128 
X303.027 Y172.283 
X302.573 Y172.497 
X302.151 Y172.765 
X301.763 Y173.086 
X301.419 Y173.452 
X301.124 Y173.858 
X300.882 Y174.298 
X300.698 Y174.764 
X300.573 Y175.25 
X300.511 Y175.748 
X300.511 Y176 
G03 X300.5 Y176.181 I-1.5 J0 
G01 X300.5 Y255.604 
X309.569 Y264.674 
G03 X309.663 Y264.777 I-1.06 J1.06 
G01 X310.104 Y265.309 
G03 X310.216 Y265.463 I-1.154 J0.957 
G01 X310.586 Y266.046 
G03 X310.677 Y266.211 I-1.266 J0.803 
G01 X310.971 Y266.836 
G03 X311.04 Y267.012 I-1.357 J0.638 
G01 X311.253 Y267.669 
G03 X311.3 Y267.849 I-1.426 J0.462 
G01 X311.43 Y268.528 
G03 X311.454 Y268.717 I-1.473 J0.282 
G01 X311.497 Y269.406 
G03 X311.497 Y269.593 I-1.497 J0.093 
G01 X311.454 Y270.282 
G03 X311.43 Y270.471 I-1.497 J-0.093 
G01 X311.3 Y271.15 
G03 X311.253 Y271.33 I-1.473 J-0.282 
G01 X311.04 Y271.987 
G03 X310.971 Y272.163 I-1.426 J-0.462 
G01 X310.677 Y272.788 
G03 X310.586 Y272.953 I-1.357 J-0.638 
G01 X310.216 Y273.536 
G03 X310.104 Y273.69 I-1.266 J-0.803 
G01 X309.663 Y274.222 
G03 X309.536 Y274.357 I-1.154 J-0.957 
G01 X309.033 Y274.83 
G03 X308.887 Y274.951 I-1.027 J-1.092 
G01 X308.328 Y275.357 
G03 X308.17 Y275.458 I-0.881 J-1.213 
G01 X307.565 Y275.791 
G03 X307.393 Y275.871 I-0.723 J-1.314 
G01 X306.751 Y276.125 
G03 X306.573 Y276.183 I-0.551 J-1.394 
G01 X305.904 Y276.355 
G03 X305.717 Y276.391 I-0.373 J-1.452 
G01 X305.031 Y276.477 
G03 X304.845 Y276.489 I-0.186 J-1.488 
G01 X304.155 Y276.489 
G03 X303.968 Y276.477 I0 J-1.5 
G01 X303.282 Y276.391 
G03 X303.095 Y276.355 I0.186 J-1.488 
G01 X302.426 Y276.183 
G03 X302.248 Y276.125 I0.373 J-1.452 
G01 X301.606 Y275.871 
G03 X301.434 Y275.791 I0.551 J-1.394 
G01 X300.829 Y275.458 
G03 X300.671 Y275.357 I0.723 J-1.314 
G01 X300.112 Y274.951 
G03 X299.966 Y274.83 I0.881 J-1.213 
G01 X299.463 Y274.357 
G03 X299.43 Y274.325 I1.027 J-1.092 
G01 X290.604 Y265.5 
X109.395 Y265.5 
X100.569 Y274.325 
G03 X100.536 Y274.358 I-1.06 J-1.06 
G01 X100.032 Y274.831 
G03 X99.887 Y274.951 I-1.027 J-1.093 
G01 X99.328 Y275.357 
G03 X99.17 Y275.458 I-0.881 J-1.213 
G01 X98.564 Y275.791 
G03 X98.393 Y275.871 I-0.723 J-1.314 
G01 X97.751 Y276.125 
G03 X97.573 Y276.183 I-0.551 J-1.394 
G01 X96.904 Y276.355 
G03 X96.717 Y276.391 I-0.373 J-1.452 
G01 X96.032 Y276.477 
G03 X95.845 Y276.489 I-0.186 J-1.488 
G01 X95.154 Y276.489 
G03 X94.967 Y276.477 I0 J-1.5 
G01 X94.282 Y276.391 
G03 X94.095 Y276.355 I0.186 J-1.488 
G01 X93.426 Y276.183 
G03 X93.248 Y276.125 I0.373 J-1.452 
G01 X92.606 Y275.871 
G03 X92.435 Y275.791 I0.551 J-1.394 
G01 X91.829 Y275.458 
G03 X91.671 Y275.357 I0.723 J-1.314 
G01 X91.112 Y274.951 
G03 X90.967 Y274.831 I0.881 J-1.213 
G01 X90.463 Y274.358 
G03 X90.335 Y274.221 I1.027 J-1.093 
G01 X89.894 Y273.689 
G03 X89.784 Y273.536 I1.155 J-0.956 
G01 X89.413 Y272.953 
G03 X89.323 Y272.788 I1.266 J-0.803 
G01 X89.028 Y272.163 
G03 X88.959 Y271.988 I1.357 J-0.638 
G01 X88.746 Y271.331 
G03 X88.699 Y271.148 I1.426 J-0.463 
G01 X88.569 Y270.469 
G03 X88.546 Y270.283 I1.473 J-0.28 
G01 X88.502 Y269.594 
G03 X88.502 Y269.405 I1.497 J-0.094 
G01 X88.546 Y268.716 
G03 X88.569 Y268.53 I1.497 J0.094 
G01 X88.699 Y267.851 
G03 X88.746 Y267.668 I1.473 J0.28 
G01 X88.959 Y267.011 
G03 X89.028 Y266.836 I1.426 J0.463 
G01 X89.323 Y266.211 
G03 X89.413 Y266.046 I1.357 J0.638 
G01 X89.784 Y265.463 
G03 X89.894 Y265.31 I1.266 J0.803 
G01 X90.335 Y264.778 
G03 X90.43 Y264.674 I1.155 J0.956 
G01 X99.5 Y255.604 
X99.5 Y165 
G02 X97.5 Y165 I-1 J0 
G01 Z-15 F100
G02 X99.5 Y165 I1 J0 F150
G01 X99.5 Y74.395 
X90.43 Y65.325 
G03 X90.335 Y65.221 I1.06 J-1.06 
G01 X89.894 Y64.689 
G03 X89.784 Y64.536 I1.155 J-0.956 
G01 X89.413 Y63.953 
G03 X89.323 Y63.788 I1.266 J-0.803 
G01 X89.028 Y63.163 
G03 X88.959 Y62.988 I1.357 J-0.638 
G01 X88.746 Y62.331 
G03 X88.699 Y62.148 I1.426 J-0.463 
G01 X88.569 Y61.469 
G03 X88.546 Y61.283 I1.473 J-0.28 
G01 X88.502 Y60.594 
G03 X88.502 Y60.405 I1.497 J-0.094 
G01 X88.546 Y59.716 
G03 X88.569 Y59.53 I1.497 J0.094 
G01 X88.699 Y58.851 
G03 X88.746 Y58.668 I1.473 J0.28 
G01 X88.959 Y58.011 
G03 X89.028 Y57.836 I1.426 J0.463 
G01 X89.323 Y57.211 
G03 X89.413 Y57.046 I1.357 J0.638 
G01 X89.784 Y56.463 
G03 X89.894 Y56.31 I1.266 J0.803 
G01 X90.335 Y55.778 
G03 X90.463 Y55.641 I1.155 J0.956 
G01 X90.967 Y55.168 
G03 X91.112 Y55.048 I1.027 J1.093 
G01 X91.671 Y54.642 
G03 X91.829 Y54.541 I0.881 J1.213 
G01 X92.435 Y54.208 
G03 X92.606 Y54.128 I0.723 J1.314 
G01 X93.248 Y53.874 
G03 X93.426 Y53.816 I0.551 J1.394 
G01 X94.095 Y53.644 
G03 X94.282 Y53.608 I0.373 J1.452 
G01 X94.967 Y53.522 
G03 X95.154 Y53.511 I0.186 J1.488 
G01 X95.845 Y53.511 
G03 X96.032 Y53.522 I0 J1.5 
G01 X96.717 Y53.608 
G03 X96.904 Y53.644 I-0.186 J1.488 
G01 X97.573 Y53.816 
G03 X97.751 Y53.874 I-0.373 J1.452 
G01 X98.393 Y54.128 
G03 X98.564 Y54.208 I-0.551 J1.394 
G01 X99.17 Y54.541 
G03 X99.328 Y54.642 I-0.723 J1.314 
G01 X99.887 Y55.048 
G03 X100.032 Y55.168 I-0.881 J1.213 
G01 X100.536 Y55.641 
G03 X100.569 Y55.674 I-1.027 J1.093 
G01 X109.395 Y64.5 
X188.818 Y64.5 
G03 X189 Y64.489 I0.181 J1.489 
G01 X189.251 Y64.489 
X189.749 Y64.426 
X190.235 Y64.301 
X190.701 Y64.117 
X191.141 Y63.875 
X191.547 Y63.58 
X191.913 Y63.236 
X192.234 Y62.848 
X192.502 Y62.426 
X192.716 Y61.972 
X192.871 Y61.494 
X192.965 Y61 
X193.045 Y59.717 
G03 X193.069 Y59.528 I1.497 J0.093 
G01 X193.199 Y58.849 
G03 X193.246 Y58.669 I1.473 J0.282 
G01 X193.459 Y58.012 
G03 X193.528 Y57.836 I1.426 J0.462 
G01 X193.822 Y57.211 
G03 X193.913 Y57.046 I1.357 J0.638 
G01 X194.283 Y56.463 
G03 X194.395 Y56.309 I1.266 J0.803 
G01 X194.836 Y55.777 
G03 X194.963 Y55.642 I1.154 J0.957 
G01 X195.466 Y55.169 
G03 X195.612 Y55.048 I1.027 J1.092 
G01 X196.171 Y54.642 
G03 X196.329 Y54.541 I0.881 J1.213 
G01 X196.934 Y54.208 
G03 X197.106 Y54.128 I0.723 J1.314 
G01 X197.748 Y53.874 
G03 X197.926 Y53.816 I0.551 J1.394 
G01 X198.595 Y53.644 
G03 X198.782 Y53.608 I0.373 J1.452 
G01 X199.468 Y53.522 
G03 X199.655 Y53.511 I0.186 J1.488 
G01 X200.345 Y53.511 
G03 X200.531 Y53.522 I0 J1.5 
G01 X201.217 Y53.608 
G03 X201.404 Y53.644 I-0.186 J1.488 
G01 X202.073 Y53.816 
G03 X202.251 Y53.874 I-0.373 J1.452 
G01 X202.893 Y54.128 
G03 X203.065 Y54.208 I-0.551 J1.394 
G01 X203.67 Y54.541 
G03 X203.828 Y54.642 I-0.723 J1.314 
G01 X204.387 Y55.048 
G03 X204.533 Y55.169 I-0.881 J1.213 
G01 X205.036 Y55.642 
G03 X205.163 Y55.777 I-1.027 J1.092 
G01 X205.604 Y56.309 
G03 X205.716 Y56.463 I-1.154 J0.957 
G01 X206.086 Y57.046 
G03 X206.177 Y57.211 I-1.266 J0.803 
G01 X206.471 Y57.836 
G03 X206.54 Y58.012 I-1.357 J0.638 
G01 X206.753 Y58.669 
G03 X206.8 Y58.849 I-1.426 J0.462 
G01 X206.93 Y59.528 
G03 X206.954 Y59.717 I-1.473 J0.282 
G01 X207.034 Y61 
X207.128 Y61.494 
X207.283 Y61.972 
X207.497 Y62.426 
X207.765 Y62.848 
X208.086 Y63.236 
X208.452 Y63.58 
X208.858 Y63.875 
X209.298 Y64.117 
X209.764 Y64.301 
X210.25 Y64.426 
X210.748 Y64.489 
X211 Y64.489 
G03 X211.181 Y64.5 I0 J1.5 
G01 X290.604 Y64.5 
X299.43 Y55.674 
G03 X299.463 Y55.642 I1.06 J1.06 
G01 X299.966 Y55.169 
G03 X300.112 Y55.048 I1.027 J1.092 
G01 X300.671 Y54.642 
G03 X300.829 Y54.541 I0.881 J1.213 
G01 X301.434 Y54.208 
G03 X301.606 Y54.128 I0.723 J1.314 
G01 X302.248 Y53.874 
G03 X302.426 Y53.816 I0.551 J1.394 
G01 X303.095 Y53.644 
G03 X303.282 Y53.608 I0.373 J1.452 
G01 X303.968 Y53.522 
G03 X304.155 Y53.511 I0.186 J1.488 
G01 X304.845 Y53.511 
G03 X305.031 Y53.522 I0 J1.5 
G01 X305.717 Y53.608 
G03 X305.904 Y53.644 I-0.186 J1.488 
G01 X306.573 Y53.816 
G03 X306.751 Y53.874 I-0.373 J1.452 
G01 X307.393 Y54.128 
G03 X307.565 Y54.208 I-0.551 J1.394 
G01 X308.17 Y54.541 
G03 X308.328 Y54.642 I-0.723 J1.314 
G01 X308.887 Y55.048 
G03 X309.033 Y55.169 I-0.881 J1.213 
G01 X309.536 Y55.642 
G03 X309.663 Y55.777 I-1.027 J1.092 
G01 X310.104 Y56.309 
G03 X310.216 Y56.463 I-1.154 J0.957 
G01 X310.586 Y57.046 
G03 X310.677 Y57.211 I-1.266 J0.803 
G01 X310.971 Y57.836 
G03 X311.04 Y58.012 I-1.357 J0.638 
G01 X311.253 Y58.669 
G03 X311.3 Y58.849 I-1.426 J0.462 
G01 X311.43 Y59.528 
G03 X311.454 Y59.717 I-1.473 J0.282 
G01 X311.497 Y60.406 
G03 X311.497 Y60.593 I-1.497 J0.093 
G01 X311.454 Y61.282 
G03 X311.43 Y61.471 I-1.497 J-0.093 
G01 X311.3 Y62.15 
G03 X311.253 Y62.33 I-1.473 J-0.282 
G01 X311.04 Y62.987 
G03 X310.971 Y63.163 I-1.426 J-0.462 
G01 X310.677 Y63.788 
G03 X310.586 Y63.953 I-1.357 J-0.638 
G01 X310.216 Y64.536 
G03 X310.104 Y64.69 I-1.266 J-0.803 
G01 X309.663 Y65.222 
G03 X309.569 Y65.325 I-1.154 J-0.957 
G01 X300.5 Y74.395 
X300.5 Y153.818 
G03 X300.511 Y154 I-1.489 J0.181 
G01 X300.511 Y154.251 
X300.573 Y154.749 
X300.698 Y155.235 
X300.882 Y155.701 
X301.124 Y156.141 
X301.419 Y156.547 
X301.763 Y156.913 
X302.151 Y157.234 
X302.573 Y157.502 
X303.027 Y157.716 
X303.505 Y157.871 
X303.999 Y157.965 
X305.282 Y158.045 
G03 X305.471 Y158.069 I-0.093 J1.497 
G01 X306.15 Y158.199 
G03 X306.33 Y158.246 I-0.282 J1.473 
G01 X306.987 Y158.459 
G03 X307.163 Y158.528 I-0.462 J1.426 
G01 X307.788 Y158.822 
G03 X307.953 Y158.913 I-0.638 J1.357 
G01 X308.536 Y159.283 
G03 X308.69 Y159.395 I-0.803 J1.266 
G01 X309.222 Y159.836 
G03 X309.357 Y159.963 I-0.957 J1.154 
G01 X309.83 Y160.466 
G03 X309.951 Y160.612 I-1.092 J1.027 
G01 X310.357 Y161.171 
G03 X310.458 Y161.329 I-1.213 J0.881 
G01 X310.791 Y161.934 
G03 X310.871 Y162.106 I-1.314 J0.723 
G01 X311.125 Y162.748 
G03 X311.183 Y162.926 I-1.394 J0.551 
G01 X311.355 Y163.595 
G03 X311.391 Y163.782 I-1.452 J0.373 
G01 X311.477 Y164.468 
G03 X311.489 Y164.655 I-1.488 J0.186 
G01 X311.489 Y165.345 
G03 X311.477 Y165.531 I-1.5 J0 
G01 X311.391 Y166.217 
G03 X311.355 Y166.404 I-1.488 J-0.186 
G01 X311.183 Y167.073 
G03 X311.125 Y167.251 I-1.452 J-0.373 
G01 X310.871 Y167.893 
G03 X310.791 Y168.065 I-1.394 J-0.551 
G01 X310.458 Y168.67 
G03 X310.357 Y168.828 I-1.314 J-0.723 
G01 X309.951 Y169.387 
G03 X309.83 Y169.533 I-1.213 J-0.881 
G01 X309.357 Y170.036 
G03 X309.222 Y170.163 I-1.092 J-1.027 
G01 X308.69 Y170.604 
G03 X308.536 Y170.716 I-0.957 J-1.154 
G01 X307.953 Y171.086 
G03 X307.788 Y171.177 I-0.803 J-1.266 
G01 X307.163 Y171.471 
G03 X306.987 Y171.54 I-0.638 J-1.357 
G01 X306.33 Y171.753 
G03 X306.15 Y171.8 I-0.462 J-1.426 
G01 X305.471 Y171.93 
G03 X305.282 Y171.954 I-0.282 J-1.473 
G01 X303.999 Y172.034 
X303.505 Y172.128 
X303.027 Y172.283 
X302.573 Y172.497 
X302.151 Y172.765 
X301.763 Y173.086 
X301.419 Y173.452 
X301.124 Y173.858 
X300.882 Y174.298 
X300.698 Y174.764 
X300.573 Y175.25 
X300.511 Y175.748 
X300.511 Y176 
G03 X300.5 Y176.181 I-1.5 J0 
G01 X300.5 Y255.604 
X309.569 Y264.674 
G03 X309.663 Y264.777 I-1.06 J1.06 
G01 X310.104 Y265.309 
G03 X310.216 Y265.463 I-1.154 J0.957 
G01 X310.586 Y266.046 
G03 X310.677 Y266.211 I-1.266 J0.803 
G01 X310.971 Y266.836 
G03 X311.04 Y267.012 I-1.357 J0.638 
G01 X311.253 Y267.669 
G03 X311.3 Y267.849 I-1.426 J0.462 
G01 X311.43 Y268.528 
G03 X311.454 Y268.717 I-1.473 J0.282 
G01 X311.497 Y269.406 
G03 X311.497 Y269.593 I-1.497 J0.093 
G01 X311.454 Y270.282 
G03 X311.43 Y270.471 I-1.497 J-0.093 
G01 X311.3 Y271.15 
G03 X311.253 Y271.33 I-1.473 J-0.282 
G01 X311.04 Y271.987 
G03 X310.971 Y272.163 I-1.426 J-0.462 
G01 X310.677 Y272.788 
G03 X310.586 Y272.953 I-1.357 J-0.638 
G01 X310.216 Y273.536 
G03 X310.104 Y273.69 I-1.266 J-0.803 
G01 X309.663 Y274.222 
G03 X309.536 Y274.357 I-1.154 J-0.957 
G01 X309.033 Y274.83 
G03 X308.887 Y274.951 I-1.027 J-1.092 
G01 X308.328 Y275.357 
G03 X308.17 Y275.458 I-0.881 J-1.213 
G01 X307.565 Y275.791 
G03 X307.393 Y275.871 I-0.723 J-1.314 
G01 X306.751 Y276.125 
G03 X306.573 Y276.183 I-0.551 J-1.394 
G01 X305.904 Y276.355 
G03 X305.717 Y276.391 I-0.373 J-1.452 
G01 X305.031 Y276.477 
G03 X304.845 Y276.489 I-0.186 J-1.488 
G01 X304.155 Y276.489 
G03 X303.968 Y276.477 I0 J-1.5 
G01 X303.282 Y276.391 
G03 X303.095 Y276.355 I0.186 J-1.488 
G01 X302.426 Y276.183 
G03 X302.248 Y276.125 I0.373 J-1.452 
G01 X301.606 Y275.871 
G03 X301.434 Y275.791 I0.551 J-1.394 
G01 X300.829 Y275.458 
G03 X300.671 Y275.357 I0.723 J-1.314 
G01 X300.112 Y274.951 
G03 X299.966 Y274.83 I0.881 J-1.213 
G01 X299.463 Y274.357 
G03 X299.43 Y274.325 I1.027 J-1.092 
G01 X290.604 Y265.5 
X109.395 Y265.5 
X100.569 Y274.325 
G03 X100.536 Y274.358 I-1.06 J-1.06 
G01 X100.032 Y274.831 
G03 X99.887 Y274.951 I-1.027 J-1.093 
G01 X99.328 Y275.357 
G03 X99.17 Y275.458 I-0.881 J-1.213 
G01 X98.564 Y275.791 
G03 X98.393 Y275.871 I-0.723 J-1.314 
G01 X97.751 Y276.125 
G03 X97.573 Y276.183 I-0.551 J-1.394 
G01 X96.904 Y276.355 
G03 X96.717 Y276.391 I-0.373 J-1.452 
G01 X96.032 Y276.477 
G03 X95.845 Y276.489 I-0.186 J-1.488 
G01 X95.154 Y276.489 
G03 X94.967 Y276.477 I0 J-1.5 
G01 X94.282 Y276.391 
G03 X94.095 Y276.355 I0.186 J-1.488 
G01 X93.426 Y276.183 
G03 X93.248 Y276.125 I0.373 J-1.452 
G01 X92.606 Y275.871 
G03 X92.435 Y275.791 I0.551 J-1.394 
G01 X91.829 Y275.458 
G03 X91.671 Y275.357 I0.723 J-1.314 
G01 X91.112 Y274.951 
G03 X90.967 Y274.831 I0.881 J-1.213 
G01 X90.463 Y274.358 
G03 X90.335 Y274.221 I1.027 J-1.093 
G01 X89.894 Y273.689 
G03 X89.784 Y273.536 I1.155 J-0.956 
G01 X89.413 Y272.953 
G03 X89.323 Y272.788 I1.266 J-0.803 
G01 X89.028 Y272.163 
G03 X88.959 Y271.988 I1.357 J-0.638 
G01 X88.746 Y271.331 
G03 X88.699 Y271.148 I1.426 J-0.463 
G01 X88.569 Y270.469 
G03 X88.546 Y270.283 I1.473 J-0.28 
G01 X88.502 Y269.594 
G03 X88.502 Y269.405 I1.497 J-0.094 
G01 X88.546 Y268.716 
G03 X88.569 Y268.53 I1.497 J0.094 
G01 X88.699 Y267.851 
G03 X88.746 Y267.668 I1.473 J0.28 
G01 X88.959 Y267.011 
G03 X89.028 Y266.836 I1.426 J0.463 
G01 X89.323 Y266.211 
G03 X89.413 Y266.046 I1.357 J0.638 
G01 X89.784 Y265.463 
G03 X89.894 Y265.31 I1.266 J0.803 
G01 X90.335 Y264.778 
G03 X90.43 Y264.674 I1.155 J0.956 
G01 X99.5 Y255.604 
X99.5 Y165 
G02 X97.5 Y165 I-1 J0 
G01 Z-18 F100
G02 X99.5 Y165 I1 J0 F150
G01 X99.5 Y74.395 
X90.43 Y65.325 
G03 X90.335 Y65.221 I1.06 J-1.06 
G01 X89.894 Y64.689 
G03 X89.784 Y64.536 I1.155 J-0.956 
G01 X89.413 Y63.953 
G03 X89.323 Y63.788 I1.266 J-0.803 
G01 X89.028 Y63.163 
G03 X88.959 Y62.988 I1.357 J-0.638 
G01 X88.746 Y62.331 
G03 X88.699 Y62.148 I1.426 J-0.463 
G01 X88.569 Y61.469 
G03 X88.546 Y61.283 I1.473 J-0.28 
G01 X88.502 Y60.594 
G03 X88.502 Y60.405 I1.497 J-0.094 
G01 X88.546 Y59.716 
G03 X88.569 Y59.53 I1.497 J0.094 
G01 X88.699 Y58.851 
G03 X88.746 Y58.668 I1.473 J0.28 
G01 X88.959 Y58.011 
G03 X89.028 Y57.836 I1.426 J0.463 
G01 X89.323 Y57.211 
G03 X89.413 Y57.046 I1.357 J0.638 
G01 X89.784 Y56.463 
G03 X89.894 Y56.31 I1.266 J0.803 
G01 X90.335 Y55.778 
G03 X90.463 Y55.641 I1.155 J0.956 
G01 X90.967 Y55.168 
G03 X91.112 Y55.048 I1.027 J1.093 
G01 X91.671 Y54.642 
G03 X91.829 Y54.541 I0.881 J1.213 
G01 X92.435 Y54.208 
G03 X92.606 Y54.128 I0.723 J1.314 
G01 X93.248 Y53.874 
G03 X93.426 Y53.816 I0.551 J1.394 
G01 X94.095 Y53.644 
G03 X94.282 Y53.608 I0.373 J1.452 
G01 X94.967 Y53.522 
G03 X95.154 Y53.511 I0.186 J1.488 
G01 X95.845 Y53.511 
G03 X96.032 Y53.522 I0 J1.5 
G01 X96.717 Y53.608 
G03 X96.904 Y53.644 I-0.186 J1.488 
G01 X97.573 Y53.816 
G03 X97.751 Y53.874 I-0.373 J1.452 
G01 X98.393 Y54.128 
G03 X98.564 Y54.208 I-0.551 J1.394 
G01 X99.17 Y54.541 
G03 X99.328 Y54.642 I-0.723 J1.314 
G01 X99.887 Y55.048 
G03 X100.032 Y55.168 I-0.881 J1.213 
G01 X100.536 Y55.641 
G03 X100.569 Y55.674 I-1.027 J1.093 
G01 X109.395 Y64.5 
X188.818 Y64.5 
G03 X189 Y64.489 I0.181 J1.489 
G01 X189.251 Y64.489 
X189.749 Y64.426 
X190.235 Y64.301 
X190.701 Y64.117 
X191.141 Y63.875 
X191.547 Y63.58 
X191.913 Y63.236 
X192.234 Y62.848 
X192.502 Y62.426 
X192.716 Y61.972 
X192.871 Y61.494 
X192.965 Y61 
X193.045 Y59.717 
G03 X193.069 Y59.528 I1.497 J0.093 
G01 X193.199 Y58.849 
G03 X193.246 Y58.669 I1.473 J0.282 
G01 X193.459 Y58.012 
G03 X193.528 Y57.836 I1.426 J0.462 
G01 X193.822 Y57.211 
G03 X193.913 Y57.046 I1.357 J0.638 
G01 X194.283 Y56.463 
G03 X194.395 Y56.309 I1.266 J0.803 
G01 X194.836 Y55.777 
G03 X194.963 Y55.642 I1.154 J0.957 
G01 X195.466 Y55.169 
G03 X195.612 Y55.048 I1.027 J1.092 
G01 X196.171 Y54.642 
G03 X196.329 Y54.541 I0.881 J1.213 
G01 X196.934 Y54.208 
G03 X197.106 Y54.128 I0.723 J1.314 
G01 X197.748 Y53.874 
G03 X197.926 Y53.816 I0.551 J1.394 
G01 X198.595 Y53.644 
G03 X198.782 Y53.608 I0.373 J1.452 
G01 X199.468 Y53.522 
G03 X199.655 Y53.511 I0.186 J1.488 
G01 X200.345 Y53.511 
G03 X200.531 Y53.522 I0 J1.5 
G01 X201.217 Y53.608 
G03 X201.404 Y53.644 I-0.186 J1.488 
G01 X202.073 Y53.816 
G03 X202.251 Y53.874 I-0.373 J1.452 
G01 X202.893 Y54.128 
G03 X203.065 Y54.208 I-0.551 J1.394 
G01 X203.67 Y54.541 
G03 X203.828 Y54.642 I-0.723 J1.314 
G01 X204.387 Y55.048 
G03 X204.533 Y55.169 I-0.881 J1.213 
G01 X205.036 Y55.642 
G03 X205.163 Y55.777 I-1.027 J1.092 
G01 X205.604 Y56.309 
G03 X205.716 Y56.463 I-1.154 J0.957 
G01 X206.086 Y57.046 
G03 X206.177 Y57.211 I-1.266 J0.803 
G01 X206.471 Y57.836 
G03 X206.54 Y58.012 I-1.357 J0.638 
G01 X206.753 Y58.669 
G03 X206.8 Y58.849 I-1.426 J0.462 
G01 X206.93 Y59.528 
G03 X206.954 Y59.717 I-1.473 J0.282 
G01 X207.034 Y61 
X207.128 Y61.494 
X207.283 Y61.972 
X207.497 Y62.426 
X207.765 Y62.848 
X208.086 Y63.236 
X208.452 Y63.58 
X208.858 Y63.875 
X209.298 Y64.117 
X209.764 Y64.301 
X210.25 Y64.426 
X210.748 Y64.489 
X211 Y64.489 
G03 X211.181 Y64.5 I0 J1.5 
G01 X290.604 Y64.5 
X299.43 Y55.674 
G03 X299.463 Y55.642 I1.06 J1.06 
G01 X299.966 Y55.169 
G03 X300.112 Y55.048 I1.027 J1.092 
G01 X300.671 Y54.642 
G03 X300.829 Y54.541 I0.881 J1.213 
G01 X301.434 Y54.208 
G03 X301.606 Y54.128 I0.723 J1.314 
G01 X302.248 Y53.874 
G03 X302.426 Y53.816 I0.551 J1.394 
G01 X303.095 Y53.644 
G03 X303.282 Y53.608 I0.373 J1.452 
G01 X303.968 Y53.522 
G03 X304.155 Y53.511 I0.186 J1.488 
G01 X304.845 Y53.511 
G03 X305.031 Y53.522 I0 J1.5 
G01 X305.717 Y53.608 
G03 X305.904 Y53.644 I-0.186 J1.488 
G01 X306.573 Y53.816 
G03 X306.751 Y53.874 I-0.373 J1.452 
G01 X307.393 Y54.128 
G03 X307.565 Y54.208 I-0.551 J1.394 
G01 X308.17 Y54.541 
G03 X308.328 Y54.642 I-0.723 J1.314 
G01 X308.887 Y55.048 
G03 X309.033 Y55.169 I-0.881 J1.213 
G01 X309.536 Y55.642 
G03 X309.663 Y55.777 I-1.027 J1.092 
G01 X310.104 Y56.309 
G03 X310.216 Y56.463 I-1.154 J0.957 
G01 X310.586 Y57.046 
G03 X310.677 Y57.211 I-1.266 J0.803 
G01 X310.971 Y57.836 
G03 X311.04 Y58.012 I-1.357 J0.638 
G01 X311.253 Y58.669 
G03 X311.3 Y58.849 I-1.426 J0.462 
G01 X311.43 Y59.528 
G03 X311.454 Y59.717 I-1.473 J0.282 
G01 X311.497 Y60.406 
G03 X311.497 Y60.593 I-1.497 J0.093 
G01 X311.454 Y61.282 
G03 X311.43 Y61.471 I-1.497 J-0.093 
G01 X311.3 Y62.15 
G03 X311.253 Y62.33 I-1.473 J-0.282 
G01 X311.04 Y62.987 
G03 X310.971 Y63.163 I-1.426 J-0.462 
G01 X310.677 Y63.788 
G03 X310.586 Y63.953 I-1.357 J-0.638 
G01 X310.216 Y64.536 
G03 X310.104 Y64.69 I-1.266 J-0.803 
G01 X309.663 Y65.222 
G03 X309.569 Y65.325 I-1.154 J-0.957 
G01 X300.5 Y74.395 
X300.5 Y153.818 
G03 X300.511 Y154 I-1.489 J0.181 
G01 X300.511 Y154.251 
X300.573 Y154.749 
X300.698 Y155.235 
X300.882 Y155.701 
X301.124 Y156.141 
X301.419 Y156.547 
X301.763 Y156.913 
X302.151 Y157.234 
X302.573 Y157.502 
X303.027 Y157.716 
X303.505 Y157.871 
X303.999 Y157.965 
X305.282 Y158.045 
G03 X305.471 Y158.069 I-0.093 J1.497 
G01 X306.15 Y158.199 
G03 X306.33 Y158.246 I-0.282 J1.473 
G01 X306.987 Y158.459 
G03 X307.163 Y158.528 I-0.462 J1.426 
G01 X307.788 Y158.822 
G03 X307.953 Y158.913 I-0.638 J1.357 
G01 X308.536 Y159.283 
G03 X308.69 Y159.395 I-0.803 J1.266 
G01 X309.222 Y159.836 
G03 X309.357 Y159.963 I-0.957 J1.154 
G01 X309.83 Y160.466 
G03 X309.951 Y160.612 I-1.092 J1.027 
G01 X310.357 Y161.171 
G03 X310.458 Y161.329 I-1.213 J0.881 
G01 X310.791 Y161.934 
G03 X310.871 Y162.106 I-1.314 J0.723 
G01 X311.125 Y162.748 
G03 X311.183 Y162.926 I-1.394 J0.551 
G01 X311.355 Y163.595 
G03 X311.391 Y163.782 I-1.452 J0.373 
G01 X311.477 Y164.468 
G03 X311.489 Y164.655 I-1.488 J0.186 
G01 X311.489 Y165.345 
G03 X311.477 Y165.531 I-1.5 J0 
G01 X311.391 Y166.217 
G03 X311.355 Y166.404 I-1.488 J-0.186 
G01 X311.183 Y167.073 
G03 X311.125 Y167.251 I-1.452 J-0.373 
G01 X310.871 Y167.893 
G03 X310.791 Y168.065 I-1.394 J-0.551 
G01 X310.458 Y168.67 
G03 X310.357 Y168.828 I-1.314 J-0.723 
G01 X309.951 Y169.387 
G03 X309.83 Y169.533 I-1.213 J-0.881 
G01 X309.357 Y170.036 
G03 X309.222 Y170.163 I-1.092 J-1.027 
G01 X308.69 Y170.604 
G03 X308.536 Y170.716 I-0.957 J-1.154 
G01 X307.953 Y171.086 
G03 X307.788 Y171.177 I-0.803 J-1.266 
G01 X307.163 Y171.471 
G03 X306.987 Y171.54 I-0.638 J-1.357 
G01 X306.33 Y171.753 
G03 X306.15 Y171.8 I-0.462 J-1.426 
G01 X305.471 Y171.93 
G03 X305.282 Y171.954 I-0.282 J-1.473 
G01 X303.999 Y172.034 
X303.505 Y172.128 
X303.027 Y172.283 
X302.573 Y172.497 
X302.151 Y172.765 
X301.763 Y173.086 
X301.419 Y173.452 
X301.124 Y173.858 
X300.882 Y174.298 
X300.698 Y174.764 
X300.573 Y175.25 
X300.511 Y175.748 
X300.511 Y176 
G03 X300.5 Y176.181 I-1.5 J0 
G01 X300.5 Y255.604 
X309.569 Y264.674 
G03 X309.663 Y264.777 I-1.06 J1.06 
G01 X310.104 Y265.309 
G03 X310.216 Y265.463 I-1.154 J0.957 
G01 X310.586 Y266.046 
G03 X310.677 Y266.211 I-1.266 J0.803 
G01 X310.971 Y266.836 
G03 X311.04 Y267.012 I-1.357 J0.638 
G01 X311.253 Y267.669 
G03 X311.3 Y267.849 I-1.426 J0.462 
G01 X311.43 Y268.528 
G03 X311.454 Y268.717 I-1.473 J0.282 
G01 X311.497 Y269.406 
G03 X311.497 Y269.593 I-1.497 J0.093 
G01 X311.454 Y270.282 
G03 X311.43 Y270.471 I-1.497 J-0.093 
G01 X311.3 Y271.15 
G03 X311.253 Y271.33 I-1.473 J-0.282 
G01 X311.04 Y271.987 
G03 X310.971 Y272.163 I-1.426 J-0.462 
G01 X310.677 Y272.788 
G03 X310.586 Y272.953 I-1.357 J-0.638 
G01 X310.216 Y273.536 
G03 X310.104 Y273.69 I-1.266 J-0.803 
G01 X309.663 Y274.222 
G03 X309.536 Y274.357 I-1.154 J-0.957 
G01 X309.033 Y274.83 
G03 X308.887 Y274.951 I-1.027 J-1.092 
G01 X308.328 Y275.357 
G03 X308.17 Y275.458 I-0.881 J-1.213 
G01 X307.565 Y275.791 
G03 X307.393 Y275.871 I-0.723 J-1.314 
G01 X306.751 Y276.125 
G03 X306.573 Y276.183 I-0.551 J-1.394 
G01 X305.904 Y276.355 
G03 X305.717 Y276.391 I-0.373 J-1.452 
G01 X305.031 Y276.477 
G03 X304.845 Y276.489 I-0.186 J-1.488 
G01 X304.155 Y276.489 
G03 X303.968 Y276.477 I0 J-1.5 
